/* XPM */
/* This file can be converted to EPS by the GROMACS program xpm2ps */
/* title:   "Mean smallest distance" */
/* legend:  "Distance (nm)" */
/* x-label: "Residue Index" */
/* y-label: "Residue Index" */
/* type:    "Continuous" */
static char *gromacs_xpm[] = {
"218 218   100 2",
"AA c #000000 " /* "0" */,
"BA c #000000 " /* "0.0152" */,
"CA c #000000 " /* "0.0303" */,
"DA c #000000 " /* "0.0455" */,
"EA c #000000 " /* "0.0606" */,
"FA c #F2F2F2 " /* "0.0758" */,
"GA c #F0F0F0 " /* "0.0909" */,
"HA c #EDEDED " /* "0.106" */,
"IA c #EAEAEA " /* "0.121" */,
"JA c #E8E8E8 " /* "0.136" */,
"KA c #E5E5E5 " /* "0.152" */,
"LA c #E3E3E3 " /* "0.167" */,
"MA c #E0E0E0 " /* "0.182" */,
"NA c #DEDEDE " /* "0.197" */,
"OA c #DBDBDB " /* "0.212" */,
"PA c #D8D8D8 " /* "0.227" */,
"QA c #D6D6D6 " /* "0.242" */,
"RA c #D3D3D3 " /* "0.258" */,
"SA c #D1D1D1 " /* "0.273" */,
"TA c #CECECE " /* "0.288" */,
"UA c #CBCBCB " /* "0.303" */,
"VA c #C9C9C9 " /* "0.318" */,
"WA c #C6C6C6 " /* "0.333" */,
"XA c #C4C4C4 " /* "0.348" */,
"YA c #C1C1C1 " /* "0.364" */,
"ZA c #BFBFBF " /* "0.379" */,
"aA c #BCBCBC " /* "0.394" */,
"bA c #B9B9B9 " /* "0.409" */,
"cA c #B7B7B7 " /* "0.424" */,
"dA c #B4B4B4 " /* "0.439" */,
"eA c #B2B2B2 " /* "0.455" */,
"fA c #AFAFAF " /* "0.47" */,
"gA c #ADADAD " /* "0.485" */,
"hA c #AAAAAA " /* "0.5" */,
"iA c #A7A7A7 " /* "0.515" */,
"jA c #A5A5A5 " /* "0.53" */,
"kA c #A2A2A2 " /* "0.545" */,
"lA c #A0A0A0 " /* "0.561" */,
"mA c #9D9D9D " /* "0.576" */,
"nA c #9B9B9B " /* "0.591" */,
"oA c #989898 " /* "0.606" */,
"pA c #959595 " /* "0.621" */,
"qA c #939393 " /* "0.636" */,
"rA c #909090 " /* "0.652" */,
"sA c #8E8E8E " /* "0.667" */,
"tA c #8B8B8B " /* "0.682" */,
"uA c #898989 " /* "0.697" */,
"vA c #868686 " /* "0.712" */,
"wA c #838383 " /* "0.727" */,
"xA c #818181 " /* "0.742" */,
"yA c #7E7E7E " /* "0.758" */,
"zA c #7C7C7C " /* "0.773" */,
"0A c #797979 " /* "0.788" */,
"1A c #767676 " /* "0.803" */,
"2A c #747474 " /* "0.818" */,
"3A c #717171 " /* "0.833" */,
"4A c #6F6F6F " /* "0.848" */,
"5A c #6C6C6C " /* "0.864" */,
"6A c #6A6A6A " /* "0.879" */,
"7A c #676767 " /* "0.894" */,
"8A c #646464 " /* "0.909" */,
"9A c #626262 " /* "0.924" */,
"!A c #5F5F5F " /* "0.939" */,
"@A c #5D5D5D " /* "0.955" */,
"#A c #5A5A5A " /* "0.97" */,
"$A c #585858 " /* "0.985" */,
"%A c #555555 " /* "1" */,
"^A c #525252 " /* "1.02" */,
"&A c #505050 " /* "1.03" */,
"*A c #4D4D4D " /* "1.05" */,
"(A c #4B4B4B " /* "1.06" */,
")A c #484848 " /* "1.08" */,
"-A c #464646 " /* "1.09" */,
"_A c #434343 " /* "1.11" */,
"=A c #404040 " /* "1.12" */,
"+A c #3E3E3E " /* "1.14" */,
"{A c #3B3B3B " /* "1.15" */,
"}A c #393939 " /* "1.17" */,
"|A c #363636 " /* "1.18" */,
";A c #343434 " /* "1.2" */,
":A c #313131 " /* "1.21" */,
"'A c #2E2E2E " /* "1.23" */,
",A c #2C2C2C " /* "1.24" */,
"<A c #292929 " /* "1.26" */,
".A c #272727 " /* "1.27" */,
">A c #242424 " /* "1.29" */,
"/A c #212121 " /* "1.3" */,
"?A c #1F1F1F " /* "1.32" */,
" A c #1C1C1C " /* "1.33" */,
"AB c #1A1A1A " /* "1.35" */,
"BB c #171717 " /* "1.36" */,
"CB c #151515 " /* "1.38" */,
"DB c #121212 " /* "1.39" */,
"EB c #0F0F0F " /* "1.41" */,
"FB c #0D0D0D " /* "1.42" */,
"GB c #0A0A0A " /* "1.44" */,
"HB c #080808 " /* "1.45" */,
"IB c #050505 " /* "1.47" */,
"JB c #030303 " /* "1.48" */,
"KB c #FFFFFF " /* "1.5" */,
/* x-axis:  1 2 3 4 5 6 7 8 9 10 11 12 13 14 15 16 17 18 19 20 21 22 23 24 25 26 27 28 29 30 31 32 33 34 35 36 37 38 39 40 41 42 43 44 45 46 47 48 49 50 51 52 53 54 55 56 57 58 59 60 61 62 63 64 65 66 67 68 69 70 71 72 73 74 75 76 77 78 79 80 */
/* x-axis:  81 82 83 84 85 86 87 88 89 90 91 92 93 94 95 96 97 98 99 100 101 102 103 104 105 106 107 108 109 110 111 112 113 114 115 116 117 118 119 120 121 122 123 124 125 126 127 128 129 130 131 132 133 134 135 136 137 138 139 140 141 142 143 144 145 146 147 148 149 150 151 152 153 154 155 156 157 158 159 160 */
/* x-axis:  161 162 163 164 165 166 167 168 169 170 171 172 173 174 175 176 177 178 179 180 181 182 183 184 185 186 187 188 189 190 191 192 193 194 195 196 197 198 199 200 201 202 203 204 205 206 207 208 209 210 211 212 213 214 215 216 217 218 */
/* y-axis:  1 2 3 4 5 6 7 8 9 10 11 12 13 14 15 16 17 18 19 20 21 22 23 24 25 26 27 28 29 30 31 32 33 34 35 36 37 38 39 40 41 42 43 44 45 46 47 48 49 50 51 52 53 54 55 56 57 58 59 60 61 62 63 64 65 66 67 68 69 70 71 72 73 74 75 76 77 78 79 80 */
/* y-axis:  81 82 83 84 85 86 87 88 89 90 91 92 93 94 95 96 97 98 99 100 101 102 103 104 105 106 107 108 109 110 111 112 113 114 115 116 117 118 119 120 121 122 123 124 125 126 127 128 129 130 131 132 133 134 135 136 137 138 139 140 141 142 143 144 145 146 147 148 149 150 151 152 153 154 155 156 157 158 159 160 */
/* y-axis:  161 162 163 164 165 166 167 168 169 170 171 172 173 174 175 176 177 178 179 180 181 182 183 184 185 186 187 188 189 190 191 192 193 194 195 196 197 198 199 200 201 202 203 204 205 206 207 208 209 210 211 212 213 214 215 216 217 218 */
"KB;A}A+A'A'AKBHBKBJBKB?A|A=AzAzA0A3A|AzA/A=AKBKBKBKB<AKBKBKBKBKBKBKBKBKBKB<ACB%AzANASAiAqA#A8A?A+AKBKBKBKBKBKBKBKBKBKBKBKBKBKBFB A A-AuAxA)A#A7AfAUAXARAzA!AtA'AKBKBKBKBKBKBKBKBKBKBKBKBKBKBKBKBKBKBCB&A{A)AoA*A4AqAxA5A2AKBBB{A5AGBGBKBKBKBKBKBGB|A&ApA@A+A?AKBKBKBKBKBKBKBKBKBKBKBKBKBKBKBKBKBKBKBKBKBKBFB;A1A$A1A1AdA0AvA#A(ADB.AKBKBKBKBKB@A^AtAlAMAzArA(A%AtAyA3AeARANAYAMAhAWA0A!AEBKBKBKBKBKBKBKBKBKBKBKBKBKBKBKBKBKBKBKB.AKBAB#A|A0AsAWAJAAA",
"KBKBKBKBKBKBKBKBKBKBKBKBKBKB;A|A+A{AEB7ADB_AKBKBKBKB|AKBDBKBKBKBKBKBKBKBKB:AGB*A6AhAsA8A(ACB>AKBEBKBKBKBKBKBKBKBKBKBKBKBKBKBKBKBCBAB&AsAtA*A)A+AwAuAuAmA_A;AxA?AKBKBKBKBKBKBKBKBKBKBKBKBKBKBKBKBKBJB A&A=A{AxA'A{A%A+A'A+AIB*A9AfA-A-AKBKBKBKBEB*A1AoAUAuA9A(AKBKBKBKBKBKBKBKBKBKBKBKBKBKBKBKBKBKBKBKBKBKBDB=AuAzAmAcAOAdAhA6A-AHB AKBKBKBKBKB:A,A1AxAOAtArA5A%AxA#A{A2AfARAQAUAuAdA8A}AKBKBKBKBKBKBKBKBKBKBKBKBKBKBKBKBKBKBKBKBKBKBJB^A|AjAgAJAAAJA",
"KBKBKBKBKBKBKBKBKBKBKBKBKBKB,AAB ADBKB,AKB AKBKBKBKBEBKBHBKBKBKBKBKBKBKBKB?AKB,A{A3A2A-A'AHB>AKB AKBKBKBKBKBKBKBKBKBKBKBKBKBKBKBJBKB|A1ArA_A-A+AyAwAqAlA*A|AuA/AIBKBKBKBKBKBKBKBKBKBKBKBKBKBKBKBKBAB}A7A_A:A7A>A;A_A-A}A@A;A5ApATA6A!ACBKBKBKBKB)A*AsAWAmAqA8A/ABBKBKBKBKBKBKBKBKBKBKBKBKBKBKBKBKBKBKBKB;A&A2AdAtA1A0AlA3A7A>AHBKBKBKBKBKBKBKBKBKB}A{AmA=A&A'A,A9A-A<A$A0AaAVAMAZARAmA3A'AKBKBKBKBKBKBKBKBKBKBKBKBKBKBKBKBKBKBKB<AEB=AqA2AWAJAAAJAWA",
"KBKBKBKBKBKBKBKBKBKBKBKBKBKBHBKBKBKBKBKBKBKBKBKBKBKBKBKBKBKBKBKBKBKBKBKBKBJBKBGBDB;A+AIBKBKBHBKB?AKBKBKBKBKBKBKBKBKBKBKBKBKBKBKBKBKB|A7AoA(A+A,A!A^AxAuA*A:A1ACBKBKBKBKBKBKBKBKBKBKBKBKBKBKBKBKBKBBB{A9A:A A)ADB/A.A;A,A8A6AmAQAQAmAvA)A{AJB?AEB$A&AqAXAXASAgA5A!A/A?AKBKBKBKBKBKBKBKBKBKBKBKBKBKBKB.A+A2AoAbAOAdAwA7A3A)A|AKBKBKBKBKBKBKBKBKBKBKBKBKB9AFB<A ACB=A<AKB?A=AxAZARAPARAcAsA$ACBIBKBKBKBKBKBKBKBKBKBKBKBKBKBKBKBKBIB=A=A4AUAfAJAAAJAgAsA",
"KBFBKBKBKBKBKBKBKBKBKBKBKBKBKBKBKBKBKBDBKB/AKBDBKBKB AKB}AKBKBKBKBKBKBKBKB:AKB<A>A|A;AKBKBKBKBKBBBKBKBKBKBKBKBKBKBKBKBKBKBKBKBKBKBKBKB<A8ACB AAB-A_AyAuA@A*AoA-A+A?AKBGBKBKBKBKBKBKBKBKBKBKBKBKBAB@AvAmA8A)A!A:A,A,A;A<A7AkATAPASAlA5A<AFBKBKBKB}A AwAsAtATAzA%A=AEBBBKBKBKBKBKBKBKBKBKBKBKBKBKBKBKB+A%AyApAxAeA3A+A=A&A^A(AHBKBKBKBKBKBKBKBKBKBKBBBKB8AIBJBKBKBHBKBKBKB?A#A0AeARANAOAcApA%A|AKBKBKBKBKBKBKBKBKBKBKBKBKBKBKBAB|A5A9AkATAJAAAJAWAjA0A",
"KB AKBKBKBKBKBKBKBKBKBKBKBKBKBKBKBKBKBKBKBKBKBKBKBKBKBKBKBKBKBKBKBKBKBKBKBKBKBKBKBKBIBKBKBKBKBKBDBKBKBKBKBKBKBKBKBKBKBKBKBKBKBKBKBKBKBKB|AKBKBJB ACB@A9A#A&A8A.A/AKBKBKBKBKBKBKBKBKBKBKBKBKBKBKBKBFB^A8AABCB>ACBBBEB?A/A7AkAgASAlAmA@A AJBKBKBKBKBKB=A-A8ARA5A8A#A;A}AKBIBKBKBKBKBKBKBKBKBKBKB AKBFB6AwAlAcAxAvA)AGBKBKBKBKBKBKBKBKBKBKBKBKBKBKBKBKBKBKBKBKBKBKBKBKBKBKBKBCB=A3AfAmAOAPANAnA2A=AIBKBKBKBKBKBKBKBKBKBKBKBKB)A*A!AsAuAUAJAAAJAfA2A|A|A",
"KB.AKBKBKBKBKBKBKBKBKBKBKBKBIBKBKBKBKBKBKBKBKBKBKBKBKBKBKBKBKBKBKBKBKBKBKBKBKBKBKBKBABKBKBKBABKB&AKBKBKBKBKBKBKBKBKBKBKBKBEBBBHBJBKBBB}AxA(A(A(A$A}AvA4A@A|A*AKBKBKBKBKBKBKBKBKBKBKBKBKBKBKBKBKBKBKBFB;AKBKB?AKBBB A+A&ApA8A4AjAtAsA8A.A'AKBKBKBCBFB_A3ApANAkAtAoA5AyA,A{AKBKB>AKBFBKBKBKBKBKB;AJB|AlAiAMAPARATAsA&A?A.AKBKBKBKBKBKBKBKBKBKBKBKBKBKBKBEBKBKBKBKBDBABKBKBHB)AxAkAPAcAUAPAbAzAwA|A.AKBKBKBKBKBKBKBKBKBKBKBKB.A$A6AmAcAJAAAJATAUAqA^A#A",
"KB+AKBKBKBKBKBKBKBKBKBKBKBKBKBKBKBKBKBKBKBKBKBKBKBKBKBKBKBKBKBKBKBKBKBKBKBKBKBKBKBKBKBKBKBKBKBKB,AKBKBKBKBKBKBKBKBKBKBKBKBKBKBKBKBKBKBKB,AKBJBFBBBGB$A*A%A|A:AKBKBKBKBKBKBKBKBKBKBKBKBKBKBKBKBKBKBKBKB AKBKBKBKBHBHB?A;A0A%A)A3A=A8A,AKBIBKBKBKBKBKBKBDB|AcA1AyAqAwArA*A3AGBKB|AKB:AKBGB|AKB}AxA+A3ARATAPASAsA4A'AKBKBKBKBKBKBKBKBKBKBKBKBKBKBKBKBKBKBKBKBKBKBKBKBKBKBKBKBKB<A%AlA1AdAQANAYAQAtA5A,ACBKBKBKBKBKBKBKBKB'A-A5AnAjAVAJAAAJAUAkA4A=AJBAB",
"GB!AKBKBKBKBKBKBKBKBKBKBKBKBKBKBKBKBKBKBKBKBKBKBKBKBKBKBKBKBKBKBKBKBKBKBKBKBKBKBKBKBKBKBKBKBKBKB-AKBKBKBKBKBKBKBKBKBKBEBKBIBKBKBKBKBKBKBABKBIBABCBKB-A;A^A:ADBKBKBKBKBKBKBKBKBKBKBKBKBKBKBKBKBKBKBKBKBKBKBKBKBKBIBKB/A)AxAKBKB/AKBABKBKBKBKBKBKBKBKBKBKBDB6A&A&AuA3AiA6AVA+A,AyA/AnA/AyAnA(A1AlA8A0AQAmAUAnAzA#ACBKBKBKBKBKBKBKBKBKBKBKBKBKBKBKBKBKBKBKBKBKBKBKBKBKBKBKBKBKBEB'A2A=A1AYAPASAOAmAUA3A2A'A AKBKBKBKBBB+A^AvAnAQASAJAAAJAcAuA9A=AEBKBKB",
")AmA-ABBKBKBKBKBKBKBKBKBKBKB>AKBKBKBKBKBKBKBKBKBKBKBKBKBKBKBKBKBKBKBKBKBKBKBKBKBKBKB AKBKBKB:A.A2AHBKBKBKBKBKBKBKBKBKBKBKBCBJBKBKBKBKBKB>AKB?A{A*A{AxA3AnA4A-AIBKBKBKBKBKBKBKBKBKBKBKBKBKBKBKBKBKBKBKBEBKBKB/A/A*A-A8AvAbAHBKB AKBKBKBKBKBKBKBKBKBKBKBKBJB*A/ABB%A,A4AAB$AKBKB:AKB}AKBAB>AKBFB{AKBABpA@AtA4A9A*AHBKBKBKBKBKBKBKBKBKBKBKBKBKBKBKBKBKBKBKBKBKBKBKBKBKBKBKBKBGB>A%ApA7AqAQAUAUAiA6A#AGB/AKBKBKBKBKBKBKBKB.A&AqAaAJAAAJAVAmAsA5A=A<AKB.A",
"5AaA=AHBKBKBKBKBKBKBKBKBKBKBKBKBKBKBKBKBKBKBKBKBKBKBKBKBKBKBKBKBKBKBKBKBKBKBKBKBKBKBKBKBKBKBIBFB%AKBGBKBKBKBKBKBKBKBKBKBKBKBKBKBKBKBKBKBKBKBKBGBDBHB)A-AzA6A;AKBKBKBKBKBKBKBKBKBKBKBKBKBKBKBKBKBKBKBKBKBKBKBKBCB)A>A_A9AyAKBKBKBKBKBKBKBKBKBKBKBKBKBKBKBKB?AKBKB/AHB(AKB$AKBKB?AKB{AKB=A|AKB,A-AKBGBzA}A@A|A>AEBKBKBKBKBKBKBKBKBKBKBKBKBKBKBKBKBKBKBKBKBKBKBKBKBKBKBKBKBKBKBKBDB%A;A@AlAdAPAbAwA0A|A7AKBCBKBKBKBKBKB=A#AtAUAJAAAJASAjA6A!A|AIBKBKBKB",
"<A0AKBKBKBKBKBKBKBKBKBKBKBKBKBKBKBKBKBKBKBKBKBKBKBKBKBKBKBKBKBKBKBKBKBKBKBKBKBKBKBKBKBKBKBKBKBKB}AKBBBKBKBKBKBKBKBKBKBDBKBKBKBKBKBKBKBKBKBKBKBKBKBKBEBIB;A>AKBKBKBKBKBKBKBKBKBKBKBKBKBKBKBKBKBKBKBKBKBKBKBKBKBKBKBKBIB;A$AKBKBKBKBKBKBKBKBKBKBKBKBKBKBKBKBDBKBKB ABB7A:AmA AKB*AFByA<AmAnA7AwApA(A)AsA_A@A<AFBKBKBKBKBKBKBKBKBKBKBKBKBKBKBKBKBKBKBKBKBKBKBKBKBKBKBKBKBKBKBKBKBKB,AIB{AzAgARANAXASArAcA9A9A?A AKB?A&AwArAWAJAAAJAaAQAnA$A*AABKBKBKBKB",
"'A2AKBKBKBKBKBKBKBKBKBKBKBKBKBKBKBKBKBKBKBKBKBKBKBKBKBKBKBKBKBKBKBKBKBKBKBKBKBKBKBKBKBKBKBKBKBKBKBKBKBKBKBKBKBKBKBKBKBKBKBKBKBKBKBKBKBKBKBKBKBKBKBKBKBKB'A_AEBKBKBKBKBKBKBKBKBKBKBKBKBKBKBKBKBKBKBKBKBKBKBKBKBKBEBKBKBKBBBKBKBKBKBKBKBKBKBKBKBKBKBKBKBKBKBKBKBKBKBKB AKB^AKBKBKBKB/AKB*A%A}A6AzA/A A*A?A<AIBKBKBKBKBKBKBKBKBKBKBKBKBKBKBKBKBKBKBKBKBKBKBKBKBKBKBKBKBKBKBKBKBKBKBKBKB}A6ArAPASAQAYAwAkA:A+AKBBBKBBB)AuAaAJAAAJAUAqAnA5A.A)AKBKBKBKBKB",
"KB,AKBKBKBKBKBKBKBKBKBKBKBKBKBKBKBKBKBKBKBKBKBKBKBKBKBKBKBKBKBKBKBKBKBKBKBKBKBKBKBKBKBKBKBKBKBKBKBKBKBKBKBKBKBKBKBKBKBKBKBKBKBKBKBKBKBKBKBKBKBKBKBKBKBKBKBKBKBKBKBKBKBKBKBKBKBKBKBKBKBKBKBKBKBKBKBKBKBKBKBKBKBKBKBKBKBKBKBKBKBKBKBKBKBKBKBKBKBKBKBKBKBKBKBKBKBKBKBKBABKB#AKBKBKBKB,ABB5A1A3AtAuA;A/A)AGBEBKBKBKBKBKBKBKBKBKBKBKBKBKBKBKBKBKBKBKBKBKBKBKBKBKBKBKBKBKBKBKBKBKBKBKBKBKBKBCB(AqAaARANAaAUA7A8A?A_ABB&AuAbAJAAAJAWAtA&AvA-AKBKBKBKBKBKBKB",
"KBIBKBKBKBKBKBKBKBKBKBKBKBKBKBKBKBKBKBKBKBKBKBKBKBKBKBKBKBKBKBKBKBKBKBKBKBKBKBKBKBKBKBKBKBKBKBKBKBKBKBKBKBKBKBKBKBKBKBKBKBKBKBKBKBKBKBKBKBKBKBKBKBKBKBKBKBKBKBKBKBKBKBKBKBKBKBKBKBKBKBKBKBKBKBKBKBKBKBKBKBKBKBKBKBKBKBKBKBKBKBKBKBKBKBKBKBKBKBKBKBKBKBKBKBKBKBKBKBKBKBKB-AKBKBKBKB?A.A6A1AuAoAsA+A.A{AHBKBKBKBKBKBKBKBKBKBKBKBKBKBKBKBKBKBKBKBKBKBKBKBKBKBKBKBKBKBKBKBKBKBKBKBKBKBKBKBKB}A0AqAPARAQAXAxAxA-A0A^AtAbAJAAAJAaArA#A.A^A'AKBKBKBKBKBKBKB",
"KBKBKBKBKBKBKBKBKBKBKBKBKBKBKBKBKBKBKBKBKBKBKBKBKBKBKBKBKBKBKBKBKBKBKBKBKBKBKBKBKBKBKBKBKBKBKBKBKBKBKBKBKBKBKBKBKBKBKBKBKBKBKBKBKBKBKBKBKBKBKBKBKBKBKBKBKBKBKBKBKBKBKBKBKBKBKBKBKBKBKBKBKBKBKBKBKBKBKBKBKBKBKBKBKBKBKBKBKBKBKBKBKBKBKBKBKBKBKBKBKBKBKBKBKBKBKBKBKBKBKBKB{AKBKBKBKB|A^AsAuAiAtA7A'AGBCBKBKBKBKBKBKBKBKBKBKBKBKBKBKBKBKBKBKBKBKBKBKBKBKBKBKBKBKBKBKBKBKBKBKBKBKBKBKBKBKBKBKB<A#A0AaAQANAXASAoARAqAUAJAAAJAbAuAwA=AKB+AKBKBKBKBKBKBKBKB",
"KBKBKBKBKBKBKBKBKBKBKBKBKBKBKBKBKBKBKBKBKBKBKBKBKBKBKBKBKBKBKBKBKBKBKBKBKBKBKBKBKBKBKBKBKBKBKBKBKBKBKBKBKBKBKBKBKBKBKBKBKBKBKBKBKBKBKBKBKBKBKBKBKBKBKBKBKBKBKBKBKBKBKBKBKBKBKBKBKBKBKBKBKBKBKBKBKBKBKBKBKBKBKBKBKBKBKBKBKBKBKBKBKBKBKBKBKBKBKBKBKBKBKBKBKBKBKBKBKBKBKBKB:AIBKBKBEB(A0AmAqARApA#A+AEBIBKBKBKBKBKBKBKBKBKBKBKBKBKBKBKBKBKBKBKBKBKBKBKBKBKBKBKBKBKBKBKBKBKBKBKBKBKBKBKBKBKBKBKB;A#ApAQATAVAdAsAeAXAJAAAJAbAuA)A&AKBKBBBKBKBKBKBKBKBKBKB",
"KBKBKBKBKBKBKBKBKBKBKBKBKBKBKBKBKBKBKBKBKBKBKBKBKBKBKBKBKBKBKBKBKBKBKBKBKBKBKBKBKBKBKBKBKBKBKBKBKBKBKBKBKBKBKBKBKBKBKBKBKBKBKBKBKBKBKBKBKBKBKBKBKBKBKBKBKBKBKBKBKBKBKBKBKBKBKBKBKBKBKBKBKBKBKBKBKBKBKBKBKBKBKBKBKBKBKBKBKBKBKBKBKBKBKBKBKBKBKBKBKBKBKBKBKBKBKBKBKBKBKBKBKBKBKBKBKBFB|A8A*AwA+AIBKBKBKBKBKBKBKBKBKBKBKBKBKBKBKBKBKBKBKBKBKBKBKBKBKBKBKBKBKBKBKBKBKBKBKBKBKBKBKBKBKBKBKBKBKBKBKBGB*AxAiAeAdAnAPAJAAAJAUAtA&ABB?AKBKBKBKBKBKBKBKBKBKBKB",
"KBKBKBKBKBKBKBKBKBKBKBKBKBKBKBKBKBKBKBKBKBKBKBKBKBKBKBKBKBKBKBKBKBKBKBKBKBKBKBKBKBKBKBKBKBKBKBKBKBKBKBKBKBKBKBKBKBKBKBKBKBKBKBKBKBKBKBKBKBKBKBKBKBKBKBKBKBKBKBKBKBKBKBKBKBKBKBKBKBKBKBKBKBKBKBKBKBKBKBKBKBKBKBKBKBKBKBKBKBKBKBKBKBKBKBKBKBKBKBKBKBKBKBKBKBKBKBKBKBKBKBKBKBKBKBKBKBKB:A*A'A0A>AKBKBKBKBKBKBKBKBKBKBKBKBKBKBKBKBKBKBKBKBKBKBKBKBKBKBKBKBKBKBKBKBKBKBKBKBKBKBKBKBKBKBKBKBKBKBKBKBKB A!A0AcApAeAJAAAJAXAqA^ABBKBKBKBKBKBKBKBKBKBKBKBKBKB",
"KBKBKBKBKBKBKBKBKBKBKBKBKBKBKBKBKBKBKBKBKBKBKBKBKBKBKBKBKBKBKBKBKBKBKBKBKBKBKBKBKBKBKBKBKBKBKBKBKBKBKBKBKBKBKBKBKBKBKBKBKBKBKBKBKBKBKBKBKBKBKBKBKBKBKBKBKBKBKBKBKBKBKBKBKBKBKBKBKBKBKBKBKBKBKBKBKBKBKBKBKBKBKBKBKBKBKBKBKBKBKBKBKBKBKBKBKBKBKBKBKBKBKBKBKBKBKBKBKBKBKBKBKBKBKBKBKBBB_A3A_AzA>AKBKBKBKBKBKBKBKBKBKBKBKBKBKBKBKBKBKBKBKBKBKBKBKBKBKBKBKBKBKBKBKBKBKBKBKBKBKBKBKBKBKBKBKBKBKBKBKBKB|A%AqAUARAJAAAJAPAeARA0A_ABB AKBKBKBKBKBKBKBKBKBKBKB",
"KBKBKBKBKBKBKBKBKBKBKBKBKBKBKBKBKBKBKBKBKBKBKBKBKBKBKBKBKBKBKBKBKBKBKBKBKBKBKBKBKBKBKBKBKBKBKBKBKBKBKBKBKBKBHBKBKBKBKBKBKBKBKBKBKBKBKBKBKBKBKBKBKBKBKBKBKBKBKBKBKBKBKBKBKBKBKBKBKBKBKBKBKBKBKBKBKBKBKBKBKBKBKBKBKBKBKBKBKBKBKBKBKBKBKBKBKBKBKBKBKBKBKBKBKBKBKBKBKBKBKBKBHBKBKBKB A+A@AnA9A0A,AKBKBKBKBKBKBKBKBKBKBKBKBKBKBKBKBKBKBKBKBKBKBKBKBKBKBKBKBKBKBKBKBKBKBKBKBKBKBKBKBKBKBKBKBKBKBKBKBKB}A^ApARAJAAAJAeAnAsAoA-A?AKB?AKBKBKBKBKBKBKBKBKBKBKB",
"KBKBKBKBKBKBKBKBKBKBKBKBKBKBKBKBKBKBKBKBKBKBKBKBKBKBKBKBKBKBKBKBKBKBKBKBKBKBKBKBKBKBKBKBKBKBKBKBKBKBABKBCBKBBBKBKBKBKBKBKBKBKBKBKBKBKBKBKBKBKBKBKBKBKBKBKBKBKBKBKBKBKBKBKBKBKBKBKBKBKBKBKBKBKBKBKBKBKBKBKBKBKBKBKBKBKBKBKBKBKBKBKBKBKBKBKBKBKBKBKBKBKBKBKBKBKBKBKBKBKBKB/AKBKBIB>A&A6AhAzApA&A>AGBKBKBKBKBKBKBKBKBKBKBKBKBKBKBKBKBKBKBKBKBKBKBKBKBKBKBKBKBKBKBKBKBKBKBKBKBKBKBKBKBKBKBKBKBKBBB>A4AyASAJAAAJARApAdAdASAxA8A+A9ACBKB AKBKBKBKBKBKBKBKB",
"KBKBKBKBKBKBKBKBKBKBKBKBKBKBKBKBKBKBKBKBKBKBKBKBKBKBKBKBKBKBKBKBKBKBKBKBKBKBKBKBKBKBKBKBKBKBKBKBKBKBKBKBKBKBKBKBKBKBKBKBKBKBKBKBKBKBKBKBKBKBKBKBKBKBKBKBKBKBKBKBKBKBKBKBKBKBKBKBKBKBKBKBKBKBKBKBKBKBKBKBKBKBKBKBKBKBKBKBKBKBKBKBKBKBKBKBKBKBKBKBKBKBKBKBKBKBKBKBKBKBGBEB#A,AKB,A$AvAiANAZASAqA#A&A?A AKBKBKBKBKBKBKBKBKBKBKBKBKBKBKBKBKBKBKBKBKBKBKBKBKBKBKBKBKBKBKBKBKBKBKBKBKBKBKBKBKBKBKB;A=ArAeAJAAAJARAUAcAeAVAXAxA7A:A9AKBKB'AKBKBKBKBKBKBKBKB",
"KBDBKBKBKBKBKBKBKBKBKBKBKBKBKBKBKBKBKBKBKBKBKBKBKBKBKBKBKBKBKBKBKBKBKBKBKBKBKBKBKBKBKBKBKBKBKBKBKBKBHBKBKBKBKBKBKBKBKBKBKBKBKBKBKBKBKBKBKBKBKBKBKBKBKBKBKBKBKBKBKBKBKBKBKBKBKBKBKBKBKBKBKBKBKBKBKBKBKBKBKBKBKBKBKBKBKBKBKBKBKBKBKBKBKBKBKBKBKBKBKBKBKBKBKBKBKBKBKBKB|A<AzA|AEB=A-AtApAQAQAQAdAsA7A=A&AKBKBKBKBKBKBKBKBKBKBKBKBKBKBKBKBKBKBKBKBKBKBKBKBKBKBKBKBKBKBKBKBKBKBKBKBKBKBKBKBKBDB&AwAqAQAJAAAJASApAqA0AiATANAXAUAkAcA7A/A2ACBKBKBKBKBKBKBKB",
"KBKBKBKBKBKBKBKBKBKBKBKBKBKBKBKBKBKBKBKBKBKBKBKBKBKBKBKBKBKBKBKBKBKBKBKBKBKBKBKBKBKBKBKBKBKBKBKBKBKBKBKBKBKBKBKBKBKBKBKBKBKBKBKBKBKBKBKBKBKBKBKBKBKBKBKBKBKBKBKBKBKBKBKBKBKBKBKBKBKBKBKBKBKBKBKBKBKBKBKBKBKBKBKBKBKBKBKBKBKBKBKBKBKBKBKBKBKBKBKBKBKBKBKBKBKBKBKBKBFB}A:AuA{ADB'A;AzAwAeATANAMAaAwA8A7A?AEBKBKBKBKBKBKBKBKBKBKBKBKBKBKBKBKBKBKBKBKBKBKBKBKBKBKBKBKBKBKBKBKBKBKBKBKBKBKBKBCB(AoAdAJAAAJAeAyA^A%A!AxAQAQAQAaAwArA|AGB3A,AKBKBKBKBKBKBKB",
"KBEBKBKBKBKBKBKBKBKBKBKBKBKBKBKBKBKBKBKBKBKBKBKBKBKBKBKBKBKBKBKBKBKBKBKBKBKBKBKBKBKBKBKBKBKBKBKBKBKBKBKBKBKBKBKBKBKBKBKBKBKBKBKBKBKBKBKBKBKBKBKBKBKBKBKBKBKBKBKBKBKBKBKBKBKBKBKBKBKBKBKBKBKBKBKBKBKBKBKBKBKBKBKBKBKBKBKBHBKBKBKBKBKBKBKBKBKBKBKBKBKBKBKBKBKBKBKB<A-AsA5ASA!A=AzA-AiA9AeAQAfAQAQAqAwAgA&A!A/AKBKBKBKBKBKBKBKBKBKBKBKBKBKBKBKBKBKBKBKBKBKBKBKBKBKBKBKBKBKBKBKBKBKBKBKBKB:A%AtASAJAAAJAQArA4A}A|A A*ApAaARANAYASA0A#AUA5A.AIBKBKBKBKBKB",
"KB AKBKBKBKBKBKBKBKBKBKBKBKBKBKBKBKBKBKBKBKBKBKBKBKBKBKBKBKBKBKBKBKBKBKBKBKBKBKBKBKBKBKBKBKBKBKBKBKBKBKBKBKBKBKBKBKBKBKBKBKBKBKBKBKBKBKBKBKBKBKBKBKBKBKBKBKBKBKBKBKBKBKBKBKBKBKBKBKBKBKBKBKBKBKBKBKBKBKBKBKBKBKBKBKBKBKBKBKBKBKBKBKBKBKBKBKBKBKBKBKBKBKBKBFBKBKBDB.A)A'AvABBKBCBKB}AAB^AtA2AdATA1A6AuA#A^A.AKBKBKBKBKBKBKBKBKBKBKBKBKBKBKBKBKBKBKBKBKBKBKBKBKBKBKBKBKBKBKBKBKBKBKBKB?A(AvAaAJAAAJAdAqA=A>AKBKBKBGB#A0APARAQAXAwA6AmAtA|A=AKBKBKBKBKB",
"KB-AKBKBKBKBKBKBKBKBKBKBKBKBKBKBKBKBKBKBKBKBKBKBKBKBKBKBKBKBKBKBKBKBKBKBKBKBKBKBKBKBKBKBKBKBKBKBKBKBKBKBKBKBKBKBKBKBKBKBKBKBKBKBKBKBKBKBKBKBKBKBKBKBKBKBABFBKBKBKBKBKBKBKBKBKBKBKBKBKBKBKBKBKBKBKBKBKBKBKBKBKBKBKBKBKBIB;AHBKBFBKBHBKBKBKBKBKBKBKBKBKBKBKB%A.A{A6A3AqA9AcA+A?A&AGB9AAB@ArA!AlASAxAqASAgAiA0A{AEBKBKBKBKBKBKBKBKBKBKBKBKBKBKBKBKBKBKBKBKBKBKBKBKBKBKBKBKBKBKBKBKB|AGB)AyAcAJAAAJASAoAwA;ABBKBKBKBKB;A#AqAaASANAbAiAOAQAwA2A|AIBKBKBKB",
"?A6AKBKBKBKBKBKBKBKBKBKBKBKBKBKBKBKBKBKBKBKBKBKBKBKBKBKBKBKBKBKBKBKBKBKBKBKBKBKBKBKBKBKBKBKBKBKBDBKBKBKBKBKBKBKBKBKBKBKBKBKBKBKBKBKBKBKBKBKBKBKBKBKB A:A$A%A{AHBKBKBKBKBKBKBKBKBKBKBKBKBKBKBKBKBKBKBJBCBKBKBKBHBCBKBJB/A&A;AJBABKBKBKBKBKBKBKBKBKBKBKBKBKB(AJBFB:A'A(AEB!AKBKBGBKB?AKBAB|AHB)AyA.A-ArA1AzA@A/AFBKBKBKBKBKBKBKBKBKBKBKBKBKBKBKBKBKBKBKBKBKBKBKBKBKBKBKBKBKBKBKBJB*A=AxAcAJAAAJAaAtA(A&AKBKBKBKBKBKBKB<A0AqAPARAPAUASAYAzAnA%ACBKBKBKB",
"JB&AKBKBKBKBKBKBKBKBKBKBKBKBKBKBKBKBKBKBKBKBKBKBKBKBKBKBKBKBKBKBKBKBKBKBKBKBKBKBKBKBKBKBKBKBKBKB AKBKBKBKBKBKBKBKBKBKBKBKBKBKBKBKBKBKBKBGBKBKBKBHBKB(A$A7A$A)ACBEBKBKBKBKBKBKBKBKBKBKBKBKBKBKBKBKBKB,A{AKBKBGBEB AEB A'A5A4A)A9A'A}AKBKBKBKBKBKBKBKBKBKBDBtA;A;A_A:A&AHB(AKBKBHBKBDBKBKBBBKBAB^AJB,AqAwArAtA#A&AHBKBKBKBKBKBKBKBKBKBKBKBKBKBKBKBKBKBKBKBKBKBKBKBKBKBKBKBKBKBEB_AtA2AcAJAAAJAcAvA%ACBDBKBKBKBKBKBKBKBKB}A(ArAgAdAUAPANAbANApA$A'AKBEB",
">A3A:AFBKBKBKBKBKBKBKBKBKBKB'AKBCBKBKBKBKBKBKBKBKBKBKBKBKBKBKBKBKBKBKBKBKBKBKBKBKBIB=AKBKBKB}A>A1AKBKBKBKBKBKBKBKBKBKBKBKB>ABBKBKBKBKBCB#A,A_A%A8A%AkAnAkAtAvA)A:AKBKBKBKBKBKBKBKBKBKBKBKBKBKBKBKBKB=A6A>A}A*A-A%A%A4AyAWA^A*A6A)A=AEBKBKBKBKBKBKBKBKB}A-ArA%A=A4A|A7AEB}AKBKB/AKB AKBKBKBKBKB?AKBFBuA5AlAoAoAsA-AEBKBJBKBKBKBKBKBKBKBKBKBKBKBKBKBKBKBGBKBKBKBKBKBCBKBKBKB}A@AtARAdAJAAAJAcAyA(A:AKBKBKBKBKBKBKBKBKBKBKBCB6AzAlAQAYAQAPAPAcAsA3A}A!A",
"FB(A?AKBKBKBKBKBKBKBKBKBKBKBBBKB>AKBKBKBKBKBKBKBKBKBKBKBKBKBKBKBKBKBKBKBKBABKB/A A>A*AJBKBKBHBKB>AKBKBKBKBKBKBKBKBKBKBKBKBKBKBKBKBKBKBCB*AKBDBCB_A*ArAiAoAqAgA0A0A+AJBKBKBKBKBKBKBKBKBKBKBKBKBKB)A9AhAcA4A9A5A!A!A^A&A+A0AbAoAlAzA@A>AKBKBKBKBKBKBKB.A@A$AoA&A|A|AHB AKBKBKBKBKBKBKBKBKBKBKBKBKBKBKB)A&AzAwA3AqA)ACBKB/AKBKBKBKBKBKBKBKBKBKBKBKBKBKBKB:AKBKBKBKBKBKBKBKBHB(A8AkAVAJAAAJAcAxA)A?AKBKBKBKBKBKBKBKBKBKBKBKBKB}A{A@AqA1AdAUAOAOAcAmA8A0A",
"FB)A;A AHBKBKBKBKBKBKBKBKBKB_A:A-A,AKB{AKB,AKBKBKBKBFBKBKBKBKBKBKBKBKBKBKB|AFB*A#A4AuA)A<AKB'AKB;AKBKBKBKBKBKBKBKBKBKBKBKBKBKBKBKBKBFB(A3A/A:A;A5AuAcAQAlApAWA3A)A?AKBKBKBKBKBKBKBKBKBKBKBKBKBKBJB{A6AjA6A3AnA2A0A0A2A%AuA#AxArAmA$A:AKBKBKBKBKBHBDB*AqA3ArA$A/A/AKBKBKBKBKBKBKBKBKBKBKBKBKBKBKBKBKBCB A^A8A4AhA7A)A+A6A{A-AJBKBKBKBKBKBKBKBKBKBKB'A?AtADB/AKBKB;A>AFB}A^AsAnATAJAAAJAdA2A=AGBKBKBKBKBKBKBKBKBKBKBKBKBKBKBKBIB;A7A=A1AcAmANARARAdAWA",
"GB&A|A?AKBKBKBKBKBKBKBKBKBIB$A<A:ACBKBIBKBKBKBKBKBKBKBKBKBKBKBKBKBKBKBKBKBKBKBAB<A_A1A+A=A:A8A;AxAKBKBKBKBKBKBKBKBKBKBKBKB:A:A'A,AGB)A3AdA4AvAvAfAqAQAUAnA1AuA:AKBKBKBKBKBKBKBKBKBKBKBKBKBKBKBKBKBKB?A@A?A}A4A)A6A2AuAtAWA:A%AtAuA%A{AKBIBKBKBKBHBBB_AtAvAmA1A-A!A A{AKBKBKBKBKBKBKBKBKBKBKBKBKBKBKB*A-AwArAhAUAuA9A{A@ABBGBKBKBKBKBKBKBKBKBKBKBKBKBKB%AKB'ACB,A$A!A=A*A^AqAbAJAAAJAVARAtA*A|AKBKBKBKBKBKBKBKBKBKBKBKBKBKBKB,A%ApA2AlAPAfARAPAZAuAhA",
"KB{A|A'AGBIBKBKBKBKBKBIB<A|AyA$A(A+AKB<AKBKBKBKBKBKBKBKBKBKBKBKBKBKBKBKBKBKBKB/A=AzAlAxA0A@AxA_A2AKBKBKBKBKBKBKBKBKBKBKBKB|A|A+A=A'A9AmAYA0AoAoAPATAPAWAxA#A0ABBKBKBKBKBKBKBKBKBKBKBKBKBKBKBKBKBKBKBFB)AAB<A4A;A@AzAqArAjABB-AzAoA(A{AKBKBKBKBKB>A-A9AdAsAvA9A/A;AKBKBKBKBKBKBKBKBKBKBKBKBKBKBKBKBKBHBIB-A#AxAYArAtA1AkA@A*AFBKBKBKBKBKBKBKBKBKBKB,A-AsA+A1A-A$ArAsA2AqAlAQAJAAAJATAkAtA_AJBKBKBKBKBKBKBKBKBKBKBKBKBKBKBKBKBKBDB%A'A%AkA3AeARAMAUAMA",
"KBKBKBKBKBKBKBKBKBKBKBKBKBKB'AEBJBIBKBEBKBKBKBKBKBKBKBKBKBKBKBKBKBKBKBKBKBKBKBKBDB5A@A&A)A;A(ADB*AKBKBKBKBKBKBKBKBKBKBKBKB/A:A_A9A@ApAPAMAnArA1AgAxAoAxA|ADB=AKBKBKBKBKBKBKBKBKBKBKBKBKBKBKBKBKBKBKBKBDBKBKB|AKBCB'A)A*A3AKB}A6AjA#A5A,A:AKB A>A8AsAkAOAVApArA|A;AKBKBKBKBKBKBKBKBKBKBKBKBKBKBKBKBKBKBKB'A&AuATAXASAbAWAvA6A>AKBKBKBKBKBKBKBKBKBKB<A(AtA8AoAvAtAZAnA6AsAfAJAAAJAbAnA8A@AEBKBKBKBKBKBKBKBKBKBKBKBKBKBKBKBKBKBKBKB>AEB<AxA=A0AZAVAQAYA",
"KBIBFBGBKBKBKBKBKBKBKBEB}A;A6A(A}A_AKB{AKBKBKBKBKBKBKBKBKBKBKBKBKBKBKBKBKBKBKBHB;AhAqAsAuA2AzA=A!AKBKBKBKBKBKBKBKBKBKBKBKB_A*A8A2A6ApATATAlAfAkANAbAlAsA_AAB_AKBKBKBKBKBKBKBKBKBKBKBKBKBKBKBKBKBKBKBKBEBKBKB(AKB.A$A8A5A4AKBKB,A6AGBCBKBKBKBKBKB A$A9AlA3A=A{AKBGBKBKBKBKBKBKBKBKBKBKBKBKBKBKBKBKBKBKBKBKBAB%AtAxAkAkAYA0A5A_A?AKBKBKBKBKBKBKB.A>A%AxAfAyAaAsAlAQAWAhAUAJAAAJAQAqAsA(A}AKBKBKBKBKBKBKBKBKBKBKBKBKBKBKBKBKBKBKBKBGBKBKB)ACB#AxAaARANA",
"KBKBKBGBKB AKBHBKBAB?A+A&A+A!A$A_A!A?A!AIBCBKBKBKBKBEBKBKBKBKBKBKBKBKBKBKBKBKBCB=AUAkAiAnA4A#A A AKBKBKBKBKBKBKBKBKBKBKBKBFBEB|A$A9AxAhAtA5A7A5AmAmA2A4A.AJB>AKBKBKBKBKBKBKBKBKBKBKBKBKBKBKBKBKBKBKBKBKBKBKB_AKBAB^A_A_A|AKBKBKB'AKBKBKBKBKBKBKBKB-A*A2A{AIBEBKBKBKBKBKBKBKBKBKBKBKBKBKBKBKBKBKBKBKBKBKBKBKBEB(A&AvApAYArAqAuA!A>A?AKBKBKBKBKB8A3AvAUAPAaAMAoAkAUAiAgAJAAAJAfAlA^A^AHBKBKBKBKBKBKBKBKBKBKBKBKBKBKBKBKBKBKBKBKBKBKBKBKBHBKB?A=A0AfARA",
"KBKBKBGBKBABKBKBKBAB<A&A4A%A3A#A;A@AKB>AKBKBKBKBKBKBKBKBKBKBKBKBKBKBKBKBKBKBKBKBDBpAtAkAhAlAuA&A}AKBKBKBKBKBKBKBKBKBKBKBKB_A;A9A7A2A4AtA0A9AzAoAhAgA4A#A?AKBKBKBKBKBKBKBKBKBKBKBKBKBKBKBKBKBKBKBKBKBKBKBKBKB>AKBGB(A)A&A_AKBKBKBJBKBKBKBKBKBKBKBKBEBBB_ADBKBKBKBKBKBKBKBKBKBKBKBKBKBKBKBKBKBKBKBKBKBKBKBKBKBKB;A'A%A!AuA&A(A=ACBKBKBKBKBKBKBKB:A|A=AvApAwATAxAgARASAJAAAJAUAsAqA*A}AKBKBKBKBKBKBKBKBKBKBKBKBKBKBKBKBKBKBKBKBKBKBKBKBKBKBKBKB?A$A2AeA",
"KBKBJBCBKBBBKBKBKBDB:A%AtAzAyA$AAB&AKBKBKBKBKBKBKBKBKBKBKBKBKBKBKBKBKBKBKBKBKBKBKB!A@AvAeAVAfAwA@A<AKBKBKBKBKBKBKBKBKBKB;AzA#AtAzAuA3A1A1A4AoAZAbAjA9A:ABBKBKBKBKBKBKBKBKBKBKBKBKBKBKBKBKBKBKBKBKBKBKBKBKBKBKBKBKB;A)A8A^AKBKBKBKBKBKBKBKBKBKBKBKBKBKBCBKBKBKBKBKBKBKBKBKBKBKBKBKBKBKBKBKBKBKBKBKBKBKBKBKBKBJB.A/A}A+A^AABDBDBKBKBKBKBKBKBKBKBFBDBDB#A#A%AgA9AXAZAJAAAJAgAhA6A2A=AFBKBKBKBKBKBKBKBKBKBKBKBKBKBKBKBKBKBKBKBKBKBKBKBKBKBKBKBKBKB<A{A3A",
"KBKBJBKBKBKBKBKBKBKBKB A$A7A3A{AHB.AKBKBKBKBKBKBKBKBKBKBKBKBKBKBKBKBKBKBKBKBKBKBKB^A%A5ApAkAeArAxA=AJBKBKBKBKBKBKBKBJBGB*AoAsAbAdAfAbAcAeAdARAMATAiA3A=A?AKBKBKBKBKBKBKBKBKBKBKBKBKBKBKBKBKBKBKBKBKBKBKBKBKBKBKBKB'A&A1A5AKBKBKBJBKBKBKBKBKBKBKBKB:A>A)A,AJBBBKBKBKBKBKBKBKBKBKBKBKBKBKBKBKBKBKBKBKBKBKBKBKB+A#A7A0A1A4A:AABKBKBKBKBKBKBKBKBKBKBKBKB+A$A*AcArASAJAAAJASAiAWAnAsA!A>AKBCBKBKBKBKBKBKBKBKBKBKBKBKBKBKBKBKBKBKBKBKBKBKBKBABKBKB<A-A#AyA",
"KBKBKBKBKBKBKBKBKBKBKBEB{A,A*A<AKB/AKBKBKBKBKBKBKBKBKBKBKBKBKBKBKBKBKBKBKBKBKBKBKB7A%A6AzA0A4A{A{AKBKBKBKBKBKBKBKBKBKBKBKB)A^AzAkAiAVAQAYAcAiApAcAtA#A}AKBKBKBKBKBKBKBKBKBKBKBKBKBKBKBKBKBKBKBKBKBKBKBKBKBKBKBKBKB A<A}A}AKBKBKB.AKBKBKBKBKBKBKBBB$A^A2A(ABB:AKBKBKBKBKBKBKBKBKBKBKBKBKBKBKBKBKBKBKBKBKBKBKB_A8A0AmAiAiA6A*A;AKBKBKBKBKBKBKBKBKBKBBB7AtAtAPAVAJAAAJAZARAUAQAZArA$A;AKBKBKBKBKBKBKBKBKBKBKBKBKBKBKBKBKBKBKBKBKBKBKBKBKBDBKBHB=A9AxAtA",
"KBKBKBKBKBKBKBKBKBKBKBKB:A;A/AKBKBKBKBKBKBKBKBKBKBKBKBKBKBKBKBKBKBKBKBKBKBKBKBKBKB{AAB|A^A1A!A*A<AJBKBKBKBKBKBKBKBKBKBKB.A8A$AoAcAQAQAWAkAjAoAyAtA^A<AJBKBKBKBKBKBKBKBKBKBKBKBKBKBKBKBKBKBKBKBKBKBKBKBKBKBKBKBKBKBKBKBCBDBKBKBKBKBKBKBKBKBKBKBKBBB@A&A*A<AKBBBKBKBKBKBKBKBKBKBKBKBKBKBKBKBKBKBKBKBKBKBKBKBKB<A_A@AwAfAmA5A)A+AKBKBKBKBKBKBKBKBKBIBFB1AwAoAPAJAAAJASAXAgAkAlAtA$A,AKBKBKBKBKBKBKBKBKBKBKBKBKBKBKBKBKBKBKBKBKBKBKBKBKBKBKBKBKBCB,A%A%A",
"KBKBKBKBKBKBKBKBKBKBKBKBKBKBKBKBKBKBKBKBKBKBKBKBKBKBKBKBKBKBKBKBKBKBKBKBKBKBKBKBKB+AGBBBCBDBHBKBKBKBKBKBKBKBKBKBKBKBKBKBKBJBAB-AvAcAQAOAnAsA8A}A!A.AGBKBKBKBKBKBKBKBKBKBKBKBKBKBKBKBKBKBKBKBKBKBKBKBKBKBKBKBKBKBKBKBKBKBKBKBKBKB AKBKBKBKBKBKB.A-AtAxA3A_AJB;AKBKBKBKBKBKBKBKBKBKBKBKBKBKBKBKBKBKBKBKBKBKBKB,A=A7AmAPAZApA6A6AABKBKBKBKBKBKBKBKB.A.ApAoAaAJAAAJAVArA9AxAoAsAvA-ACBKBKBKBKBKBKBKBKBKBKBKBKBKBKBKBKBKBKBKBKBKBKBKBKBKBKBKBKBKB A'A5A(A",
"KBKBKBKBKBKBKBKBKBKBKBIB.ADB'AABKB AKBABKBKBKBKBKBKBKBKBKBKBKBKBKBKBKBKBKBKBKBKBKBxA$A7A6A@A)ACBHBKBKBKBKBKBKBKBKBKBKBKBKB A A&A3AtApAcAwA5A7A7AuA4A=A'AKBKBKBKBKBKBKBKBKBKBKBKBKBKBKBKBKBKBKBKBKBKBKBKBKBKBKBKBKBEBFBBBEBKBKBKB,AKBKBKBKBKBKBGB'A1AzAzA-AIB>AKBKBKBKBKBKBKBKBKBKBKBKBKBKBKBKBKBKBKBKBKBKBKBFB}A#AnAWAOAYAkArA(AGBKBKBKBKBKBKB.A*A@AcARAJAAAJAPAPAcAgATAMAaAoA1A'A/AKBKBKBKBKBKBKBKBKBKBKBKBKBKBKBKBKBKBKBKBKBKBKBKBKBKBKBJB<A&ArArA",
"KBKBKBKBKBKBKBKBKBKBKBKBKBKBKBKBKBDBKB_AKBFBKBKBKBKB.AKBKBKBKBKBKBKBKBKBKBKBKBKBGBuA_A(A'AJBKBKBKBKBKBKBKBKBKBKBKBKBKBKBKBKBKBKBCB+A$A4A+A/AGBJB'A/AGBDBKBKBKBKBKBKBKBKBKBKBKBKBKBKBKBKBKBKBKBKBKBKBKBKBKBKBKBKBKBKBKBKBKBKBKBKB<AKBKBKBKBKBKBKBCB%A6A7A>AKBKBKBKBKBKBKBKBKBKBKBKBKBKBKBKBKBKBKBKBKBKBKBKBKBKBFB.A9AoARAOAUAQAsA&A:AKBKBKBKBKB&AvAmAQAJAAAJAaAoAtA*A%AwAaAyA8A+AKBDBKBKBKBKBKBKBKBKBKBKBKBKBKBKBKBKBKBKBKBKBKBKBKBKBKBKBKBIBFB=AtAzA",
"KBKBKBJBKBEBKBHBKBKBKBIBGBDB|A(A*A#A'AtA}A@A>ADBKBEB9AKB<AKBKBKBKBKBKBKBKB}ABB$A1AQAmAuA8A.A AKBKBKBKBKBKBKBKBKBKBKBKBKBKBKBKBKBDB,A(A0A&A'A A>A7AyA3AuA:A>A4ADBKBKBKBKBKBKBKBKBKBKBKBKBKBKBKBKBKBKBFB_A+A}AyA>A'A$A:A AABKBHBCB!AKBKBKBKBKBKBKBFB*A8AzA}ADBKBKBKBKBKBKBKBKBKBKBKBKBKBKBKBKBKBKBKBKBKBKBKBKBKB{A;A4AoAQAYANAVAiA7A#AEBKBKBGBBB0AqAWAJAAAJARAoAwAtA$A#ApAPAfAtAsA%AtA:AGBKBKBKBKBKBKBKBKBKBKBKBKBKBKBKBKBKBKBKBKBKBKBKBEBKB8A9AmAOAMA",
"KBKBKBKBKBCBDB;AFBABEBBBCBFB/A;A'A9A-AoA*A*A<AKBKB.A%AKBKBKBKBKBKBKBKBKBKBFBDB+A&AZAzAvA!A/AKBKBKBKBKBKBKBKBKBKBKBKBKBKBKBKBKBKBKB A,A+ABBKBKBHB}A(A.A:AKBKBGBKBKBKBKBKBKBKBKBKBKBKBKBKBKBKBKBKBKBKBKBKBKBKB:AKBKB/AKBKBKBKBKBKBJBKBKBKBKBKBKBKBKBFB?A;AKBKBKBKBKBKBKBKBKBKBKBKBKBKBKBKBKBKBKBKBKBKBKBKBKBKBKBKBKB.A$AsApAUAQAZAuAzA;AKBKB}A&AfARAJAAAJAQAcApA1A7A+A#AvAUAxA(A-AKB?AKBKBKBKBKBKBKBKBKBKBKBKBKBKBKBKBKBKBKBKBKBKBKBKBKBKBKBKBKB{AxAlA",
"KBKBKBKBKB/A>A%A?A?AIBIBKBKBGB}A_A1A0AQAlAjAvA(A:A1AmA<A{AKBKBIBKBKBHB>A-A@A#AwAxAaAzA1A}AKBKBKBKBKBKBKBKBKBKBKBKBKBKBKBKBKBKBKBKBKBKBJBKBKBKBKBEB:A?A+AKBKB}AKBKBEBKBKBKBKBKBKBKBKBKBKBKBKBKBKBKBKBKB/A=A}A$AHBIB|AKBKBKBKBKBKBGBKBKBKBKBKBKBKBKBKBFB/AKBKBKBKBKBKBKBKBKBKBKBKBKBKBKBKBKBKBKBKBKBKBKBKBKBKBKBKBKBKB.A4AyAQARAMAVASAxA(A{AwAuAQAJAAAJAWAmA@A.AFBBBKBDB=AvA%A<A,AKB'AKBKBKBKBKBKBKBKBKBKBKBKBKBKBKBKBKBKBKBKBKBKBKBKBKBKBKBBBKB}A1AtA",
"KBKBKBKBKBCB.A8A=A'AABFBKBKBKBAB A!A%AnA7A^A(AEBDB!A9AGBKBKBKBKBKBKBKBKBABBB>A|A+AvA(A9A<AKBKBKBKBKBKBKBKBKBKBKBKBKBKBKBKBKBKBKBKBKBKBKBKBKBKBKBKBGBKBKBKBKBKBKBKBKBKBKBKBKBKBKBKBKBKBKBKBKBKBKBKBKBKBKBKBKBEBKBKBJBKBKBKBKBKBKBKBKBKBKBKBKBKBKBKBKBKBKBKBKBKBKBKBKBKBKBKBKBKBKBKBKBKBKBKBKBKBKBKBKBKBKBKBKBKBKBKBKBKB;A9AsASATAQAXAxA#A$ArAdAJAAAJARAqAvA*A.AIBKBKBDB|A3A>AKBKBKBKBKBKBKBKBKBKBKBKBKBKBKBKBKBKBKBKBKBKBKBKBKBKBKBKBKBKBKBKBKBKB,A^A",
"KBKBKBHB A^A6AkA4A6A*A+A/AAB A)A%AnAoARAjAxA1A;A|A0A6A?AHBKBKBKBKBKBKBAB%A^A8A7A2AjA5AyA=AHBKBKBKBKBKBKBKBKBKBKBKBKBKBKBKBKBKBKBKBKBKBKBKBKBKBKBKB>AKBABKBKBHBKBKBKBKBKBKBKBKBKBKBKBKBKBKBKBKBKBKBKBKBKBCB A{AKBKB:AKBKBKBKBKBKBKBKBKBKBKBKBKBKBKBKBKBKBKBKBKBKBKBKBKBKBKBKBKBKBKBKBKBKBKBKBKBKBKBKBKBKBKBKBKBKBKBKBKB?A/AxAyAaARANAfApAqATAJAAAJAQAfA0A&A.AKBKBKBKBFB:A8A.AKBKBKBKBKBKBKBKBKBKBKBKBKBKBKBKBKBKBKBKBKBKBKBKBKBKBKBKBKBKBKBKBKBKB:A@A",
"KBKBKBKBKBKB/A0A-A>AJBKBKBKBKBKBKB{A%AzAzA%A1A:A(AxA)A.AJBKBKBKBKBKBKB A8A,A=A/A?A'AKBIBKBKBKBKBKBKBKBKBKBKBKBKBKBKBKBKBKBKBKBKBKBKBKBKBKBKBKBKBKBKBKBKBKBKBKBKBKBKBKBKBKBKBKBKBKBKBKBKBKBKBKBKBKBKBKBKBKBKBKBKBKBKBKBKBKBKBKBKBKBKBKBKBKBKBKBKBKBKBKBKBKBKBKBKBKBKBKBKBKBKBKBKBKBKBKBKBKBKBKBKBKBKBKBKBKBKBKBKBKBKBKBKBKB}A*AxASARAVARAPAJAAAJAdAuA&ABBKBKBKBKBKBKBKBKBKBKBKBKBKBKBKBKBKBKBKBKBKBKBKBKBKBKBKBKBKBKBKBKBKBKBKBKBKBKBKBKBKBKBKBKBKBKB",
"KBKBKBKBKBHB/AwA|ACBKBKBKBKBKBKBKB+A1ArAcAwAdA6AvApA$A=A>A<AKBBBHBDB+A5AZA3AwA$A(A}AKBKBKBKBKBKBKBKBKBKBKBKBKBKBKBKBKBKBKBKBKBKBKBKBKBKBKBKBKBKBKBKBKBKBKBKBKBKBKBJBKBKBKBKBKBKBKBKBKBKBKBKBKBKBKBKBKBKBKBFBKBKBKBKBKBKBKBKBKBKBKBKBKBKBKBKBKBKBKBKBKBKBKBKBKBKBKBKBKBKBKBKBKBKBKBKBKBKBKBKBKBKBKBKBKBKBKBKBKBKBKBKBKBKBKB}A,AxAoASAQASAJAAAJATArAwA}AGBKBKBKBKBKBKBKBKBKBKBKBKBKBKBKBKBKBKBKBKBKBKBKBKBKBKBKBKBKBKBKBKBKBKBKBKBKBKBKBKBKBKBKBKBKBKB",
"KBKBKBKBKBKBKB9A>AKBKBKBKBKBKBKBKBIB}A(A1A(ApA-AwA0A{A'AEB?AKBKBKBKBDB*AkA+A)ADBJBKBKBKBKBKBKBKBKBKBKBKBKBKBKBKBKBKBKBKBKBKBKBKBKBKBKBKBKBKBKBKBKBKBKBKBKBKBKBKBKBKBKBKBKBKBKBKBKBKBKBKBKBKBKBKBKBKBKBKBKBKBKBKBKBKBKBKBKBKBKBKBKBKBKBKBKBKBKBKBKBKBKBKBKBKBKBKBKBKBKBKBKBKBKBKBKBKBKBKBKBKBKBKBKBKBKBKBKBKBKBKBKBKBKBKBKBKBKB(A4AqAYAJAAAJAPAqA$A{AKBKBKBKBKBKBKBKBKBKBKBKBKBKBKBKBKBKBKBKBKBKBKBKBKBKBKBKBKBKBKBKBKBKBKBKBKBKBKBKBKBKBKBKBKBKBKBKB",
"KBKBKBKBKBKBKB;AKBKBKBKBKBKBKBKBKBKBCB{A!A-AqA(ArApA$A(A.A.AKBKBKBKBKB=ApA,A?AKBKBKBKBKBKBKBKBKBKBKBKBKBKBKBKBKBKBKBKBKBKBKBKBKBKBKBKBKBKBKBKBKBKBKBKBKBKBKBKBKBKBKBKBKBKBKBKBKBKBKBKBKBKBKBKBKBKBKBKBKBKBKBKBKBKBKBKBKBKBKBKBKBKBKBKBKBKBKBKBKBKBKBKBKBKBKBKBKBKBKBKBKBKBKBKBKBKBKBKBKBKBKBKBKBKBKBKBKBKBKBKBKBKBKBKBKBKBDBAB2AmAbAJAAAJASARApA#A(AKBKBKBKBKBKBKBKBKBKBKBKBKBKBKBKBKBKBKBKBKBKBKBKBKBKBKBKBKBKBKBKBKBKBKBKBKBKBKBKBKBKBKBKBKBKBKBKB",
"KBKBKBKBKBKBKB{AKBKBKBKBKBKBKBKBKBJB|A3AtAxAcAxAbAQAmAqA6A!A.A<AKBKB?A!AjA^A_A|A/AABKBKBKBKBKBKBKBKBKBKBKBKBKBKBKBKBKBKBKBKBKBKBKBKBKBKBKBKBKBKBKBKBKBKBKBKBKBKBKBKBKBKBKBKBKBKBKBKBKBKBKBKBKBKBKBKBKBKBKBKBKBKBKBKBKBKBKBKBKBKBKBKBKBKBKBKBKBKBKBKBKBKBKBKBKBKBKBKBKBKBKBKBKBKBKBKBKBKBKBKBKBKBKBKBKBKBKBKBKBKBKBKBKBKBKB#A$AaAVAJAAAJAYAQAVAfAxAxA;AEBKBKBKBKBKBKBKBKBKBKBKBKBKBKBKBKBKBKBKBKBKBKBKBKBKBKBKBKBKBKBKBKBKBKBKBKBKBKBKBKBKBKBKBKBKBKB",
"KBKBKBKBKBGBBB8A AHBKBKBKBKBKBKBAB^AzAXAYAWARAnAuAVAeA1A8A|ABB)AKBFB-A1AoAwA3AyA5A3A'A>AKBKBKBKBKBKBKBKBKBKBKBKBKBKBKBKBKBKBKBKBKBKBKBKBKBKBKBKBKBKBKBKBKBKBHBKBKB'AKB<AKBKBKBKBKBKBKBKBKBKBKBKBKBKBKBIB-A:A,AKBKBKBKBKBKBKBKBKBKBKBKBKBKBKBKBKBKBKBKBKBKBKBKBKBKBKBKBKBKBKBKBKBKBKBKBKBKBKBKBKBKBKBKBKBKBKBKBKBKBKBKBJB?AmAxAQAJAAAJAbAqASARANAXASAzA#A:AKBKBKBKBKBKBKB?AKBKBKBKBKBKBKBKBKBKBKBKBKBKBKBKBKBKBKBKBKBKBKBKBKBKBKBKBKBKBKBKBKBKBKB A.A",
"KBKBKBKBKBKBKB|AIBKBKBKBKBKBKBKBKB A'AxA3A5AwA^A6AdApA9A=ACBKBIBKBKBKB<A^A<A A,AAB=AKBFBKBKBKBKBKBKBKBKBKBKBKBKBKBKBKBKBKBKBKBKBKBKBKBKBKBKBKBKBKBKBKBKBKBKBKBKBKBKBKBKBKBKBKBKBKBKBKBKBKBKBKBKBKBKBKBKBKBKBKBKBKBKBKBKBKBKBKBKBKBKBKBKBKBKBKBKBKBKBKBKBKBKBKBKBKBKBKBKBKBKBKBKBKBKBKBKBKBKBKBKBKBKBKBKBKBKBKBKBKBKBKBEB*ApAeAJAAAJAVAmA4AoASARAQAVAuA7A&AGBKBKBKBKBKBKB>AKBKBKBKBKBKBKBKBKBKBKBKBKBKBKBKBKBKBKBKBKBKBKBKBKBKBKBKBKBKBKBKBKBKBKBHBDB",
"KBKBKBKBKBKBKB?AKBKBKBKBKBKBKBKBKB.A{AmAqAmAfAsAnAQARAmAxA*A|A=AKBKB/A$A5A$A{A#A=A4A.A<AKBKBKBKBKBKBKBKBKBKBKBKBKBKBKBKBKBKBKBKBKBKBKBKBKBKBKBKBKBKBKBKBKBKBKBKBKBGBKBCBKBKBKBKBKBKBKBKBKBKBKBKBKBKBKBKB,AFBBBKBKBKBKBKBKBKBKBKBKBKBKBKBKBKBKBKBKBKBIBJBKBKBKBKBKBKBKBKBKBKBKBKBKBKBKBKBKBKBKBKBKBKBKBKBKBKBKBKBKBKBDB&AvARAJAAAJAQAaA2A(AxAxAaATAMAZAiAsA(AABKBKBKBKBCB!A?AKBKBKBKBKBKBKBKBKBKBKBKBKBKBKBKBKBKBKBKBKBKBKBKBKBKBKBKBKBKBKBKBKBHB-A(A",
"KBKBKBKBKBKBKBKBKBKBKBKBKBKBKBKBKBCBHB7A|A(A}A ACB%AuA>A}AKBKBKBKBKBKBKBKBKBKB A?A2A,A:AHBKBKBKBKBKBKBKBKBKBKBKBKBKBKBKBKBKBKBKBKBKBGB?AKBKBKBKBKBKBKBKBKBKBKBKBKBKBKBKBKBKBKBKBKBKBKBKBKBKBKBKBKBKBKBKBKBKBJBKBKBKBKBKBKBKBKBKBCBKBKBKBKBKBKBKBKBAB+A|AKBKBKBKBKBKBKBKBKBKBKBKBKBKBKBKBKBKBKBKBKBKBKBKBKBKBKBKBKBAB^AtAUAJAAAJAeAxA$AABKB,A*AyASARAQAVAQArA6A+A;AKBDB=AuA_A>AFBKBJBKBKBKBKBKBKBKBKBKBKBKBKBKBKBKBKBKBKBKBKBKBKBKBKBKBKBKBHBKB>A6A#A",
"KBKBKBKBKBKBKBKBKBKBKBKBKBKBKBJBEB;A:AlA5ArA2A@A}A3AXA)AyAIB/A>AKBKBKB A.A&A.A9A#AmA^A-ABBKBKBKBKBKBKBKBKBKBKBKBKBKBKBKBKBKBKBKBKBKB.A&A,AJBKBKB A/ABB;AKBKB,AKBKBGBKBDBKBKBKBKBKBKBKBKBKBKBKBKBKBHBKB A_A>A+AKBKBGBKBKBKBKBFBKB$AKBIBKBKBKBKBKB>A&AzAzA}AJBKBKBKBKBKBKBKBKBKBKBKBKBKBKBKBKBKBKBKBKBKBKBKBKBKBAB,A$ArAYAJAAAJARApAmA#ADBKB}A}AxAsAQAUANAUAkA6A)A*AABDB(AqA5A6A*AGB-AKBKBKBKBKBKBKBKBKBKBKBKBKBKBKBKBKBKBKBKBKBKBKBKBKBKBKB(A|A7AhAvA",
"KBKBKBKBKBKBKBKBKBKBKBKBKBKBKBKBKBKBKB<AKBEBKBKBKBKB}AKB?AKBKBKBKBKBKBKBKBKBKBKBKB7A.AABIBKBKBKBKBKBKBKBKBKBKBKBKBKBKBKBKBKBKBKBKB A!A3A)A/AJBKB<A ADB AKBKBGBKBKBKBKBKBKBKBKBKBKBKBKBKBKBKBKBKBKBKBKBKBKBKBIBKBKBKBKBKBKBKB'ACBzA?A-AJBKBKBBB=A4ArAXAdA5A;A{AKBKBKBKBKBKBKBKBKBKBKBKBKBKBKBKBKBKBKBKBKBKBKBKB}A@AxAaAJAAAJAUAvA*A?AKBKBKBKBKB/A9AyApAYAOAYApA5A6A:AAB&ArA0AvA@ABB{AKBKBKBKBKBKBKBKBKBKBKBKBKBKBKBKBKBKBKBKBKBKBKBKBKBKBKB^A)A3AdA0A",
"KBKBKBKBKBKBKBKBKBKBKBKBKBKBGBKBKBHBKB:AKBHBKBKBKBKBCBKBKBKBKBKBKBKBKBKBKBKBKBKBBBtA^A-A}ADBCBKBKBKBKBKBKBKBKBKBKBKBKBKBKBKBKBGB=A@AtAcAsA7A)A|A3A@A%A%AKBKB>AKBKBKBKBKBKBKBKBKBKBKBKBKBKBKBKBKBKBKBKBKBKBKB>AKBKBEBFBGBBBKBCB>A0ADB|AKBKBKBJB'A#AmAfAZAzA_A(AKBKBKBKBKBKBKBKBKBKBKBKBKBKBKBKBKBKBKBKBKBKBKB,A2AzAdAJAAAJAYAtA&AEBJBKBKBKBKBKB?A;A4AsAQARAOAZAmAiA4A^AuAYAYAWAkA@A6A/AJBKBKBKBKBKBKBKBKBKBKBKBKBKBKBKBKBKBKBKBKBKBKBKB.AKB&A3AlAOAdA",
"KBKBKBKBKBKBKBKBKBKBKBKBKBKBKBKBKBKBKBKBKBKBKBKBKBKBKBKBKBKBKBKBKBKBKBKBKBKBKBKBKB-ADBEBGBKBKBKBKBKBKBKBKBKBKBKBKBKBKBKBKBKBKB.A7AsANARAkAvA#A,A9A'A.AABKBKBKBKBKBKBKBKBKBKBKBKBKBKBKBKBKBKBKBKBKBKBKBKBKBKBKBKBKBKBKBKBKBKB A/AzA,A@A,A|AGB_A5AoANASATAnA$AvAGBKBKBKBKBKBKBKBKBKBKBKBKBKBKBKBKBKBKBKBKBKBKB%A1AgAJAAAJAaArA^ADBKBKBKBKBKBKBKBKBKB.A$AoAoAWAPAfAiA1A+A!ApAkAbA1A{A+AKBKBKBKBKBKBKBKBKBKBKBKBKBKBKBKBKBKBKBKBKBKBKBKBKB?AKB=A7A0AcA1A",
"KBKBKBKBKBKBKBKBKBKBKBKBKBKBKBKBKBKBKBKBKBKBKBKBKBKBKBKBKBKBKBKBKBKBKBKBKBKBKBKBKB;ADBGBHBKBGBKBHBKBKBKBKBKBKBKBKBKBKBKBKBKB/A}A7A7AhARAVAjA1A{A4A|A+A.AKBKBKBKBKBKBKBKBKBKBKBKBKBKBKBKBKBKBKBKBKBKBKBKBKBKBKBKBKBKBKBKBABKB,A=AxA&AyA(A#A>A%A5AjAUASAQAYAxAeA+A|AKBKBKBKBKBKBKBKBKBKBKBKBKBKBKBKBKBKBKBGB{ApAfAJAAAJAdAxA$AABKBKBKBKBKBKBKBKBKBKBKB.A4A9AnAmAwAmA0A}A%AvAkASAtA9A)ACBEBKBKBKBKBKBKBKBKBKBKBKBKBKBKBKBKBKBKBKBKBKBKBKB&AGB+AwA1AmA1A",
"KBKBKBKBKBKBKBKBKBKBKBKBKBKBKBKBKBKBKBKBKBKBKBKBKBKBKBKBKBKBKBKBKBKBKBKBKBKBKBKBKBJBKBKBKBKBFBKB/AKBKBKBKBKBKBKBKBKBKBKBKBEB|A_A5A^AoAgAPAiAwA)A6A<A(A:AKBKBKBKBKBKBKBKBKBKBKBKBKBKBKBKBKBKBKBKBKBKBKBKBKBKBKBKBKBKBKBIB}AKB=A2AqAzApA5AsA)A@A#ApAkAZARANAaAPA0A1A'A?AKBKBKBKBKBKBKBKBKBKBKBKBKBKBKBKBBB)A0AQAJAAAJAgAzA@A,AKBKBKBKBKBKBKBKBKBKBKBKBKB;A.A#A7A@A0A7A/A'A&AxAXArAuA7A)A-AHBKBKBKBKBKBKBKBKBKBKBKBKBKBKBKBKBKBKBKBHBCB'AsA)A3AdAtAzA$A",
"KBKBKBKBKBKBKBKBKBKBKBKBKBKBGBKBKBKBKBKBKBKBKBKBKBKBKBKBKBKBKBKBKBKBKBKBKBKBKBKBKBAB<AIBGBKB,AKB)AKBKBKBKBKBKBKBKBKBKBKBKB?A+A_A%A;A0AsARAnAwA8AvA&AvA4A{ADB{AKBKBKBKBKBKBKBKBKBKBKBKBKBKBKBKBKBKBKBKB AKBKBABKBIBCB;A{A2A?A(AsAnAvAvA&A9AAB<A A$A9AzAcAQARAXAxArA-A&AJBKBKBKBGBKBKBKBKBKBKBKBKBKBKB=A(AwAfAJAAAJAfA1A2A}AABKBKBKBKBKBKBKBKBKBKBKBKBKB{AFB}A=A_A8A#A.A;A(AtATAYAUAhAqAsA&AFBEBKBKBKBKBKBKBKBKBKBKBKBKBKBKBKBKBEB*A#A4ATAvAeAOAdAuA1A",
"KBKBKBKBKBKBKBKBKBKBKBKBKBKBKBKBKBKBKBKBKBKBKBKBKBKBKBKBKBKBKBKBKBKBKBKBKBKBKBKBKBKBKBKBKBKBFBKB_AKBKBKBKBKBKBKBKBKBKBKBKB<A(A_A@A,A5A5AgAoA1A^A^AAB@A;AABKBKBKBKBKBKBKBKBKBKBKBKBKBKBKBKBKBKBKBKBKBKBKBKBKBKBKBKBKBEB>A8A?A+AwAwAsAuA0AYA8A#A}A@A^A@A1AbARANASAPAqAtA_A/AKBHB_AKBHBKBKBKBKBKBKBKB.A6AvAdAJAAAJAQApA%A,AKBKBKBKBKBKBKBKBKBKBKBKBKBKBKBKBKBFB,A<A_A+AJBKBEB%AuAxAhA4A3AoA#A/A{AKBKBKBKBKBKBKBKBKBKBKBKBKBKBKBFB>A9AzAsARAxAxAbA2A=A;A",
"KBKBKBKBKBKBKBKBKBKBKBKBKBKBKBKBKBKBKBKBKBKBKBKBKBKBKBKBKBKBKBKBKBKBKBKBKBKBKBKBKBKBKBKBKBKBKBKB<AKBKBKBKBKBKBKBKBKBKBKBKBKBBBKBKBKBIBCB!A=A'A<A<AKB_AABFBKBKBKBKBKBKBKBKBKBKBKBKBKBKBKBKBKBKBKBKBKBKBKBKBKBKBKBKBKBKBDB$A$A#AtA3AmAxA%A7A AEBKB AKB|A_AxAQARARAOAcAhA8A-AEB A_AKBCBKBKBIBKBKB+A'A9AiAUAJAAAJAfA0A{AKBKBKBKBKBKBKBKBKBKBKBKBKBKBKBKBKBKBKBKBKBKBKBKBKBKBKBAB&A#ArA8AwAoAtA@A0A.A/AKBKBKBKBKBKBKBKBKBKBKBKBIB<A|A4AnASAPAcApAoA&ADBFB",
"KBKBKBKBKBKBKBKBKBKBKBKBKBKBKBKBKBKBKBKBKBKBKBKBKBKBKBKBKBKBKBKBKBKBKBKBKBKBKBKBKBKBKBKBKBKBKBKB>AKBKBKBKBKBKBKBKBKBKBKBKBKBEBKBKBKBKBKB}AABFBDBFBKB|ADBDBKBKBKBKBKBKBKBKBKBKBKBKBKBKBKBKBKBKBKBKBKBKBKBKBKBKBKBKBKBKBEB%A.A<A@A}A!A{ABB:AKBKBKBKBKBKBBB*AiAnAlAOASARAtAvA{A+A3AGB^AKBCB-AKB<A4A@AtAQAJAAAJAdAwA)AGBKBKBKBKBKBKBKBKBKBKBKBKBKBKBKBKBKBKBKBKBKBKBKBKBKBKBKBKB'A-AwA^AzAlArAzAiA^A!AEBKBKBKBKBKBKBKBKBKBKBEB<A@A@AtAUAPAMAlAyA2A;AKBKB",
"KBKBKBKBKBKBKBKBKBKBKBKBKBKBKBKBKBKBKBKBKBKBKBKBKBKBKBKBKBKBKBKBKBKBKBKBKBKBKBKBKBKBKBKBKBKBKBKBKBKBKBKBKBKBKBKBKBKBKBKBKBKBKBKBKBKBKBKBKBKBKBKBKBKBKBKBKBKBKBKBKBKBKBKBKBKBKBKBKBKBKBKBKBKBKBKBKBKBKBKBKBKBKBKBKBKBKBKBBB'A<A(A?A9A=A+A+AEBKBKBKBKBKBKB/ArAwAfATAQAZAxA3A=A;A-AKB>AKBKB{ACB-AsA3AfAJAAAJAUAvA(ABBKBKBKBKBKBKBKBKBKBKBKBKBKBKBKBKBKBKBKBKBKBKBKBKBKBKBKBKBKBKBIB-A A&A5AwA1AgA#A&A?AKBKBKBKBKBKBKBKBKBHBGB?A_A}A@AmATAiAwA%A+AKBKBKB",
"KBFBKBKBKBKBKBKBKBKBKBKBKBKBKBKBKBKBKBKBKBKBKBKBKBKBKBKBKBKBKBKBKBKBKBKBKBKBKBKBKBKBKBKBKBKBKBKB/AKBKBKBKBKBKBKBKBKBKBHBKBKBHBKBKBKBKBKBKBKBKBKBKBKBDBKBJBKBKBKBKBKBKBKBKBKBKBKBKBKBKBKBKBKBKBKBKBKBKBKBKBKBKBKBKBKBKBGB)AKBKBBBKB AKBKBFBKBKBKBKBKBKBKBKB9A$A1AbARANAaAPAxA4AoA_AqA;A9AoA$AtATAfAJAAAJAQAiA6A=AKBKBKBKBKBKBKBKBKBKBKBKBKBKBKBKBKBKBKBKBKBKBKBKBKBKBKBKBKBKBKBHB*ACB)AuAqArASAuAgA7A&A AKBKBKBKBKBIBCB{A)A*AsAzApAQARAlA6A+A.AKBKBKB",
"KBKBKBKBKBKBKBKBKBKBKBKBKBKBKBKBKBKBKBKBKBKBKBKBKBKBKBKBKBKBKBKBKBKBKBKBKBKBKBKBKBKBKBKBKBKBKBKBKBKBKBKBKBKBKBKBKBKBKBKBKBKBKBKBKBKBKBKBKBKBKBKBKBKBKBKBKBKBKBKBKBKBKBKBKBKBKBKBKBKBKBKBKBKBKBKBKBKBKBKBKBKBKBKBKBKBKBKBKBKBKBKBKBKBKBKBKBKBKBKBKBKBKBKBKBDBAB)AyASAQAMAWAOAbAsAwA1A8A=AqAwAkASAJAAAJAfAtA9A.AKBKBKBKBKBKBKBKBKBKBKBKBKBKBKBKBKBKBKBKBKBKBKBKBKBKBKBKBKBKBKBKBKBKBKBKBFB,A-AqA6AwA8A=A?AKBKBKBKBKBEBGB.A/A A)AGBAB0A3A|AFBKBKBKBKBKB",
"KBKBKBKBKBKBKBKBKBKBKBKBKBKBKBKBKBKBKBKBKBKBKBKBKBKBKBKBKBKBKBKBKBKBKBKBKBKBKBKBKBKBKBKBKBKBKBKBKBKBKBKBKBKBKBKBKBKBKBKBKBKBKBKBKBKBKBKBKBKBKBKBKBKBKBKBKBKBKBKBKBKBKBKBKBKBKBKBKBKBKBKBKBKBKBKBKBKBKBKBKBKBKBKBKBKBKBKBKBKBKBKBKBKBKBKBKBKBKBKBKBKBKBKBKBKBKBIB)ArAeAUAOAOAlAtAtAmAiAzAaAeAVAJAAAJAfA3A@A'AKBKBKBKBKBKBKBKBKBKBKBKBKBKBKBKBKBKBKBKBKBKBKBKBKBKBKBKBKBKBKBKBKBKBKBKBKBKBJB.AxA1AqAwA7A&AGBKBKBKBKB+A'A+A;A/A(AKBKB8A+AJBKBKBKBKBKBKB",
"KBKBKBKBKBKBKBKBKBKBKBKBKBKBKBKBKBKBKBKBKBKBKBKBKBKBKBKBKBKBKBKBKBKBKBKBKBKBKBKBKBKBKBKBKBKBKBKBKBKBKBKBKBKBKBKBKBKBKBKBKBKBKBKBKBKBKBKBKBKBKBKBKBKBKBKBKBKBKBKBKBKBKBKBKBKBKBKBKBKBKBKBKBKBKBKBKBKBKBKBKBKBKBKBKBKBKBKBKBKBKBKBKBKBKBKBKBKBKBKBKBKBKBKBKBHBKBGB)AxApAqARAtA9A7A^AuA3A2AUAfAJAAAJASATAsA4A+AKBKBKBKBKBKBKBKBKBKBKBKBKBKBKBKBKBKBKBKBKBKBKBKBKBKBKBKBKBKBKBKBKBKBKBKBKB?A^AyASATAQAaAsA#A>AKBKBKBIB#A7AsAuAzApA-A{AlAxA;A AKBKBKBKBKB",
"KBKBKBKBKBKBKBKBKBKBKBKBKBKBKBKBKBKBKBKBKBKBKBKBKBKBKBKBKBKBKBKBKBKBKBKBKBKBKBKBKBKBKBKBKBKBKBKBKBKBKBKBKBKBKBKBKBKBKBKBKBKBKBKBKBKBKBKBKBKBKBKBKBKBKBKBKBKBKBKBKBKBKBKBKBKBKBKBKBKBKBKBKBKBKBKBKBKBKBKBKBKBKBKBKBKBKBKBKBKBKBKBKBKBKBKBKBKBKBKBKBKBKBKBKBKBKBKBKB{A@A9AiA6A{A{A}AxAwAmATAJAAAJAVAkAtA-A<AKBKBKBKBKBKBKBKBKBKBKBKBKBKBKBKBKBKBKBKBKBKBKBKBKBKBKBKBKBKBKBKBKBKBKBKBKBKBKBAB)AlAdAQAMAdAqA&A,A>A>A+ApAtAoAtA6AwA,AFB1A}AKBKBKBKBKBKBKB",
"KBKBKBKBKBKBKBKBKBKBKBKBKBKBKBKBKBKBKBKBKBKBKBKBKBKBKBKBKBKBKBKBKBKBKBKBKBKBKBKBKBKBKBKBKBKBKBKBKBKBKBKBKBKBKBKBKBKBKBKBKBKBKBKBKBKBKBKBKBKBKBKBKBKBKBKBKBKBKBKBKBKBKBKBKBKBKBKBKBKBKBKBKBKBKBKBKBKBKBKBKBKBKBKBKBKBKBKBKBKBKBKBKBKBKBKBKBKBKBKBKBKBKBKBKBKBKBKBKB A{A*AsA5A;A_A#AmAaATAJAAAJAfAeAwA$ACBKBKBKBKBKBKBKBKBKBKBKBKBKBKBKBKBKBKBKBKBKBKBKBKBKBKBKBKBKBKBKBKBKBKBKBKBKBKBKBKBKBHB!A2AfANAQASApA0AzA0AwARAiAuA3A}A7AKBKB(AKBKBKBKBKBKBKBKB",
"KBKBKBKBKBKBKBKBKBKBKBKBKBKBKBKBKBKBKBKBKBKBKBKBKBKBKBKBKBKBKBKBKBKBKBKBKBKBKBKBKBKBKBKBKBKBKBKBKBKBKBKBHBKBKBKBKBKBKBCBKBKBKBKBKBKBKBKBKBKBKBKBKBKBKBKBKBKBKBKBKBKBKBKBKBKBKBKBKBKBKBKBKBKBKBKBKBKBKBKBKBKBKBKBKBKBKBKBKBKBKBKBKBKBKBKBKBKBKBKBKBKBKBKBKBKBKBKBAB_AtAvASArA5AkApAOASAJAAAJATAUAaAqAoA{A-AIBKBKBKBKBKBKBKBKBKBKBKBKBKBKBKBKBKBKBKBKBKBKBKBKBKBKBKBKBKBKBKBKBKBKBKBKBKBKBBB|ArAtAQATAQAZAzA9A_A'A*AqAuA1A1A%AnA|A>AnA|AKBKBKBKBKBKBKB",
"KBKBKBKBKBKBKBKBKBKBKBKBKBKBKBKBKBKBKBKBKBKBKBKBKBKBKBKBKBKBKBKBKBKBKBKBKBKBKBKBKBKBKBKBKBKBKBKBKBKB:AKB_AKB A<AKBBBKB+AKBKBKBKBKBKBKBKBKBKBKBKBKBKBKBKBKBKBKBKBKBKBKBKBKBKBKBKBKBKBKBKBKBKBKBKBKBKBKBKBKBKBKBKBKBKBKBKBKBKBKBKBKBKBKBKBKBKBKBKBKBKBKBKBKBKBKBKBKBJB@A%AnA0A$AoAfARAJAAAJATAmA2AzA=A9AKBCBKBKBKBKBKBKBKBKBKBKBKBKBKBKBKBKBKBKBKBKBKBKBKBKBKBKBKBKBKBKBKBKBKBKBKBKBKBKBKBKBAB@A^AeAeAQANAhAnA3A*A8AmAsA6A5A*AmA=AAByAGBKBKBKBKBKBKBKB",
"KBKBKBKBKBKBKBKBKBKBKBKBKBKBKBKBKBKBKBKBKBKBKBKBKBKBKBKBKBKBKBKBKBKBKBKBKBKBKBKBKBKBKBKBKBKBKBKBKBKBKBKBKBKBKBKBKBKBKBKBKBKBKBKBKBKBKBKBKBKBKBKBKBKBKBKBKBKBKBKBKBKBKBKBKBKBKBKBKBKBKBKBKBKBKBKBKBKBKBKBKBKBKBKBKBKBKBKBKBKBKBKBKBKBKBKBKBKBKBKBKBKBKBKBKBKBKBKBKBGB+A7AiAeAzAnAPAJAAAJASAaAwA3AiA8A;AKBKBKBKBKBKBKBKBKBKBKBKBKBKBKBKBKBKBKBKBKBKBKBKBKBKBKBKBKBKBKBKBKBKBKBKBKBKBKBKBKBKBKBABAB9AwApAiA6A@A_A:A|A0A^A.ABBKB<AKBKB/AKBKBKBKBKBKBKBKB",
"KBKBKBKBKBKBKBKBKBKBKBKBKBKBKBKBKBKBKBKBKBKBKBKBKBKBKBKBKBKBKBKBKBKBKBKBKBKBKBKBKBKBKBKBKBKBKBKB;AFB_AHB%AKBAB;AKB=A?A4A,A.A:AKBKBKBKBKBKBKBKBKBKBKBKBKBKBKBKBKBKBKBKBKBKBKBKBKBKBKBKBKBKBKBKBKBKBKBKBKBKBKBKBKBKBKBKBKBBBKBKBKBKBKBKBKBKBKBKBKBKBKBKBKBKBKBKBKB=A-AlAnAOAaAiASAJAAAJARAOAmAxAuAmA1AqA>A^ACBHBKBKBKBKBKBKBKBKBKBKBKBKBKBKBKBKBKBKBKBKBKBKBKBKBKBKBKBKBKBKBKBKBKBKBKBKB ADB?A9A}AiAzAtAvA&A+ABBKBFB(A|A?A,A/AyA{A}AnA:AFBKBKBKBKBKBKB",
"KBKBKBKBKBKBKBKBKBKBKBKBKBKBKBKBKBKBKBKBKBKBKBKBKBKBKBKBKBKBKBKBKBKBKBKBKBKBKBKBKBKBKBKBKBKBKBKBKBKBKBKBJBKBKBKBKBKBKBKBKBKBKBKBKBKBKBKBKBKBKBKBKBKBKBKBKBKBKBKBKBKBKBKBKBKBKBKBKBKBKBKBKBKBKBKBKBKBKBKBKBKBKBKBKBKBKBKBKBKBKBKBKBKBKBKBKBKBKBKBKBKBKBKBKBKBKBKBBB_A6AiAQARATAJAAAJAPAfApA#A}A^AtAwA_AKBGBKBKBKBKBKBKBKBKBKBKBKBKBKBKBKBKBKBKBKBKBKBKBKBKBKBKBKBKBKBKBKBKBKBKBKBKBKBKBKBKBKBGBKB-A;A-A$A>A AKBKBKBEBKBKBKBKBFBKBKB/AKBKBKBKBKBKBKBKB",
"KBKBKBKBKBKBKBKBKBKBKBKBKBKBKBKBKBKBKBKBKBKBKBKBKBKBKBKBKBKBKBKBKBKBKBKBKBKBKBKBKBKBKBKBKBKBKBKBABKBFBKB/AKBKBFBKB AKB)A?A>A*AKBKBKBKBKBKBKBKBKBKBKBKBKBKBKBKBKBKBKBKBKBKBKBKBKBKBKBKBKBKBKBKBKBKBKBKBKBKBKBKBKBKBKBKBKBDBKBKBKBKBKBKBKBKBKBKBKBKBKBKBKBKBKBGB.AtAtAVATAQAVAJAAAJASAnAoAkA_A{A7AtAsAoA-A3A_A_AGBKBKBKBKBKBKBKBKBKBKBKBKBKBKBKBKBKBKBKBKBKBKBKBKBKBKBKBKBKBKBKBKBKBKBKB/AHBGB&ACBzA'A=A,AIBKBKBKBKBKBKBKBKBKB*A?A:AyA|A>AKBKBKBKBKBKB",
"KBKBKBKBKBKBKBKBKBKBKBKBKBKBKBKBKBKBKBKBKBKBKBKBKBKBKBKBKBKBKBKBKBKBKBKBKBKBKBKBKBKBKBKBKBKBKBKBKBKBKBKBKBKBKBKBKBKBKBKBKBKBGBKBKBKBKBKBKBKBKBKBKBKBKBKBKBKBKBKBKBKBKBKBKBKBKBKBKBKBKBKBKBKBKBKBKBKBKBKBKBKBKBKBKBKBKBKBKBKBKBKBKBKBKBKBKBKBKBKBKBKBKBKBKBKBKBEB!AuAoAPAVAJAAAJATAiAzA$A5A;A{A9AlAbA4A;A+A AHBKBKBKBKBKBKBKBKBKBKBKBKBKBKBKBKBKBKBKBKBKBKBKBKBKBKBKBKBKBKBKBKBKBKBKBKBKBKBKB?AKB=ADBEBKBKBKBKBKBKBKBKBKBKBKBKBKBKB,AKBKBKBKBKBKBKBKB",
"KBKBKBKBKBKBKBKBKBKBKBKBKBKBKBKBKBKBKBKBKBKBKBKBKBKBKBKBKBKBKBKBKBKBKBKBKBKBKBKBKBKBKBKBKBKBKBKBKBKBKBKBKBKBKBKBKBKBKBKBKBKBKBKBKBKBKBKBKBKBKBKBKBKBKBKBKBKBKBKBKBKBKBKBKBKBKBKBKBKBKBKBKBKBKBKBKBKBKBKBKBKBKBKBKBKBKBKBKBKBKBKBKBKBKBKBKBKBKBKBKBKBKBKBKBKBKBKB}AxAoAPAJAAAJAVARAaAeA0ArA5A6AtAOAOAxA=A{AEBKBKBKBKBKBKBKBKBKBKBKBKBKBKBKBKBKBKBKBKBKBKBKBKBKBKBKBKBKBKBKBKBKBKBKBKBKBKBKBKB+ABB!A{A|A,AKBKBKBKBKBIBKBKBKBKB AKBKB+AGBKBKBKBKBKBKBKB",
"KBKBKBKBKBKBKBKBKBKBKBKBKBKBKBKBKBKBKBKBKBKBKBKBKBKBKBKBKBKBKBKBKBKBKBKBKBKBKBKBKBKBKBKBKBKBKBKBHBKBKBKBKBKBKBKBKBKBKB/AKBKBJBKBKBKBKBKBKBKBKBKBKBKBKBKBKBKBKBKBKBKBKBKBKBKBKBKBKBKBKBKBKBKBKBKBKBKBKBKBKBKBKBKBKBKBKBKBCBKBKBKBKBKBKBKBKBKBKBKBKBKBKBKBKBKBKBEB!ApAVAJAAAJAVAQAQAOAiAnASAsAiARAOAWAPA3AvA-A/AKBKBKBKBKBKBKBKBKBKBKBKBKBKBKBKBKBKBKBKBKBKBKBKBKBKBKBKBKBKBKBKBKBKBKBKB}A(A!AcAvASAuAzA#A/AHBKBKBKB:A{A-A#A^AmA$A$AVA3A{AIBKBKBKBKBKB",
"KBKBKBKBKBKBKBKBKBKBKBKBKBKBKBKBKBKBKBKBKBKBKBKBKBKBKBKBKBKBKBKBKBKBKBKBKBKBKBKBKBKBKBKBKBKBKBKBKBKBKBKBKBKBKBKBKBKBKBKBKBKBGBKBKBKBKBKBKBKBKBKBKBKBKBKBKBKBKBKBKBKBKBKBKBKBKBKBKBKBKBKBKBKBKBKBKBKBKBKBKBKBKBKBKBKBKBKBKBKBKBKBKBKBKBKBKBKBKBKBKBKBKBKBKBKB?A-ApAUAJAAAJAPAPATAiAnA7A%AvA*A9AqAUAMAaAxAtA8A_AJBKBKBKBKBKBKBKBKBKBKBKBKBKBKBKBKBKBKBKBKBKBKBKBKBKBKBKBKBKBKBKBKBKBKBKBEBHBEB9A'A5A:A<AEBKBKBKBKBKBKBKBKBKBKB:AKBAB6A*A,AKBKBKBKBKBKB",
"KBKBKBKBKBKBKBKBKBKBKBKBKBKBKBKBKBKBKBKBKBKBKBKBKBKBKBKBKBKBKBKBKBKBKBKBKBKBKBKBKBKBKBKBKBKBKBKB?AKBKBKBKBKBKBKBKBKBKBCBKBDB:AKBKBKBKBKBDBDBKBIBKBKBJBKBKBKBKBKBKBKBKBKBKBKBKBKBKBKBKBKBKBKBKBKBKBKBKBKBKBKBKBKBKBKBKBKB+AKBKBKBKBFBKBKB/AKBKBKBKBKBKBKBHB-A9AyAUAJAAAJAVAoAoAVA6AlA+A@AtA{A@ApAeAQANAZARAhAtA&A?AKBKBKBKBKBKBKBKBKBKBKBKBKBKBKBKBKBKBKBKBKBKBKBKBKBKBKBKBKBKBKB{AKB A7A&A(AqA)AsA}A|AGBKBKBKBKBKBKBKBKBAB A7A(A4AiArAyA}ABB?AKBKBKB",
"KBKBKBKBKBKBKBKBKBKBKBKBKBKBKBKBKBKBKBKBKBKBKBKBKBKBKBKBKBKBKBKBKBKBKBKBKBKBKBKBKBKBKBKBKBKBKBKBKBKBKBKBKBKBKBKBKBKBKBKBKBKBGBKBKBKBKBKBJBKBKBKBKBKBKBKBKBKBKBKBKBKBKBKBKBKBKBKBKBKBKBKBKBKBKBKBKBKBKBKBKBKBKBKBKBKBKBKBKBKBKBFBKB'A'A,A9AEBKBKBKBKBKBKBAB$AwAeAJAAAJAUApAxAuAtA_A-AGBJB_A A{AxArASARAQASAcAqA-A'AKBKBKBKBKBKBKBKBKBKBKBKBKBKBKBKBKBKBKBKBKBKBKBKBKBKBKBKBKBKBKB AKBHB|A:A'A3A.A-AFBKBKBKBKBKBKBKBKBKBKBKBKBBBHB,A3AwA5A;AEB/AKBKBKB",
"KBKBKBKBKBKBKBKBKBKBKBKBKBKBKBKBKBKBKBKBKBKBKBKBKBKBKBKBKBKBKBKBKBKBKBKBKBKBKBKBKBKBKBKBKBKBKBKB.AKBKBKBKBKBKBKBKBKBKBKBKB A(AAB>AKBCBCB#A$A|A>ABBKB?AKBKBKBKBKBKBKBKBKBKBKBKBKBKBKBKBKBKBKBKBKBKBKBKBKBKBKBKBKBKBKBKBKB=AGBAB)A}A6A8A$AwA'ACBKBGBKBGBBB$AqAZAJAAAJAUApA!A}A!AtABB=AKBKBABKBKB)A)AyAbATAOAOAPArA1A|AKBKBKBKBKBKBKBKBKBKBKBKBKBKBKBKBKBKBKBKBKBKBKBKBKBKBKBGB;A;A!A/A|A4A_A:A6ADB<AKBKBKBKBKBKBKBKBKBKBKBKBKB A/A%AuAqAoA#A=A!ABBKBKB",
"KBKBKBKBKBKBKBKBKBKBKBKBKBKBKBKBKBKBKBKBKBKBKBKBKBKBKBKBKBKBKBKBKBKBKBKBKBKBKBKBKBKBKBKBKBKBKBKBKBKBKBKBKBKBKBKBKBKBKBKBKBKBKBKBKBKBKBKB{A/AKBKBKBKBKBKBKBKBKBKBKBKBKBKBKBKBKBKBKBKBKBKBKBKBKBKBKBKBKBKBKBKBKBKBKBKBKBKBKB<A$A6A2AjAaAeAYAxA6A|A$A/A)A_AuAcAJAAAJAeAyA-AEBKBEB.AKBKBKBKBKBKBKBGBIB)A1AfAlARASAxA0A+AGBKBKBKBKBKBKBKBKBKBKBKBKBKBKBKBKBKBKBKBKBKBKBKBKBKBKBKB|A/A-A/A|A=A;AFB{AKBKBKBKBKBKBKBKBKBKBKBKBKBKBKBKBKBBB&AyAtA8A%A5A/AKBKB",
"KBKBKBKBKBKBKBKBKBKBKBKBKBKBKBKBKBKBKBKBKBKBKBKBKBKBKBKBKBKBKBKBKBKBKBKBKBKBKBKBKBKBKBKBKBKBKBKBKBKBKBKBKBKBKBKBKBKBKBKBKBKBKBKB.ADB@A4AtA!A}AHB?AKB>AEBKBKBKBKBKBKBKBKBKBKBKBKBKBKBKBKBKBKBKBKBKBKBKBKBKBKBKBKBKBKBKBKB A,A9AsAmAeASATASAkAdAlATAmAgAjAQAJAAAJAZAwA9A?AKBKBKBGBKBKBKBKBKBKBKBKBKBAB$AwAnARANAXAPAeAvA(A{AKBKBKBKBKBKBKBKBKBKBKBKBKBKBKBKB>A;ABB:ABBKBKBEB{ArA9A1A$A&A%A;AJB.AKBKBKBKBKBKBKBKBKBKBKBKBKBKBKBKBKB/A&A1AkA5AzAgA8A(A?A",
"KBKBKBKBKBKBKBKBKBKBKBKBKBKBKBKBKBKBKBKBKBKBKBKBKBKBKBKBKBKBKBKBKBKBKBKBKBKBKBKBKBKBKBKBKBKBKBKBKBKBKBKBKBKBKBKBKBKBKBKBKBKBKBKBKBKB>A-AzA+A<AGB,AIB=A{AABKB:AKBKBKBKBKBKBKBKBKBKBKBKBKBKBKBKBKBKBKBDB<AKBKBKBKBKBKBKBKB}AmAiARANAMAOAkAsA!A6A=AwA#AgAfAJAAAJAcAqA$A-AKBKBKBKBKBKBKBKBKBKBKBKBHBKBDB9ArAiAQARARAaAxA$A_A;AJBKBKBKBKBKBKBKBKBKBKBKBKBKBDBKBIBJBKBBBJBKBKBIB=ApAvAmArAoArAtA(A%AFBKBKBKBKBKBKBKBKBKBKBKBKBKBKBDB?A*A6AcANARATASAqA9A+A",
"KBKBKBKBKBKBKBKBKBKBKBKBKBKBKBKBKBKBKBKBKBKBKBKBKBKBKBKBKBKBKBKBKBKBKBKBKBKBKBKBKBGBKBKBKBKBKBKBKBKBKBKBKBKBKBKBKBKBKBKBKBKBKBKBCBEB%AzAnA#A{ACB+ACB{A:AKBKBDBKBKBKBKBKBKBKBKBKBKBKBKBKBKBKBKBKBKBKBKBKBKBKBKBKBKBKBKBKB>A:AsAkARAdANAmAuA!AtAxAVAnATAJAAAJAQAuA$AABHBKBKBKBKBKBKBKBKBKBKBKBKBKBKBKBKB/A*AxAbAQANAYAnAzA5A}AKBKBKBKBKBKBKBKBKBKBKBKBKB}A>A-A_A<A(A,AKBDB{A3AVAsAvA3A$A-ADBKBKBKBKBKBKBKBKBKBKBKBKBKBKBKBKBKBKBKBJBDB|ApA8AtAXAmAuA@A",
"KBKBKBKBKBKBKBKBKBKBKBKBKBKBKBKBKBKBKBKBKBKBKBKBKBKBKBKBKBKBKBKBKBKBKBKBKBKBKBKBKB)A:AEBKBKBKBKBKBKBKBKBKBKBKBKBKBKBKBKBKBKBKBKB/A.A6ApAkA8A_A>A@A-A#A#AFBKB}AKBKBKBKBKBKBKBKBKBKBKBKBKBKBKBKBKBKBKBKBBBKBKB?AKBKBKBGBHB'ACBxAxATAtAfA9A(A/A%A9AjAcAJAAAJAfAjA_ABBKBKBKBKBKBKBKBKBKBKBKBKBKBKBKBKBKBKBKBBB_A1AcARAQATAZAdAzA|AJBKBKBKBKBKBKBKBKBKB/A;AzA7AzA3A*A2A)ACB_A2AlAOAdAtAqA@A}AKBKBKBKBKBKBKBKBKBKBKBKBKBKBKBKBKBKBKBKBKBKBDB3A-AsAXAWAUApA",
"KBKBKBKBKBKBKBKBKBKBKBKBKBKBKBKBKBKBKBKBKBKBKBKBKBKBKBKBKBKBKBKBKBKBKBKBKBKBKBKBKBBBKBKBKBKBKBKBKBKBKBKBKBKBKBKBKBKBKBKBKBKBKBKBEB>A0AwA0A)A AKB?AKBHBGBKBKBHBKBKBKBKBKBKBKBKBKBKBKBKBKBKBKBKBKBKBKBKBKBKBKBKBKBKBKBKBKBKB;AdAuARAcAWAuA@A(AsAjAQAJAAAJATAgAgA)AGBKBKBKBKBKBKBKBKBKBKBKBKBKBKBKBKBKBKBKBKB|A@AzAZASASAfAXAzA+AIBKBKBKBKBKBKBKBKBKBFB?A8A6AzAxA&A^A>AKBBB*A9AkA9A_A*A.AKBKBKBKBKBKBKBKBKBKBKBKBKBKBKBKBKBKBKBKBKBKBKBKB_A=AwAqAsAoA&A",
"KBKBKBKBKBKBKBKBKBKBKBKBKBKBKBKBKBKBKBKBKBKBKBKBKBKBKBKBKBKBKBKBKBKBKBKBKBKBKBKBKBKBKBKBKBKBKBKBKBKBKBKBKBKBKBKBKBKBKBKBKBKBKBKB,A_AfApA0A$A>AKB AKBKBKBKBKBKBKBKBKBKBKBKBKBKBKBKBKBKBKBKBKBKBKBKBKBKBKBKBKBKBKBKBKBKBKBKBKB<AAB8A)AxA6A7A$AqAVAJAAAJAcAnA#AmA/AKBKBKBKBKBKBKBKBKBKBKBKBKBKBKBKBKBKBKBKBKBKB^A9AkAUANAmArA&AABKBKBKBKBKBKBKBKBKBKBKBFB*A%A1AtA@A$A:AKBEB-A$AsA-ABBDBKBKBKBKBKBKBKBKBKBKBKBKBKBKBKBKBKBKBKBKBKBKBKBKBKBFBKB A&A*A1A|A",
"KBKBKBKBKBKBKBKBKBKBKBKBKBKBKBKBKBKBKBKBKBKBKBKBKBKBKBKBKBKBKBKBKBKBKBKBKBKBKBKBKBKBKBKBKBKBKBKBKBKBKBKBKBKBKBKBKBKBKBKBKBKBKBKBFBEB4A!A&A;AKBKBKBKBKBKBKBKBKBKBKBKBKBKBKBKBKBKBKBKBKBKBKBKBKBKBKBKBKBKBKBKBKBKBKBKBKBKBKBKBzA)AtAnAVAcAoAnAMAJAAAJAQAjAVAwATA$AGBKBKBKBKBKBKBKBKBKBKBKBKBKBKBKBKBKBKBKBKB A@A$ApAjAoA#A4A>AKBKBKBKBKBKBKBKBKBKBKBKBKBFBCB'A-ABBBBKBKBKBKB A8A>AHBHBKBKBKBKBKBKBKBKBKBKBKBKBKBKBKBKBKBKBKBKBKBKBKBKBKBCBKB}A$A)A*AGB",
"KBKBKBKBKBKBKBKBKBKBKBKBKBKBKBKBKBKBKBKBKBKBKBKBKBKBKBKBKBKBKBKBKBKBKBKBKBKBKBKBKBKBKBKBKBKBKBKBKBKBKBKBKBKBKBKBKBKBKBKBKBKBKBKBKBKB$A,ABBKBKBKBKBKBKBKBKBKBKBKBKBKBKBKBKBKBKBKBKBKBKBKBKBKBKBKBKBKBKBKBKBKBKBKBKBKBKBKBKBKB,AKB}A&ArAkAmAcAJAAAJAVAjA9AxA=AlA|AKBKBKBKBKBKBKBKBKBKBKBKBKBKBKBKBKBKBKBKBKBKB}A A#A5A5A'A=AKBKBKBKBKBKBKBKBKBKBKBKBKBKBKBKBGB.AKBKBKBKBKBKBKB>AKBKBKBKBKBKBKBKBKBKBKBKBKBKBKBKBKBKBKBKBKBKBKBKBKBKBKBKBKBKBKBEBKBEBKB",
"KBKBKBKBKBKBKBKBKBKBKBKBKBKBKBKBKBKBKBKBKBKBKBKBKBKBKBKBKBKBKBKBKBKBKBKBKBKBKBKBKBKBKBKBKBKBKBKBKBKBKBKBKBKBKBKBKBKBKBKBKBKBKBKBKBKB,ADBFBKBKBKBKBKBKBKBKBKBKBKBKBKBKBKBKBKBKBKBKBKBKBKBKBKBKBKBKBKBKBKBKBKBKBKBKBKBKBKBKBKB%A A$AyAcAPASAJAAAJAMAqAsA%AtA6AdA6ACBKBKBKBKBKBKBKBKBKBKBKBKBKBKBKBKBKBKBKBKBEB#A<A@A%A_AJBBBKBKBKBKBKBKBKBKBKBKBKBKBKBKBKBKBKBKBKBKBKBKBKBKBKB AKBKBKBKBKBKBKBKBKBKBKBKBKBKBKBKBKBKBKBKBKBKBKBKBKBKBKBKBKBKBKB?AKBKBKB",
"KBKBKBKBKBKBKBKBKBKBKBKBKBKBKBKBKBKBKBKBKBKBKBKBKBKBKBKBKBKBKBKBKBKBKBKBKBKBKBKBKBKBKBKBKBKBKBKBKBKBKBKBKBKBKBKBKBKBKBKBKBKBKBKBKBKBKBKBKBKBKBKBKBKBKBKBKBKBKBKBKBKBKBKBKBKBKBKBKBKBKBKBKBKBKBKBKBKBKBKBKBKBKBKBKBKBKBKBKBKB+AGB|A8AoARAJAAAJAcAnA$A(A/A!A!AkAxA'AEBKBKBKBKBKBKBKBKBKBKBKBKBKBKBKBKBKBEBKB A8AAB)A>AGBKBKBKBKBKBKBKBKBKBKBKBKBKBKBKBKBKBKBKBKBKBKBKBKBKBKBKBKBKBKBKBKBKBKBKBKBKBKBKBKBKBKBKBKBKBKBKBKBKBKBKBKBKBKBKBKBKBKBKBJBKBKBKB",
"KBKBKBKBKBKBKBKBKBKBKBKBKBKBKBKBKBKBKBKBKBKBKBKBKBKBKBKBKBKBKBKBKBKBKBKBKBKBKBKBKBKBKBKBKBKBKBKBKBKBKBKBKBKBKBKBKBKBKBKBKBKBKBKBGBKB;A/A+A;AKBKBKBKBKBKBKBKBKBKBKBKBKBKBKBKBKBKBKBKBKBKBKBKBKBKBKBKBKBKBKBKBKBKBKBKBKBKBKBKB+A,A%A0AcAJAAAJASAmAoA7A@A(AuAsASAYAwA9A/AKBKBKBKBKBKBKBKBKBKBKBKBKBKBKBFB+A:A7AYA9AsA#A|AKBKBKBKBKBKBKBKBKBKBKBKBKBKBKBKBKBKBKBKBKBKBKBKBKBKBKB:AKBIBKBKBKBKBKBKBKBKBKBKBKBKBKBKBKBKBKBKBKBKBKBKBKBKBKBIB'AJBFB{AKBKBKB",
"KBKBKBKBKBKBKBKBKBKBKBKBKBKBKBKBKBKBKBKBKBKBKBKBKBKBKBKBKBKBKBKBKBKBKBKBKBKBKBKBKBKBKBKBKBKBKBKBKBKBKBKBKBKBKBKBKBKBKBKBKBKBKBKBKBKBHBJBBBKBKBKBKBKBKBKBKBKBKBKBKBKBKBKBKBKBKBKBKBKBKBKBKBKBKBKBKBKBKBKBKBKBKBKBKBKBKBKBKBBBzA^AwAfAJAAAJARAPAkAcA6AuA9AmAkATAeA$A,AKBKBKBKBKBKBKBKBKBKBKBKBKBKBKBKBKB+ABB%A0A&A5A(A,AKBJBKBKBKBKBKBKBKBKBKBKBKBKBKBKBKBKBKBKBKBKBKBKBKBKBKB,AKBKBKBKBKBKBKBKBKBKBKBKBKBKBKBKBKBKBKBKBKBKBKBKBKBKBKBKB.A A<A)ACBKBKB",
"KBKBKBKBKBKBKBKBKBKBKBKBKBKBKBKBKBKBKBKBKBKBKBKBKBKBKBKBKBKBKBKBKBKBKBKBKBKBKBKBKBKBKBKBKBKBKBKBKBKBKBKBKBKBKBKBKBKBKBKBKBKBKBKBKBKB A'A)ACBKBKBKBKBKBKBKBKBKBKBKBKBKBKBKBKBKBKBKBKBKBKBKBKBKBKBKBKBKBKBKBKBKBKBKBKBKBKBKB-AjAqAYAJAAAJAcAoAcArAVAxAWAfANAOASAaA8A'AKBKBKBKBKBKBKBKBKBKBKBKBKBKBKBKBKB=A{AxAuAvApAyA@A|A-AIBKBKBKBKBKBKBKBKBKBKBKBKBKBKBKBKBKBKBKBKBKBKBKBCB5A{A{A:A>AEBKBKBKBKBKBKBKBKBKBKBKBKBKBKBKBKBKBKBKBKBKBKB,A8A@A5AvA!A-AGB",
"KBKBKBKBKBKBKBKBKBKBKBKBKBKBKBKBKBKBKBKBKBKBKBKBKBKBKBKBKBKBKBKBKBKBKBKBKBKBKBKBKBKBKBKBKBKBKBKBKBKBKBKBKBKBKBKBKBKBKBKBKBKBKBKBKBKBKBHB;AKBKBKBKBKBKBIBKBKBEBKBKBKBKBKBKBKBKBKBKBKBKBKBKBKBKBKBKBKBDBABKBKBKBKBKBKBKBKBKBoASARAJAAAJAfA0A8AyA&AnA)AcAtAdAMAeAjA6A'AFBKBKBKBKBKBKBKBKBKBKBKBKBKBKBKB A9A!AmAsAvAzA&A,ADB?AKBKBKBKBKBKBKBKBKBKBKBKBKBKBKBKBKBKBKBKBKBKBKBKBGB#A(A%A$A@A=A}AKBHBKBKBKBKBKBKBKBKBKBKBKBKBKBKBKBKBKBKBAB8AsAmAlAmA6A-AGB",
"KBKBKBKBKBKBKBKBKBKBKBKBKBKBKBKBKBKBKBKBKBKBKBKBKBKBKBKBBBKBKBKBKBKBKBKBKBKBKBKBKB<ABBKBKBKBKBKBKBKBKBKBKBKBKBKBKBKBKBKBKBKBKBKBKBKBBB)A6A/AGBKB,A/A{A%AHBKB#AKBKBKBKBKBKBKBKBKBKBKBKBKBKBKBKBKBKB?A+A^A.AIB,AKBKBKBKBKBBBnAQAJAAAJAYAwA%A|A$A}AtA8ARATARANAmA2A}AKBKBKBKBKBKBKBKBKBKBKBKBKBKBKBKBKBKB?A}A3AwAnAqAxAzA0AzA$ACBKBKBKBKBKBKBKBKBKBKBGBJB!A<A,A AKB.AJBKBJB'A6AjAoAuAmAzA)A'AKBKBKBKBKBKBKBKBKBKBKBKBKBKBKBKBKBKBKBKBKB=AtAlASAQATAfA5A",
"KBKBKBKBKBKBKBKBKBKBKBKBKBKBKBKBKBKBKBKBKBKBKBKBKBKBKBKBKBKBKBKBKBKBKBKBKBKBKBKBKBKBKBKBKBKBKBKBKBKBKBKBKBKBKBKBKBKBKBKBKBKBKBKBKBKBKBFB_AKBKBKBHBKB,A+AFBIB-AKBKBKBKBKBKBKBKBKBKBKBKBKBKBKBKBKBKBCB(A%ACBKBFBKBKBKBKBKBBBaAJAAAJARAqA^A,AGB AKB)AABuAxAkARAsA6A)AFBKBKBKBKBKBKBKBKBKBKBKBKBKBKBKBKBBB(A@AtAwAsA2A=A/A>ACBKBKBKBKBKBKBKBKBKBKBKBKBKBKBCBKBKBKBKBKBKBKBKBKB,A6AzAtArAlA6A9AABFBKBKBKBKBKBKBKBKBKBKBKBKBKBKBKBKBKB A/A3AjASAPAQApA9A{A",
"KBKBKBKBKBKBKBKBKBKBKBKBKBKBKBKBKBKBKBKBKBKBKBKBKBKBKBKBHBKBKBKBKBKBKBKBKBKBKBKBKBKBKBKBKBKBKBKBKBKBKBKBKBKBKBKBKBKBKBKBKBKBKBKBKBKBKBKBJBKBKBKBKBKBIB,AKBKB)AFB AKBKBKBKBKBKBKBKBKBKBKBKBKBKBKBAB-A1A7A'AHBGBKBKBKBKBKBKBJAAAJAQASAjAzA+A+A%A,AzA<AdAxAsAiA9A$AABKBKBKBKBKBKBKBKBKBKBKBKBKBKBKBKBKBKB<A<A#A+A(A=A,A ACB'AFBKBKBKBKBKBKBKBKBKBKBKBKBKBHBKBKBKBKBKBKBKBKBKBKB}A-A%AxAoA*A)AJBKBKBKBKBKBKBKBKBKBKBKBKBKBKBKBKBKBKBKBKB)A4AgATAmA5A*ABB",
"KBKBKBKBKBKBKBKBKBKBKBKBKBKBKBKBKBKBKBKBKBKBKBKBKBKBKBKBKBKBKBKBKBKBKBKBKBKBKBKBKBKBKBKBKBKBKBKBKBKBKBKBKBKBKBKBKBKBKBKBKBKBKBKBKBKBKBKBKBKBKBKBKBKBKBCBKBEB_A,A(A AKBKBKBKBKBKBKBKBKBKBKBKBKBHB-A$AnA2A{ABBKBKBKBKBKBKBKBAAJAaAnAoA-ABBKBKBKBKBKBKB;ACB:AmA,A<AGBKBKBKBKBKBKBKBKBKBKBKBKBKBKBKBKBKBKB'A.A$A?A?AKBKBKBKBKBKBKBKBKBKBKBKBKBKBKBKBKBKBKBKBKBKBKBKBKBKBKBKBKBKBKBBB:A#AbA^A4A;AHBKBKBKBKBKBKBKBKBKBKBKBKBKBKBKBKBKBHBKB%A8AkAkA6A;AIBKB",
"^ApA1A#A AKBKBKBKBKBKBGB,A(ArA%A_A AKBKBKBKBKBKBKBKBKBKBKBKBKBKBKBKBKBKBKBKBKBKBGB,A3A*A6A4AgAvASA^A'AKBKBKBKBKBKBKBKB.A;A3A#A)A:AKB>A+A2A$AsAfAWAeAOAlAUAzA@AFBKBKBKBKBKBKBKBKBKBKBKBKBKBKBKBKBKBKBKBABKBDB$A}A1AsAWAJAAAKBKBBBBBKBKBKBKBKBKBKBKBKBKB'A>A}A AKB=AKB+AKBCBKBKBDBKBBBKBKBKBKBKBKBKBKB)ABB%A$A8A2A}AABKBBBKBKBKBKBKBKBKBKBKBKBKBKBKBKBKBABKBEBKBDB}A5A^A_A|A4A3AjAWAuA0AWA5A&A;AKBHBKBKBKBKBKBKBKBKBKBKBKBKBBB$AyAbAxA0ApA7A7A8A@A+A2A",
"4AjAfAqA^A+AKBKBKBKBJB^A4AoAVAtA7A)AKBKBKBKBKBKBKBKBKBKBKBKBKBKBKBKBKBKBKBKBKBKBCB+AwA2AqAcANAaASA1A{AIBKBKBKBKBKBKBKB.A=A1A(A)A?AKBGB,A(A|A1AdATAVAVAvAaA6A|AKBKBKBKBKBKBKBKBKBKBKBKBKBKBKBKBKBKBKBKBKBKBKB&A}AxAgAJAAAJAKBKBKBKBKBKBKBKBKBKBKBKBKBKBHBKBKBKBKBKBKBKBKBKBKBKBKBKBKBKBKBKBKBKBKBKBKBGBKBEBDB>A{AIBKBKBGBKBKBKBKBKBKBKBKBKBKBKBKBKBKBKB AKBBBKBCB}A1A8A&A_A5A*ArAtA%A+AyA'A/AIBKBKBKBKBKBKBKBKBKBKBKBKBKBKBKB;A9AvA)A;A&A/A<A,A}A'A5A",
"tAVATAcA0A#A AKBKBABJB$A$AvAUAfAnA7A<A?AKBKBKBKBKBKBKBKBKBKBKBKBKBKBKBKBKBKBKB;A^A3AfAuAyAuAfA1AqA:AKBKBKBKBKBKBKBKBKBKBKB,AGBGBKBKBKB?A{ADB^A1AcAVAMAaAPAkA4A'AKBKBKBKBKBKBKBKBKBKBKBKBKBKBKBKBKBKBKB/AHB+ArA2AcAJAAAJAWAKBKBKBKBKBKBKBKBKBKBKBKBKBKBGBKBKBKBKBKBKBKBKBKBKBKBKBKBKBKBKBKBKBKBKBKBKBKBKBKBKBEB;AKBKBKBFBKBKBKBKBKBKBKBKBKBKBKBKBKBKBKB:AKBFBKBKB<A&A)A)A_A8A)AqAuA2A&A4A AJBKBKBKBKBKBKBKBKBKBKBKBKBKBKBKBKBIB_A8A/A?A+A?A;A;A-A+AxA",
"uAbAQAQAeArA&A;AEB_AAB!A&AxAZAUAQAfA3A4A'A,AKBKBKBKBKBKBKBKBKBKBKBKBKBKBKB<A)AzAlAaANAcAuA5AxA-A%AKBKBKBKBKBKBKBKBKBKBKBKBKBKBKBKBKBKBIBDBKB A_AxAXAQAQAPAcAuA%ADBGBKBKBKBKBKBKBKBKBKBKBKBKBKBKBKBKBKB+A=A4ATAfAJAAAJAgAsAKBKBKBKBKBKBKBKBKBKBKBKBKBKBKBKBKBKBKBKBKBKBKBKBKBKBKBKBKBKBKBKBKBKBKBKBKBKBKBKBKBKBCBKBKBKBEBKBGBKBKBKBKBKBKBKBKBKB:AJB|A/A$AKBEBKBKB A'A;A(A^A$A'AzA2A0A^A%AEBKBKBKBKBKBKBKBKBKBKBKBKBKBKBKBKBKBKB>A-AKBHB AEB,A.A_A%AqA",
"MARAPAaAaAzA}AABKBABKB;AEB_AxAqARAxA!A*ABB?AKBKBKBKBKBKBKBKBKBKBKBKBKBKBKB_A#AxAnAwAdA2A=A'A)ACB;AKBKBKBKBKBKBKBKBKBKBKBKBKBKBKBKBKBKBKBKBKBKBFB^AyAcARAPAPAcApA^A{AKBKBKBKBKBKBKBKBKBKBKBKBKBKBKBBB:A6A@AlASAJAAAJAcAxA1AKBKBKBKBKBKBKBKBKBKBKBKBKBKBKBKBKBKBKBKBKBKBKBKBKBKBKBKBKBKBKBKBKBKBKBKBKBKBKBKBKBKBIBKBKBKBKBKBKBKBKBKBKBKBKBKBKBKBKBKBIBKB'AKBKBKBKBKBKBKBGBAB.ACB@A6A0A!A%A ACBKBKBKBKBKBKBKBKBKBKBKBKBKBKBKBEBKB)A*AIBHBBBBB,A/A;A{A4A",
"2AzAuAwAfA6A,ACBKBJBKBGBKBDB-A7ARA4A5A@A|A{AKBHBKBKBKBKBKBKBKBKBKBKB?AKBGB5AwAlAbAxAvA)AFBKBHBKBKBKBKBKBKBKBKBKBKBKBKBKBKBKBKBKBKBKBKBKBKBKBKBKBEB_A2AgAmANAPAOAoA0A{AGBKBKBKBKBKBKBKBKBKBKBKBKB)A*A#AsAwAUAJAAAJAfA2A}A}AKBKBKBKBKBKBKBKBKBKBKBKBKBKBKBKBKBKBKBKBKBKBKBKBKBKBKBKBKBKBKBKBKBKBKBKBKBKBKBKBKBKBKBKBKBKBKBKBKBKBKBKBKBKBKBKBKBKBKBKBHBKB>AKBKBKBKBKBKBKBKBKBKBKB;A)A2A!A-AEBHBKBKBKBKBKBKBKBKBKBKBKBKBKBKBKBKBKBCB/AKBKBKBCB:ADB>A'A*A",
"-A5A1AzAsA6A'A,AKBCBKBBBHB;A6AtAOAmAuApA5AxA:A_AKBKB{AKBBBKBKBKBKBKB+AIB|AkAiANAPAYAUAuA(AAB:AKBIBKBKBKBKBKBKBKBKBKBKBKBKBKBKBKBKBKBKBKBJBKBKBJB_AyAkAQAeAUAOAaAyAvA;A<AKBKBKBKBKBKBKBKBKBKBKBKB,A#A5AjAcAJAAAJASATArA&A$AKBGBFB,AKBKBKBKBKBKBKBKBKBKB?AKBKBKBKBKBKBKBKBKBKBKBKBKBKBKBKBKBKBKBKBKBKBKBKBKBKBKBABKBKBKB>AIB+AJBBBKB,AKBKBKBKBKB{AEB$A:AyAKBKBKBKBKBKBKB>A_A(A|A4A4AnA5A*AGBKBKBKBKBKBKBKBKBKBKBKBKBKBKBKBKBKBKBKB/AKBKB?A>A!A)A7AxAoA",
"DB,A'A;A!A;ADB AKBKBKBKBKBKBGB:AcA1AxArAwAqA^A0AFBHB(AKB{AKBKB+AHB_AuA+A4APATAQARAuA5A<AKBKBKBKBKBKBKBKBKBKBKBKBKBKBKBKBKBKBKBKBKBKBKBKBKBKBKBKBKB>A&AoA4AeARANAZAQAvA2A;A AKBKBKBKBKBKBKBKBHB-A5AmAiAUAJAAAJAUAlA4A+AKBDBBBHBKBIBKBKBKBKBKBKBKBKBKBKBKBKBKBKBKBKBKBKBKBKBKBKBKBKBKBKBKBKBKBKBKBKBKBKBKBKBKBKBKBKBKBKBKBKB>AKBFBKB:AKBKBKBFBKB AKB}AKB}AKBKBKBKBKBKBKBKBKBKBKB<A}A3A9A}AKBKBKBKBKBKBKBKBKBKBKBKBKBKBKBKBKBKBKBKBKBKBKBKBCB)A A:A{A)A",
"KBKBKBKBDBKBKBKBKBKBKBKBKBKBKBIB7A)A)A0A5AgA5AWA=A|AqA<AjA,A5AoA*A3AoA!A3APAnAWApA5A*AGBKBKBKBKBKBKBKBKBKBKBKBKBKBKBKBKBKBKBKBKBKBKBKBKBKBKBKBKBKBIB>A5A|A4AcARARAPApAYA5A1A,ABBKBKBKBKBEB=A(AxAoAQASAJAAAJAcAwA@A=AHBKBKB{A'ACB.AKBKBKBKBKBKBKBKBKBKBKBKBKBKBKBKBKBKBKBKBKBKBKBKBKBKBKBKBKBKBKBKBKBKBKBKBKBKBKBKBKBKBKBKB_AKB,AKB-AKBKBKBKBKBCBKB=AKB+AKBKBKBKBKBKBKBKBKBKBKBAB?A6A4A>AKBKBKBKBKBKBKBKBKBKBKBKBKBKBKBKBKBKBKBKBKBKBKBKBAB8A:A_A=A{A",
"KBFBKBKBIBKBKBKBKBKBKBKBKBKBKBKB&A>ABB(A<A6ABB%AKBKB{AKB{AKBKB?AKBFB{AKBCBoA!AsA3A$A(AKBKBKBKBKBKBKBKBKBKBKBKBKBKBKBKBKBKBKBKBKBKBKBKBKBKBKBKBKBKB A-AsA!AsAQAUAUAjA8A$AFB?AKBKBKBKBKBKBKBKBFB*AqAaAJAAAJAUAjAsA6A+A/AKBAB2A7A%A^AABKBKBKBKBKBKBKBKBKBBBKB<AKBKBKBKBKBKBKBKBKBKBKBKBKBKBKBKBKBKBKBKBKBKBKBKBKB AKBKBKBKBKB AKBKBKBIBKBKBKBKBKBKBKB/AKB_AKBKBKBKBKBKBKBKBKBEBDB)A@AjAcA6A{ACBKBKBKBKBKBKBKBKBKBKBKBKBKBKBKBKBKBKBEBKB A;A8AmA9A7A&A&A",
"KBKBKBKBKBKBKBKBKBKBKBKBKBKBKBKB AKBKBCBJB)AKB%AKBKB<AKB=AKB.A;AKB.A=AKBJBzA}A@A|AABGBKBKBKBKBKBKBKBKBKBKBKBKBKBKBKBKBKBKBKBKBKBKBKBKBKBKBKBKBKBKBKBJB(A.A%AlAeAPAeAzA0A;A!AKBIBKBKBKBKBKB_A^AvAXAJAAAJASAiA5A#A:AKBKBKBKBnA1A(A+ADBKBKBKBKBKBKBKBKBKBKBKBDBKBKBKBKBKBKBKBKBKBKBKBKBKBKBKBKBKBKBKBKBKBKBKBKBKBKBKBKBKBKBKBKBKBKBKBKBKBKBKBKBKBKBKBKBKBFBKBKBKBKBKBKBKBKBKBKBKBFB?A6AhA=A,AJBKBKBKBKBKBKBKBKBKBKBKBKBKBKBKBKBKBKBKBKBKBFB^AvA{A}A ACB",
"KBKBKBKBKBKBKBKBKBKBKBKBKBKBKBKBCBKBKBDBDB9A'AoABBKB^AHBxA?AwAqA9AxArA_A{AuA=A#A'AJBKBKBKBKBKBKBKBKBKBKBKBKBKBKBKBKBKBKBKBKBKBKBKBKBKBKBKBKBKBKBKBKBKB>AKB|A0AhAQAOAYARAqAaA%A$A AKBKB.A(ArAqAXAJAAAJAaAQAmA#A*ABBKBKBKBKB$A-ACB?AKBKBKBKBKBKBKBKBKBKBKBKBKBKBKBKBKBKBKBKBKBKBKBKBKBKBKBKBKBKBKBKBKBKBKBKBKBKBKBKBKBKBKBKBHBKBKBKBKBKBKBKBKBKBKBKBKBKBKBKBKBKBKBKBKBKBKBKBKBKBKBKB{A9AKBKBKBKBKBKBKBKBKBKBKBKBKBKBKBKBKBKBKBKBKBKBKBKBKBFB@ABBABJBKB",
"KBKBKBKBKBKBKBKBKBKBKBKBKBKBKBKBKBKBKBKBKBABKB%AKBKBKBKB<AKB|A^A}A5A0A/ACB&A>A<AEBKBKBKBKBKBKBKBKBKBKBKBKBKBKBKBKBKBKBKBKBKBKBKBKBKBKBKBKBKBKBKBKBKBKBKBKB.A9ArAQAQAPAXAwArA>A,AKBKBKBFB_AwAgAJAAAJAXAqAoA5A,A)AKBKBKBKBKB-AABKBKBKBKBKBKBKBKBKBKBKBKBKBKBKBKBKBKBKBKBKBKBKBKBKBKBKBKBKBKBKBKBKBKBKBKBKBKBKBKBKBKBKBKBKBKBKBKBKBKBKBKBKBKBKBKBKBKBKBKBKBKBKBKBKBKBKBKBKBKBKBKBKBKBJB)AKBKBKBKBKBKBKBKBKBKBKBKBKBKBKBKBKBKBKBKBKBKBKBKBKBKBABKBKBKBKB",
"KBKBKBKBKBKBKBKBKBKBKBKBKBKBKBKBKBKBKBKBKBCBKB#AKBKBKBKB'AFB$A2A4AuAwA:AAB=AHBEBKBKBKBKBKBKBKBKBKBKBKBKBKBKBKBKBKBKBKBKBKBKBKBKBKBKBKBKBKBKBKBKBKBKBKBKBKBKBGB-AuAcASANAaAdA@A@A>AKBCB-AwAdAJAAAJAXAvA*AxA-AKBKBKBKBKBKBKBHBKBKBKBKBKBKBKBKBKBKBKBKBKBKBKBKBKBKBKBKBKBKBKBKBKBKBKBKBKBKBKBKBKBKBKBKBKBKBKBKBKBKBKBKBKBKBKBKBKBKBKBKBKBKBKBKBKBKBKBKBKBKBKBKBKBKBKBKBKBKBKBKBKBKBKBKBKBKBKBKBKBKBKBKBKBKBKBKBKBKBKBKBKBKBKBKBKBKBKBKBKBKBKBKBKBKBKBKB",
"KBKBKBKBKBKBKBKBKBKBKBKBKBKBKBKBKBKBKBKBKBKBKB(AKBKBKBKB'A>A6AyApAsA3A}ACB/AKBKBKBKBKBKBKBKBKBKBKBKBKBKBKBKBKBKBKBKBKBKBKBKBKBKBKBKBKBKBKBKBKBKBKBKBKBKBKBKBKBJB)A2AiAQAPAYAxAtA$A<A!AvAXAJAAAJAgAqA^AFB(AHBKBKBKBKBKBKBKBKBKBKBKBKBKBKBKBKBKBKBKBKBKBKBKBKBKBKBKBKBKBKBKBKBKBKBKBKBKBKBKBKBKBKBKBKBKBKBKBKBKBKBKBKBKBKBKBKBKBKBKBKBKBKBKBKBKBKBKBKBKBKBKBKBKBKBKBKBKBKBKBKBKBKBKBKBKBKBKBKBKBKBKBKBKBKBKBKBKBKBKBKBKBKBKBKBKBKBKBKBKBKBKBKBKBKBKBKB",
"KBKBKBKBKBKBKBKBKBKBKBKBKBKBKBKBKBKBKBKBKBKBKB-AKBKBKBIB_A)AqAtAfAtA9A_AEBBBKBKBKBKBKBKBKBKBKBKBKBKBKBKBKBKBKBKBKBKBKBKBKBKBKBKBKBKBKBKBKBKBKBKBKBKBKBKBKBKBKBKB>A^A2AbARAMAYAQAlA6AuAUAJAAAJAdAwArA_AKB=AKBKBKBKBKBKBKBKBKBKBKBKBKBKBKBKBKBKBKBKBKBKBKBKBKBKBKBKBKBKBKBKBKBKBKBKBKBKBKBKBKBKBKBKBKBKBKBKBKBKBKBKBKBKBKBKBKBKBKBKBKBKBKBKBKBKBKBKBKBKBKBKBKBKBKBKBKBKBKBKBKBKBKBKBKBKBKBKBKBKBKBKBKBKBKBKBKBKBKBKBKBKBKBKBKBKBKBKBKBKBKBKBKBKBKBKBKB",
"KBKBKBKBKBKBKBKBKBKBKBKBKBKBKBKBKBKBKBKBKBKBKB;AKBKBKBGB=A!ApAtAQAsA^A$AFBKBKBKBKBKBKBKBKBKBKBKBKBKBKBKBKBKBKBKBKBKBKBKBKBKBKBKBKBKBKBKBKBKBKBKBKBKBKBKBKBKBKBKBKB.A^AsATARAQAUAgAlAUAJAAAJAXAwA_A(AKBKBEBKBKBKBKBKBKBKBKBKBKBKBKBKBKBKBKBKBKBKBKBKBKBKBKBKBKBKBKBKBKBKBKBKBKBKBKBKBKBKBKBKBKBKBKBKBKBKBKBKBKBKBKBKBKBKBKBKBKBKBKBKBKBKBKBKBKBKBKBKBKBKBKBKBKBKBKBKBKBKBKBKBKBKBKBKBKBKBKBKBKBKBKBKBKBKBKBKBKBKBKBKBKBKBKBKBKBKBKBKBKBKBKBKBKBKBKBKB",
"KBKBKBKBKBKBKBKBKBKBKBKBKBKBKBKBKBKBKBKBKBKBKBGBKBKBKBIB'A_AwA7AnA)AFB'AKBKBKBKBKBKBKBKBKBKBKBKBKBKBKBKBKBKBKBKBKBKBKBKBKBKBKBKBKBKBKBKBKBKBKBKBKBKBKBKBKBKBKBKBKBKBHB*A0AcASANARAXAJAAAJAUAvA-AFB.AKBKBKBKBKBKBKBKBKBKBKBKBKBKBKBKBKBKBKBKBKBKBKBKBKBKBKBKBKBKBKBKBKBKBKBKBKBKBKBKBKBKBKBKBKBKBKBKBKBKBKBKBKBKBKBKBKBKBKBKBKBKBKBKBKBKBKBKBKBKBKBKBKBKBKBKBKBKBKBKBKBKBKBKBKBKBKBKBKBKBKBKBKBKBKBKBKBKBKBKBKBKBKBKBKBKBKBKBKBKBKBKBKBKBKBKBKBKBKBKB",
"KBKBKBKBKBKBKBKBKBKBKBKBKBKBKBKBKBKBKBKBKBKBKBKBKBKBKBKBGB:A9A}AuA>AKBABKBKBKBKBKBKBKBKBKBKBKBKBKBKBKBKBKBKBKBKBKBKBKBKBKBKBKBKBKBKBKBKBKBKBKBKBKBKBKBKBKBKBKBKBKBKBKB A!AyAVAkAUAJAAAJAUAuA!ACBKBKBKBKBKBKBKBKBKBKBKBKBKBKBKBKBKBKBKBKBKBKBKBKBKBKBKBKBKBKBKBKBKBKBKBKBKBKBKBKBKBKBKBKBKBKBKBKBKBKBKBKBKBKBKBKBKBKBKBKBKBKBKBKBKBKBKBKBKBKBKBKBKBKBKBKBKBKBKBKBKBKBKBKBKBKBKBKBKBKBKBKBKBKBKBKBKBKBKBKBKBKBKBKBKBKBKBKBKBKBKBKBKBKBKBKBKBKBKBKBKBKB",
"KBKBKBKBKBKBKBKBKBKBKBKBKBKBKBKBKBKBKBKBKBKBKBKBKBKBKB<A;A$AuA*AxA?AKB|AKBKBKBKBKBKBKBKBKBKBKBKBKBKBKBKBKBKBKBKBKBKBKBKBKBKBKBKBKBKBKBKBKBKBKBKBKBKBKBKBKBKBKBKBKBKBKBFB=A4AWAfAJAAAJAXAlA6A<AKBKBKBKBKBKBKBKBKBKBKBKBKBKBKBKBKBKBKBKBKBKBKBKBKBKBKBKBKBKBKBKBKBKBKBKBKBKBKBKBKBKBKBKBKBKBKBKBKBKBKBKBKBKBKBKBKBKBKBKBKBKBKBKBKBKBKBKBKBKBKBKBKBKBKBKBKBKBKBKBKBKBKBKBKBKBKBKBKBKBKBKBKBKBKBKBKBKBKBKBKBKBKBKBKBKBKBKBKBKBKBKBKBKBKBKBKBKBKBKBKBKBKB",
"KBKBKBKBKBKBKBKBKBKBKBKBKBKBKBKBKBKBKBKBKBKBKBBBKBKBKB'A-A#AmA7AuA}AJB}AKBKBKBKBKBKBKBKBKBKBKBKBKBKBKBKBKBKBKBKBKBKBKBKBKBKBKBKBKBKBKBKBKBKBKBKBKBKBKBKBKBKBKBKBKBKBKB=A@AlARAJAAAJAUARAgAlA$A>AKB AKBKBKBKBKBKBKBKBKBKBKBKBKBKBKBKBKBKBKBKBKBKBKBKBKBKBKBKBKBKBKBKBKBKBKBKBKBKBKBKBKBKBKBKBKBKBKBKBKBKBKBKBKBKBKBKBKBKBKBKBKBKBKBKBKBKBKBKBKBKBKBKBKBKBKBKBKBKBKBKBKBKBKBKBKBKBKBKBKBKBKBKBKBKBKBKBKBKBKBKBKBKBKBKBKBKBKBKBKBKBKBKBKBKBKBKBKBKBKBKB",
"KBKBKBKBKBKBKBKBKBKBKBKBKBKBKBKBKBKBKBKBKBKBKB'AJBKBEB;A#A@AgAwAnA%A>A_AKBKBKBKBKBKBKBKBKBKBKBKBKBKBKBKBKBKBKBKBKBKBKBKBKBKBKBKBKBKBKBKBKBKBKBKBKBKBKBKBKBKBKBKBKBFB A5AxATAJAAAJAfAkANAUAQAtA@A,A$AIBKBBBKBKBKBKBKBKBKBKBKBKBKBKBKBKBKBKBKBKBKBKBKBKBKBKBKBKBKBKBKBKBKBKBKBKBKBKBKBKBKBKBKBKBKBKBKBKBKBKBKBKBKBKBKBKBKBKBKBKBKBKBKBKBKBKBKBKBKBKBKBKBKBKBKBKBKBKBKBKBKBKBKBKBKBKBKBKBKBKBKBKBKBKBKBKBKBKBKBKBKBKBKBKBKBKBKBKBKBKBKBKBKBKBKBKBKBKBKB",
"KBKBKBKBKBKBKBKBKBKBKBKBKBKBKBKBKBKBKBKBKBEBAB8A_AEB'A#AuAhANAYASApA9ApA<A?AKBKBKBKBKBKBKBKBKBKBKBKBKBKBKBKBKBKBKBKBKBKBKBKBKBKBKBKBKBKBKBKBKBKBKBKBKBKBKBKBKBKBKB'A{AvAfAJAAAJARAWAVASAQAYAxA@A>A%AKBKB,AKBKBKBKBKBKBKBKBKBKBKBKBKBKBKBKBKBKBKBKBKBKBKBKBKBKBKBKBKBKBKBKBKBKBKBKBKBKBKBKBKBKBKBKBKBKBKBKBKBKBKBKBKBKBKBKBKBKBKBKBKBKBKBKBKBKBKBKBKBKBKBKBKBKBKBKBKBKBKBKBKBKBKBKBKBKBKBKBKBKBKBKBKBKBKBKBKBKBKBKBKBKBKBKBKBKBKBKBKBKBKBKBKBKBKBKBKB",
"KBKBKBKBKBKBKBKBKBKBKBKBKBKBKBKBKBKBKBKBKB=A}AtA)A/A*A%ApArAQAPAOAbArArA(A%AKBFBKBKBKBKBKBKBKBKBKBKBKBKBKBKBKBKBKBKBKBKBKBKBKBKBKBKBKBKBKBKBKBKBKBKBKBKBKBKBKBEB=AzAtARAJAAAJATAlA4AyAcARAMAYAdArAaA!A?A1A AKBKBKBKBKBKBKBKBKBKBKBKBKBKBKBKBKBKBKBKBKBKBKBKBKBKBKBKBKBKBKBKBKBKBKBKBKBKBKBKBKBKBKBKBKBKBKBKBKBKBKBKBKBKBKBKBKBKBKBKBKBKBKBKBKBKBKBKBKBKBKBKBKBKBKBKBKBKBKBKBKBKBKBKBKBKBKBKBKBKBKBKBKBKBKBKBKBKBKBKBKBKBKBKBKBKBKBKBKBKBKBKBKBKBKBKB",
"KBKBKBKBKBKBKBKBKBKBKBKBKBKBKBKBKBKBKBKBEB{A|ArA=ABB;A'A0AyAhAUAOANAbAqA8A6A/AABKBKBKBKBKBKBKBKBKBKBKBKBKBKBKBKBKBKBKBKBKBKBKBKBKBKBKBKBKBKBKBKBKBKBKBKBKBKBKBCB-AqAcAJAAAJAfAxA@A=A!A0ATARAPAaAwAqA;AFB5A;AKBKBKBKBKBKBKBKBKBKBKBKBKBKBKBKBKBKBKBKBKBKBKBKBKBKBKBKBKBKBKBKBKBKBKBKBKBKBKBKBKBKBKBKBKBKBKBKBKBKBKBKBKBKBKBKBKBKBKBKBKBKBKBKBKBKBKBKBKBKBKBKBKBKBKBKBKBKBKBKBKBKBKBKBKBKBKBKBKBKBKBKBKBKBKBKBKBKBKBKBKBKBKBKBKBKBKBKBKBKBKBKBKBKBKBKB",
"KBKBKBKBKBKBKBKBKBKBKBKBKBKBKBKBKBKBKB A+AwA7AUA#A{A0A_AjA8AgARAiARARArAyAkA*A@A AKBKBKBKBKBKBKBKBKBKBKBKBKBKBKBKBKBKBKBKBKBKBKBKBKBKBKBKBKBKBKBKBKBKBKBKBKB.A#AvASAJAAAJARAvA5A=AFB A*AsAbAQANAXARA0A$AYA2A<AGBKBKBKBKBKBKBKBKBKBKBKBKBKBKBKBKBKBKBKBKBKBKBKBKBKBKBKBKBKBKBKBKBKBKBKBKBKBKBKBKBKBKBKBKBKBKBKBKBKBKBKBKBKBDBKBCBKB<AKBKBKBKBKBKBKBKBKBKBKBKBKBKBKBKBKBKBKBKBKBKBKBKBKBKBKBKBKBKBKBKBKBKBKBKBKBKBKBKBKBKBKBKBKBKBKBKBKBKBKBGBKBKBKBKB",
"KBKBKBKBKBKBKBKBKBKBKBKBKBKBKBKBDBKBKBFB>A)A:AtABBKB?AKB+AAB_AuA3AdATA2A8AvA%A*A,AKBKBKBKBKBKBKBKBKBKBKBKBKBKBKBKBKBKBKBKBKBKBKBKBKBKBKBKBKBKBKBKBKBKBKBKBJB{AzAeAJAAAJAcAtA{A AKBKBKBHB^A2AiASAPAYAzA8ApAvA;A{AKBKBKBKBKBKBKBKBKBKBKBKBKBKBKBKBKBKBKBKBKBKBKBKBKBKBKBKBKBKBKBKBKBKBKBKBKBKBKBKBKBKBKBKBKBKBKBKBKBKBKBKBKBKBKBKBKBKBKBKBKBKBKBKBKBKBKBKBKBKBKBKBKBKBKBKBKBKBKBKBKBKBJBKBKBKBKBKBKBKBKBKBKBKBKBKBKBKBKBKBKBKBKBKBKBKBKBKBKBKBKBKBKBKB",
"KBKBKBKBKBKBKBKBKBKBKBKBKBKBKBKB$A?A'A@A7AqA8AZA+A>A8AEB2A<A^ApA9AlASAxAtAUAmAlA1A;AGBKBKBKBKBKBKBKBKBKBKBKBKBKBKBKBKBKBKBKBKBKBKBKBKBKBKBKBKBKBKBKBKB:AHB)A0AbAJAAAJASAqAzA'AFBKBKBKBKB.A^A2AcAQAOAeAjAPAQAvA0A{AGBKBKBKB AKBKBKBKBKBKBKBKBKBKBKBKBKBKBKBKBKBKBKBKBKBKBKBKBKBKBKBKBKBKBKBKBKBKBKBKBKBKBKBKBKBKBKBKBKBKBKBGBKBGBKB'AKBKBKBJBKBKBKBEBKBKBKBKBKBKBKBKBKBKBKBKBKBKBKB?A+AKBKBKBKBKBKBKBKBKBKBKBKBKBKBKBKBKBKBKBKBKBKBKBKBKBKB?AKBKBKBKB",
"KBKBKBKBKBKBKBKBKBKBKBKBKBKBKBKB*AKBGB.A/A_AHB#AKBKBCBKB>AKBKB'AJB-A3A A;AtA4A2A!AABFBKBKBKBKBKBKBKBKBKBKBKBKBKBKBKBKBKBKBKBKBKBKBKBKBKBKBKBKBKBKBKBKB)A+A2AdAJAAAJAeAvA-A=AKBKBKBKBKBKBKB>A)AuAQAQAPAUARAZAyAoA^ADBKBKBKB(A AKBKBKBKBKBKBKBKBKBKBKBKBKBKBKBKBKBKBKBKBKBKBKBKBKBKBKBKBKBKBKBKBKBKBKBKBKBKBKBKBKBKBKBKBKBKBKBKBKBKBKBKBKBKBKBKBKBKBKBKBKBKBKBKBKBKBKBKBKBKBKBKBKBKB)A0A:AEBKBKBKBKBKBKBKBKBKBKBKBKBKBKBKBKBKBKBKBKBKBKBKB/A+AKBIBKBKB",
">A}A.ACB=AJBKBKBKBKBKBKBKBKBKBEBuA;A;A+A,A*AHB(AKBKBBBKBBBKBKBCBKB A^AKB/AqAyAsArA&A&AIBKBKBKBKBKBKBKBKBKBKBKBKBKBKBKBKBKBKBKBKBKBKBKBKBKBKBKBKBKBEB=AuA3AfAJAAAJAbAzA#ACBEBKBKBKBKBKBKBKBKBJB-ArAhAeAUARANAaAOApA%A'AKBFB,AFBKBKBKBKBKBKBKBKBKBKBKBKBKBKBKBKBKBKBKBKBKBKBKBKBKBKBKBKBKBKBKBKBKBKBKBKBKBKBKBKBKBKBKBKBKBKBKBKBKBKBKBKBKBKBKBKBKBKBKBKBDBKBKBKBKBKBKBKBKBKBKBKBBB:A3A0A)ACBHBKBKBKBKBKBKBKBKBKBKBKBKBKBKBKBKBKBKBIBKBKBKB.A-ACB/A?A'A",
"-A7A^A}A*AABKBKBKBKBKBKBKBKB|A+AsA&A{A9A,A9AGB:AKBKB,AKB AKBKBKBKBKBABKBKBxA7AoApAuAsA=AGBKBGBKBKBKBKBKBKBKBKBKBKBKBKBKBKBKBKBKBKBKBKBKBEBKBKBKB'A@AtASAeAJAAAJAdA0A{A.AKBKBKBKBKBKBKBKBKBKBKBGB9A0AlAQAcARAOAPAcAuA4A|A@A_A)A-A#AEBKBKBKBKBKBKBKBKBHB}ADB:AKBKBKBKBKBKBKBKBKBKBKBKBKBKBKBKBKBKBKBKBKBKBKBKBKB{AKBKBKB>AGB,AKBKBKBHBKBKBKBKBKBHBKB}AGB4AKBKBKBKBKBKBKBKB>A_A=A0AuAWAgAvA)A{AKBKBKBKBKBKBKBKBKBKBKBKBKBKBKBEBKB;A-ADB:A*A8AoA1AuAxAtA",
"jAZApA2A1A;AKBKBKBKBKBKBKBDB!A@AlA^A}A}AGB?AKBKBKBKBKBKBKBKBKBKBKBKBKBKBKB)A&AyAuA6ApA(A AGB:AKB.AKBKBKBKBKBKBKBKBKBKBKBKBKBKBKBKBKBKBKBKBKBKBKB-A7AiAUAJAAAJAfA2A)AJBKBKBKBKBKBKBKBKBKBKBKBKBKB.A|A%AsA4AeAUANAPAcAkA6AzAEBKBIBKBKBKBKBKBKBKBKBKBKBKBKBKBKBKBKBKBKBKBKBKBKBKBKBKBKBKBKBKBKBKBKBKBKBKBKBKBKBKBDBKBKBKBKBKBKBKBKBKBKBKBKBKBKBKBKBKBKBKB>AKBKBKBKBKBKBKBKBJBABDB#A1ApAqAtA$A%AFBKBKBKBKBKBKBKBKBKBKBKBKBKBKB_A>A6A4A:A|A|A&A*A:A|A;A!A",
"jAMAWAlA2A=AKBKBKBKBKBABBB_AoAyApA@A.A.AKBKBKBKBKBKBKBKBKBKBKBKBKBKBKBKBKBFBAB&A7A4AgA6A*A*AzA)AyAEBKBKBKBKBKBKBKBKBKBKBKBHBKBKBKBKBKBKB>AKB,A(AtAnARAJAAAJAeA3A+AHBKBKBKBKBKBKBKBKBKBKBKBKBKBKBKBKB.A!A|A4AeAmAPAPAPAaAUAKBKBFBHBKBKBKBKBKBKBKBKBKBKBFBKBABKBKBKBKBKBKBKBKBKBKBKBKBKBKBKBKBKBKBKBKBJBKBDBFBAB{AKBKBKBKBKBKBKBKBKBKBKBKBKBKBKBKBKBKBKB:AKBKBKBKBKB?ABB?A.A_A|AxAnAlAoAkA7A$AABKBKBKBKBKBKBKBKBKBKBKBKBKBKB'A;AzAnA^A%A@A#A@A*A*A_AzA",
"^AsAuA1A7A-AIBKBKBKBKBEBCB}AuAxAmA2A_A9A A{AKBKBKBKBHBKBKBKBKBKBKBKBKBKBKB-A_AwArAlATAwA!A{A8A?A*AKBKBKBKBKBKBKBKBKBKBKBKBKBKBKBKBKBJB=A@AAB=A*AtAaAJAAAJAUASAuA)A:AKBKBKBKBKBKBKBKBKBKBKBKBKBKBKB>A(AsA5AoAQAgARAQAaAvAlACB,A+A%AIBKBKBKBKBKBKBKBKBGB#A:A{AEBKBKBKBKBKBKBKBKBKBKBKBKBKBKBKBKBKBKBKBKBKBDBAB;A4A:A.AAB%A A;AKBKBKBKBKBKBKBKBKBABKB+A:AuADB'AKBJB}A=A:A#A4AsAxAWAUAQAiAnA$A:AKBKBKBKBKBKBKBKBKBKBKBKBKBKBKBKBIB-A3A;A*A4A9AuAuAlAmARA",
"^ApAqAwA@A_AJBKBKBKBKB:A)A7AZAtAsA6A.A:AKBKBKBKBKBKBKBKBKBKBKBKBKBKBKBKBKBJBHB-A@AyAYArAtAzAgA7AmA/AKBKBKBKBKBKBKBKBKBKBKB=A'A'A?AIB;A8AuA&AwAoARAJAAAJARAiAtA=AKBKBKBKBKBKBKBKBKBKBKBKBKBKBKBKBKBKBJB-A>A&AkA2AcAQAMAVAOAKBIB,A{AKBKBKBKBKBKBKBKBKBHB#A{A=A>AKB?AKBJBKBKBKBKBKBKBKBKBKBKBKBKBKBKBKBDBKB|A_A@AvA(A+A.A%ADBBBKBKBKBKBKBKBKBKBKBKBKB?A.A3AGB=AGB<A#A3A9A4A2AlAoAPAQAcArAkA(A AKBKBKBKBKBKBKBKBKBKBKBKBKBKBKBKBEB)AxA-A$AvA@AyAxAqAuAXA",
":A5AxAtA5A4A'AABKB}A,A5AsAmANAXAmApA+A}AKBKBKBKBKBKBKBKBKBKBKBKBKBKBKBKBKBKBKB,A^AsATAVARAcAVAyAuA<AKBKBKBKBKBKBKBKBKBKBIB-A|A)A}A'A_A5A1A^AtAfAJAAAJAaAnA7A@AEBKBKBKBKBKBKBKBKBKBKBKBKBKBKBKBKBKBKBKB AIB>AyA_AyAXAVAVAeAKBKBKB/AKBKBKBKBKBKBKBKBKBKB-ACBIBKBKBKBKBKBKBKBKBKBKBKBKBKBKBKBKBKBKBKBKBKBKBKBKBAB&A<A|A'A@A A/AKBKBKBKBKBKBKBKBKB>AGB:A(AyA/A4A.A^AtAiAjAgAmAbAxATAqAuA*A%AKBKBKBKBKBKBKBKBKBKBKBKBKBKBKBKBKBKBKBHB{AKBGB}ACB_A^AwAuAUA",
"BB%A#A*AABABKBKBKBKBKB,A9A7AiA3A)A)AKBIBKBKBKBKBKBKBKBKBKBKBKBKBKBKBKBKBKBKBKBKBDB5AsAuAfAiAVArAcA-AHBKBKBKBKBKBKBKBKBFB|AyA2AzA0A6AtAgAaAnAWAJAAAJARAtAtA-A'AKBKBKBKBKBKBKBKBKBKBKBKBKBKBKBKBKBKBKBKBKBKBKB_AEB^AxAcATAWAKBKBHB,AKBKBKBKBKBKBKBKB A?A@A+A,A?AKBBBKBKBKBKBKBKBKBKBKBKBKBKBKBKBKBKBKBKBKBFB<A^AvA6A4A9A3A<A AKBKBKBKBKBKBKBKBKBKBKBEB}A7A'AuA!AtAcATAbAhAmANAgAPAfA5A_A8AHBKBKBKBKBKBKBKBKBKBKBKBKBKBKBKBKBKBKBDB*ACBBB$A A-A!AyAwAfA",
"KB<A'A?AKBKBKBKBKBKBKBAB$AxAvA-ADB/AKBKBKBKBKBKBKBKBKBKBKBKBKBKBKBKBKBKBKBKBKBKBKB:A^A!AnAjAQATARAtA^ADBKBKBKBKBKBKB-A#ArARAUASAiA1A1A1AkAgAJAAAJAfAoA*A(AKBKBKBKBKBKBKBKBKBKBKBKBKBKBKBKBKBKBKBKBKBKBKBKBKBJBKBFB_A1AdAfAKBKBKBKBKBKBKBKBKBKBKBKBKBKB>ACBGBHBKB>AKBIBKBKBKBKBKBKBKBKBKBKBKBKBKBKBKBKBKBDB<A^A8A)A{A,A|AKBKBKBKBKBKBKBKBKBKBKBKBKBKBHB>AJB7A}AyApAMAZAoA5AkA1AoAvA;ACB%AKBKBKBKBKBKBKBKBKBKBKBKBKBKBKBKBKBKBKBGB{AABFB(AJBAB,A+A+A7A",
"KBKBKBKBKBKBKBKBKBKBKBKB?A+A&ACBKBKBKBKBKBKBKBKBKBKBKBKBKBKBKBKBKBKBKBKBKBKBKBKBKBAB:A|A9A5AoAvAmA_ACBKBKBKBKBKBKBKBEB,A7AfAVAQAWAoAfAjAPAJAAAJAWAtAwA=A,AKBKBKBKBKBKBKBKBKBKBKBKBKBKBKBKBKBKBKBKBKBKBKBKBKBKBKBKB A^A1AsAKBKBKBGBKBKBKBKBKBKBKBKB>A A_A{A<A}AKB|AKBKBKBKBKBKBKBKBKBKBKBKBKBKBKBKBKBKBKBFB'A1AwAwA1A#A)AJBKBKBKBKBKBKBKBKBKBKBKBKBKBKB AGB7A8AoAiARAoAzA7AfArAoAvA:ADB_AKBKBKBKBKBKBKBKBKBKBKBKBKBKBKBKBKBKBKBKB?AIBJB(AKB A+A-A)A#A",
"KBKBKBKBKBKBKBKBKBKBKBKBKBHBDBKBKBKBKBKBKBKBKBKBKBKBKBKBKBKBKBKBKBKBKBKBKBKBKBKBKBGBJBHB,A}A#A^A5AABKBKBKBKBKBKBKBKBKBEB(AtAdASANAfAOAWAJAAAJAgAnA^A&AABKBKBKBKBKBKBKBKBKBKBKBKBKBKBKBKBKBKBKBKBKBKBKBKBKBKBKBKBKBKBDB|A$AKBKBKB/AKBCBKB;AKBKBKB;A$A)A8A#A+A!A/A$AKBDBKBKBKBKBKBKBKBKBKBKBKBKBKBKBKBKBKBAB=AoAnAiAjAvA7A/AJBKBKBKBKBKBKBKBKBKBKBKBKBKB'A/A5AsAjAcAdA4A9A5AlAnA0A4A/AKB,AKBKBKBKBKBKBKBKBKBKBKBKBKBKBKBKBKBKBKBKBKBKBKB(AKBCB(A_A*A)A",
"KBKBKBKBKBKBKBKBKBKBKBKBKBKB<AKBKBKBKBKBKBKBKBKBKBKBKBKBKBKBKBKBKBKBKBKBKBKBKBKBKB|A|A:A_A+A!A_A3AIBKBKBKBKBKBKBKBKBKBKB A8AxArAmAsARAJAAAJAPAkAaA1AuA@A>AKBEBKBKBKBKBKBKBKBKBKBKBKBKBKBKBKBKBKBKBKBKBKBKBKBJBKBKBDB{A(A2AKBJB_A6A;A)ABB+AKBFBBB&A0A0AkAnAzAtA{A#AJBDBKBKBKBKBKBKBKBKBKBKBKBKBKBKBKBKBKB}A!AgARAPAVAkAsA)A,AKBKBKBKBKBKBKBKBKBKBKBKBBB&A+AwAnAkAYAeA1A0AtATAMAYAdA3A*A#AGBKBKBKBKBKBKBKBKBKBKBKBKBKBKBKBKBKBKBKB>AAB,AxA|A8AoArAtAxA",
"KBKBKBKBKBKBKBKBKBKBKBKBKBKB?AKBKBKBKBKBKBKBKBKBKBKBKBKBKBKBKBKBKBKBKBKBKBKBKBKBKB(A|A}A=A|A-ACB;AKBKBKBKBKBKBKBKBKBKBKBKB,A-A8AlAeAJAAAJAWAjA1AgA5A8A=AKBKBKBKBKBKBKBKBKBKBKBKBKBKBKBKBKBKBKBKBKBKBKBKBKBKBKBKBKBIB?A,A+AKBKBFB)AHB'AJB/AKBDB,A!ApAwApAzA-A4AKBCBKBKBKBKBKBKBKBKBKBKBKBKBKBKBKBKBKBKBKBKBCB5AsAgARARAcA3A&A?AKBKBKBKBKBKBKBKBKBKBJB+A0A4AcAOAWAQAcA1AtAhATAPAmA3A(ACBCBKBKBKBKBKBKBKBKBKBKBKBKBKBKBKBKBKBKBKBKBKBKBKB}AKB<A7A1AsAuA",
"KBKBKBKBKBKBKBKBKBKBKBKBKBKBKBKBKBKBKBKBKBKBKBKBKBKBKBKBKBKBKBKBKBKBKBKBKBKBKBKBKBDBKBHB/A<A;A A,AKBKBKBKBKBKBKBKBKBKBKBFB*A6AnANAJAAAJARAOAfA1AtA_A;AJBKBKBKBKBKBKBKBKBKBKBKBKBKBKBKBKBKBKBKBKBKBKBKBKBKBKBKBKBKBKBKBGB>AKBKBKBBBKB AHB;AKB,A$A4AfA0A6A%A>A@AKBCBKBKBKBKBKBKBKBKBKBKBKBKBKBKBKBKBKBKBKBKBIB5A0AoAhANAtA!A.AGBKBKBKBKBKBKBKBKBKBKBKB,A(A$ApAQAQAVAbA3A4AxApApA9A)AFBKBKBKBKBKBKBKBKBKBKBKBKBKBKBKBKBKBKBKBKBKBKBKBKBKBBBKBKB|A|A&A-A",
"KBKBKBKBKBKBKBKBKBKBKBKBKBJBKBKBKBKBKBKBKBKBKBKBKBKBKBKBKBKBKBKBKBKBKBKBKBKBKBKBKBKBKBKB>A+A{A,A?AKBKBKBKBKBKBKBKBKBKBKB,A@A1AcAJAAAJAeAsAfAoA1A6A'AIBKBKBKBKBKBKBKBKBKBKBKBKBKBKBKBKBKBKBKBKBKBKBKBKBKBKBKBKBKBKBKBKBKBKBKBKBKBKBKBKBKBKBKBKBKBEB_A>A.AEBKBDBKBKBKBKBKBKBKBKBKBKBKBKBKBKBKBKBKBKBKBKBKBKBKB,A;A^A7AsA@A AKBKBKBKBKBKBKBKBKBKBKBKBKB A,A+AtAcAQAiAfAuA2A9A6A@A'AGBKBKBKBKBKBKBKBKBKBKBKBKBKBKBKBKBKBKBKBKBKBKBKBKBKBKBKBKBKBKBKBAB A",
"KBKBKBKBKBKBKBKBKBKBKBKBKBFBJBKBKBKBKBKBKBKBKBKBKBKBKBKBKBKBKBKBKBKBKBKBKBKBKBKBKBKBKBKB>A}A%A&A$A AKBKBKBKBKBKBKBKBIBDB%ArAdAJAAAJANAlAmANAWAiA0A}A?AKBKBKBKBKBKBKBKBKBKBKBKBKBKBKBKBKBKBKBKBKBKBKBKBKBKBKBKBKBKBKBKB?A:AKBKBKBKBKBKBKBGBKBKBKBFB,AEB/ACBKB.AKB>AKBKBKBKBKBKBKBKBKBKBKBKBKBKBKBKBKBKBKBKBKB@A%A5A7A7A=AKBKBKBKBKBKBKBKBKBKBKBKBKBKBKBDBCB3AvAcAkAdAzA7A$A2A9A=A,AKBKBKBKBKBKBKBKBKBKBKBKBKBKBKBKBKBKBKBKBKBKBKBKBKBKBJBKBKBKBJBCB A",
"KBKBKBKBKBKBKBKBKBKBKBKBDB)A.AKBKBKBKBKBKBKBKBKBKBKBKBKBKBKBKBKBKBKBKBKBKBKBKBKBKBKBKBKB+A!AsArAuA!A:AKBKBKBKBKBKBKB_A(AqASAJAAAJAcAnA8ArASAQASAzA)A'AKBKBKBKBKBKBKBKBKBKBKBKBKBKBKBKBKBKBKBKBKBKBKBKBKBKBKBKBKBKBKBGB)A)AKBKBKBKBKBKBKBKBKBKBKBKBKBKBKBKBKBKBKBABKBKBKBKBKBKBKBKBKBKBKBKBKBKBKBKBKBKBKBKBKB_A_A_A}A.AGBKBKBKBKBKBKBKBKBKBKBKBKBKBKBKBKBKB&A-AoAzAbAtA9A|A8A_A+A'AKBKBKBKBKBKBKBKBKBKBKBKBKBKBKBKBKBKBKBKBKBKBKBKBKBKBHBKBKBKBKBKBFB",
"KBKBKBKBKBKBKBKBKBKBKBKBKB,ACBKBKBKBKBKBKBKBKBKBKBKBKBKBKBKBKBKBKBKBKBKBKBKBKBKBKBKBKBKB/A{A1AvAjA0A!A>AABKBKBKBKB_A6AsAYAJAAAJAdA1A6A-AxAdAVAUA2A|A'AKBKBKBKBKBKBKBKBKBKBKBKBKBKBKBKBKBKBKBKBKBKBKBKBKBKBKBKBKBKBKBGB(A#AKBKBKBKBKBKBKBKBKBKBKBKBKBKBKBKBKBKBKB(AGB:AGBJBKBGB*AKB:AKBKBKBKBKBKBKBKBHBKBEBBB(A+A|A/AKBKBKBKBKBKBKBKBKBKBKBKBKBKBKBKBKBKBKB AAB$A^AsA#A;AEB*A:A|A:AKBKBBBKBKBKBKBKBKBKBKBKBKBKBKBKBKBKBKBKBKBKBKBJBKBKBBBKBKBKBKBKBKB",
"KBKBKBKBKBKBKBKBKBKBKBKB;AtA=AKBKBKBKBKBKBKBKBKBKBKBKBKBKBKBKBKBKBKBKBKBKBKBKBKBKBKBKBIB-AyAfAQAOAWAlA@A+AKBKBKBDB&ApAeAJAAAJASArA@A*A,A8AtAfARAyA-A=AKBHBKBKBKBKBKBKBKBKBKBKBKBKBKBKBKBKBKBKBKBKBKBKBKBKBKBKBKBKBKB,A1A3AKBKBKBKBKBKBKBKBKBKBKBKBKBKBKBKBKBKBKB AKBDBKBKBKBKB>AKB.AKBKBKBKBKBKBKBKBKBKBKBKB<A?AEBKBKBKBKBKBKBKBKBKBKBKBKBKBKBKBKBKBKBKBKB AJB8A)AoAzA_AFB_A/A|A:AKBKB>AKBKBKBKBKBKBKBKBKBKBKBKBKBKBKBKBKBKBKBKBCBIBKBEBKBKBKBKBKBKB",
"KBKBKBKBKBKBKBKBKBKBKBKBKB#AFBKBKBKBKBKBKBKBKBKBKBKBKBKBKBKBKBKBKBKBKBKBKBKBKBKBKBKBKBKBHB_A1AeAUAQAYAuA1A:ABB;A^ArASAJAAAJAYAqA%A,AFBKB A(A7ArA|AIBKBKBKBKBKBKBKBKBKBKBKBKBKBKBKBKBKBKBKBKBKBKBKBKBKBKBKBKBKBKBKBKBKB=A;AKBKBKBKBKBKBKBKBKBKBKBKBKBKBKBKBKBKBKBKBKBKBKBKBKBKB?AKB,AKBKBKBKBKBKBKBKBKBKBKBKBKBKBKBKBKBKBKBKBKBKBKBKBKBKBKBKBKBKBKBKBKBKBKBKBKB.AKB*A;AKBKBKBKBKBKBKBKBKBKBKBKBKBKBKBKBKBKBKBKBKBKBKBKBKBKBKBKBKBKBKBKBKBKBKBKBKBKBKB",
"KBKBKBKBKBKBKBKBKBKBKBKBKB:AKBKBKBKBKBKBKBKBKBKBKBKBKBKBKBKBKBKBKBKBKBKBKBKBKBKBKBKBKBKBKBGB=AwAbARANAWAYAzA6AxAsATAJAAAJAeAsA(ADBKBKBKBKBEB,A#AFBKBKBKBKBKBKBKBKBKBKBKBKBKBKBKBKBKBKBKBKBKBKBKBKBKBKBKBKBKBKBKBKBKBKB.A.AKBKBKBKBKBKBKBKBKBKBKBKBKBKBKBKBKBKBKBKBKBCBKB/AKBKB)AKB4AKB+ACBKBKBKBKBKBHBKBKBKBKBKBKBKBKBKBKBKBKBKBKBKBKBKBKBKBKBKBKBKBKBKBKBKBKBKBKBGBKBKBKBKBKBKBKBKBKBKBKBKBKBKBKBKBKBKBKBKBKBKBKBKBKBKBKBKBDBKBKBEBKBKBKBKBKBKBKBKB",
"KBKBKBKBKBKBKBKBKBKBKBKBKB|AKBKBKBKBKBKBKBKBKBKBKBKBKBKBKBKBKBKBKBKBKBKBKBKBKBKBKBKBKBKBKBDB|A0AwAUATARAZAvA6ArAaAJAAAJASApA6A_AIBKBKBKBKBKBEB-AKBKBKBKBKBKBKBKBKBKBKBKBKBKBKBKBKBKBKBKBKBKBKBKBKBKBKBKBKBKBKBKBKBKBKBKBKBKBKBKBKBKBKBKBKBKBKBKBKBKBKBKBKBKBKBKBKBKBKBKBKBKBKBKBKB?AKBKBKBKBKBKBKBKBKBKBKBKBKBKBKBKBKBKBKBKBKBKBKBKBKBKBKBKBKBKBKBKBKBKBKBKBKBKBKBJBKBKBKBKBKBKBKBKBKBKBKBKBKBKBKBKBKBKBKBKBKBKBKBKBKBKBKBKBKBKBKBKBKBKBKBKBKBKBKBKB",
"KBKBKBKBKBKBKBKBKBKBKBKBKBKBKBKBKBKBKBKBKBKBKBKBKBKBKBKBKBKBKBKBKBKBKBKBKBKBKBKBKBKBKBKBKBKBKB A%AzAaARANAaAjATAJAAAJATArA&A_AKBKBKBKBKBKBKBKBKBKBKBKBKBKBKBKBKBKBKBKBKBKBKBKBKBKBKBKBKBKBKBKBKBKBKBKBKBKBKBKBKBKBKBKBKBKBKBKBKBKBKBKBKBKBKBKBKBKBKBKBKBKBKBKBKBKBKBKBKBKBKBKB AKB=AKBBBKBKBKBKBKBKBKBKBKBKBKBKBKBKBKBKBKBKBKBKBKBKBKBKBKBKBKBKBKBKBKBKBKBKBKBKBKBKBKBKBKBKBKBKBKBKBKBKBKBKBKBKBKBKBKBKBKBKBKBKBKBKBKBKBKBKBKBKBKBKBKBKBKBKBKBKBKBKB",
"KBKBKBKBKBKBKBKBKBKBKBKBKBKBKBKBKBKBKBKBKBKBKBKBKBKBKBKBKBKBKBKBKBKBKBKBKBKBKBKBKBKBKBKBKBKBKBKBBB%AyASAQARAYAJAAAJAaAsA^ADBKBKBKBKBKBKBKBKBKBKBKBKBKBKBKBKBKBKBKBKBKBKBKBKBKBKBKBKBKBKBKBKBKBKBKBKBKBKBKBKBKBKBKBKBKBKBKBKBKBKBKBKBKBKBKBKBKBKBKBKBKBKBKBKBKBKBKBKBKBKBKBKBKBKBKBKBKBKBKBKBKBKBKBKBKBKBKBKBKBKBKBKBKBKBKBKBKBKBKBKBKBKBKBKBKBKBKBKBKBKBKBKBKBKBKBKBKBKBKBKBKBKBKBKBKBKBKBKBKBKBKBKBKBKBKBKBKBKBKBKBKBKBKBKBKBKBKBKBKBKBKBKBKBKBKBKB",
"KBKBKBKBKBKBKBKBKBKBKBKBKBKBKBKBKBKBKBKBKBKBKBKBKBKBKBKBKBKBKBKBKBKBKBKBKBKBKBKBKBKBKBKBKBKBKBKBIB.AxAoAOAWAJAAAJATArAxA;AKBKBKBKBKBKBKBKBKBKBKBKBKBKBKBKBKBKBKBKBKBKBKBKBKBKBKBKBKBKBKBKBKBKBKBKBKBKBKBKBKBKBKBKBKBKBKBKBKBKBKBKBKBKBKBKBKBKBKBKBKBKBKBKBKBKBKBKBKBKBKBKBKBKBFBKB;AKB<AKBKBKBKBKBKBKBKBKBKBKBKBKBKBKBKBKBKBKBKBKBKBKBKBKBKBKBKBKBKBKBKBKBKBKBKBKBKBKBKBKBKBKBKBKBKBKBKBKBKBKBKBKBKBKBKBKBKBKBKBKBKBKBKBKBKBKBKBKBKBKBKBKBKBKBKBKBKB",
"KBKBKBKBKBKBKBKBKBKBKBKBKBKBKBKBKBKBKBKBKBKBKBKBKBKBKBKBKBKBKBKBKBKBKBKBKBKBKBKBKBKBKBKBKBKBKBKBKB/AtAoARAJAAAJAYAjA6A6ABBKBKBKBKBKBKBKBKBKBKBKBKBKBKBKBKBKBKBKBKBKBKBKBKBKBKBKBKBKBKBKBKBKBKBKBKBKBKBKBKBKBKBKBKBKBKBKBKBKBKBKBKBKBKBKBKBKBKBKBKBKBKBKBKBKBKBKBKBKBKBKBKBKBKBKBKBABKB AKBKBKBKBKBKBKBKBKBKBKBKBKBKBKBKBKBKBKBKBKBKBKBKBKBKBKBKBKBKBKBKBKBKBKBKBKBKBKBKBKBKBKBKBKBKBKBKBKBKBKBKBKBKBKBKBBBHBKBKBKBKBKBKBKBKBKBKBKBKBKBKBKBKBKBKBKBKB",
"KBKBKBKBKBKBKBKBKBKBKBKBKBKBKBKBKBKBKBKBKBKBKBKBKBKBKBKBKBKBKBKBKBKBKBKBKBKBKBKBKBKBKBKBKBKBKBKBBB_AiAYAJAAAJAWARAaAvAzA:AKBKBKBKBKBKBKBKBKBKBKBKBKBKBKBKBKBKBKBKBKBKBKBKBKBKBKBKBKBKBKBKBKBKBKBKBKBKBKBKBKBKBKBKBKBKBKBKBKBKBKBKBKBKBKBKBKBKBKBKBKBKBKBKBKBKBKBKBKBKBKBKBKBKBKBKBKBKBKBKBKBKBKBKBKBKBKBKBKBKBKBKBKBKBKBKBKBKBKBKBKBKBKBKBKBKBKBKBKBKBKBKBKBKBKBKBKBKBKBKBKBKBKBKBKBKBKBKBKBKBKBKBKBKBKBKBKBKBKBKBKBKBKBKBKBKBKBKBKBKBKBKBKBKBKBKBKB",
"KBKBKBKBKBKBKBKBKBKBKBKBKBKBKBKBKBKBKBKBKBKBKBKBKBKBKBKBKBKBKBKBKBKBKBKBKBKBKBKBKBKBKBKBKBKBKB A%AzATAJAAAJARAOAQANAZAYA1A+AABKBKBKBKBKBKBKBKBKBKBKBKBKBKBKBKBKBKBKBKBKBKBKBKBKBKBKBKBKBKBKBKBKBKBKBKBKBKBKBKBKBKBKBKBKBKBKBKBKBKBKBKBKBKBKBKBKBKBKBKBKBKBKBKBKBKBKBKBKBKBKBKB/AJB%AKB_AHBKBKBKBKBKBKBKBKBKBKBKBKBKBKBKBKBKBKBKBKBKBKBKBKBKBKBKBKBKBKBKBKBKBKBKBKBKBKBKBKBKBKBKBKBKBKBKBKBKBKBKBKBKBKBKBCBKBKBKBKBKBKBKBKBKBKBKBKBKBKBKBKBKBKBKBKBKB",
"KBKBKBKBKBKBKBKBKBKBKBKBKBABKBKBKBKBKBKBKBKBKBKBKBKBKBKBKBKBKBKBKBKBKBKBKBKBKBKBKBKBKBKBKBKBFB&AzAfAJAAAJAYAoAoASARARAWAuA@A>AKBKBKBKBKBKBKBKBDBKBKBKBKBKBKBKBKBKBKBKBKBKBKBKBKBKBKBKBKBKBKBKBKBKBKBKBKBKBKBKBKBKBKBKBIBKBKBKBKBKBKBKBKBKBKBKBKBKBKBKBKBKBKBKBKBKBKBKBKBKBKBKBKBKBHBKBKBKBKBKBKBKBKBKBKBKBKBKBKBKBKBKBKBKBKBKBKBKBKBKBKBKBKBKBKBKBKBKBKBKBKBKBKBKBKBKBKBKBKBKBKBKBKBKBKBKBKBKBKBKBKBKBKBKBKBKBKBKBKBKBKBKBKBKBKBKBKBKBKBKBKBKBKBKBKB",
"KBEBKBKBKBKBKBKBKBKBKBKBKB-AKBKBKBKBKBKBKBKBKBKBKBKBKBKBKBKBKBKBKBKBKBKBKBKBKBKBKBKBKBKBKBCB)AuAbAJAAAJATAiAtAxAyAaATANAYAlA!A:AKBKBKBKBKBKBCB^AHBKBKBKBKBKBKBKBKBKBKBKBKBKBKBKBKBKBKBKBKBKBKBKBKBKBKBKBKBKBKBKBKBKBKB{A'AKBKBKBKBKBKBKBKBKBKBKBKBKBKBKBKBKBKBKBKBKBKBKBKBKBKBFBKB_AKB:AKBKBKBKBKBKBKBKBKBKBKBKBKBKBKBKBKBKBKBKBKBKBKBKBKBKBKBKBKBKBKBKBKBKBKBKBKBJBKBKBKBKBKBKBKBKBKBKBKBKBKBKBKBKBHBKBABKBKBKBKBKBKBKBKBKBBBGBKBKBKBKBKBKBKBKBKBKB",
"KBBBDBDBKBKBKBKBKBKBKBGB>AqA_AKBKBKBKBKBKBKBKBKBKBKBKBKBKBKBKBKBKBKBKBKBKBKBKBKBKBKBKBKB>A@AsATAJAAAJAfAzA_A/A.A%AzAUARAQAWA0A!A AKBKBKBIBAB_AtA-A<A/AKBEBKBKBKBKBKBKBKBKBKBKBKBKBKBKBKBKBKBKBKBKBKBKBKBKBKBKBKBKBKB:A1A^AKBKBKBKBKBKBKBKBKBKBKBKBKBKBKBKBKBKBKBKBKBKBKBKBKBKBKBKBFBKBKBKBKBKBKBKBKBKBKBKBKBKBKBKBKBKBKBKBKBKBKBKBKBKBKBKBKBKBKBKBKBKBKBKBKBKBJBKB=A<AKBKBKBKBKBKBKBKBKBKBKBKBKBKBKBKBKBKBKBKBKBKBKBKBKBKBKBKBKBHBKBKBKBKBKBKBKBKBKB",
"}A4A#A{AKBKBKBKBKBKBKBJB,AvA2A|AEBKBKBKBKBKBKBKBKBKBKBKBKBKBKBKBKBKBKBKBKBKBKBKBKBKB{A,A#A2AbAJAAAJAbAzA%ABBKBIBBB%AwAbAUAOAjAuA$A?A,A;A3A5AmARAcAuAmA*AyA.AKBKBKBKBKBKBKBKBKBKBKBKBKBKBKBKBKBKBKBKBKBKBKBKBIBKB;A%AqASASAKBKBKBKBKBKBKBKBKBKBKBKBKBKBKBKBKBKBKB.AKB?AKBHBKBKBABKB;AKBKBKBKBKBKBKBKB/AKB>A<A_A)A/AHBKBKBKBKBKBKBKBKBKBKBKBKBKBKBKBKBKBKBKBHBKB<A{AxA@A}A A!A*A2AxA;A>A1A ADBKBKBKBKBKBKBKBKBKBKBKBKBKBKBKBKB}A%A2A-A,A&ADBBB?A AEB+A",
"AB=A*A(AIBBBKBKBKBKB?A$AvAMApA^AAB.AKBKBKBKBKBKBKBKBKBKBKBKBKBKBKBKBKBKBKBKBKBKBKBKB|A(AwAWAJAAAJATAuA&A AKBKBKBKB A0AwAeAQAvArA&A,A ACB_A^AvATArAyA7A?A)AKBKBKBKBKBKBKBKBKBKBKBKBKBKBKBKBKBKBKBKBKBKBKBKBKBKBKBCB-A1AaAvAKBKBKBKBKBKBKBKBKBKBKBKBKBKBKBKBKBKBKBKBKBKBKBKBKBKBKBKBKBKBKBKBKBKBKBKBKBKBKBKBKBKBKBKBKBKBKBKBKBKBKBKBKBKBKBKBKBKBKBKBKBKBKBKBCBKB*A{ArAwA&A A=ADB_A;AKBKB>AKBKBKBKBKBKBKBKBKBKBKBKBKBKBKBKBKBKBKBFB.AKBKBKBKBKBKBKBKB?A",
"<A!A2A6A;A}AKBKBKBHB.A!AnAaATAuA%A^AKBKBKBKBKBKBKBKBKBKBKBKBKBKBKBKBKBKBKBKBKBKBKB}AyAwAbAJAAAJAbAsA)AFBKBKBKBKBKBKB|A=A1AfA1AsA%A{A;A-A!A#AoAQAVAVAgA8AzA:AGBKBKBKBKBKBKBKBKBKBKBKBKBKBKBKBKBKBKBKBKBKBKBKB:AHB)AxAfANAgAKBKBKBKBKBKBKBKBKBKBKBKBKBKBKBKBKBKBKBKBKBKBKBKBKBKBKBKBKBKBKBKBKBKBKBKBKBKBKBKBKBFB,AFBGBKBCBKBKBKBKBKBKBKBKBKBKBKBKBKBKBKB AKB)AHB!A4AeAfAuA#AzA(AxA8A'AHB}AKBKBKBKBKBKBKBKBKBKBKBKBKBKBKBKBKBKBKBIB:AKBKBABKBKBHB>A>A8A",
"DB+A9A2A{A6A.AGBFB(A4AmANAQAQAlA@AsADBKBKBKBKBKBKBKBKBKBKBKBKBKBKBKBKBKBKBKBKBKBKB%A2AgAJAAAJAWA2A@ACBKBKBKBKBKBKBKBDBGB_AyA{A!A}A+A<A|A+A}A5AjAiAcAzA{A*AGBKBKBKBKBKBKBKBKBKBKBKBKBKBKBKBKBKBKBKBKBKBKBKBKBABKB'A5AuAcA4AKBKBKBKBKBKBKBKBKBKBKBKBKBKBKBKBKBKBKBKBKBKBKBKBKBKBKBKBKBKBKBKBKBKBKBKBKBKBKBKBKBKBKBKBKBKBDBKBKBKBKBKBKBKBKBKBKBKBHBKBKB/A.AJB@ADB1A0AkAVAlA4A2A;A@A:AKBKBKBKBKBKBKBKBKBKBKBKBKBKBKBKBKBKBKBKBKBKBKBKBKBKBKBKBKBKBHBCB#A",
"KB:A%AyA#AuA-A'A.A8A2AhAUASAPAXAwAdA+A{AKBKBKBKBKBKBKBKBKBKBKBKBKBKBKBKBKBKBKBHB{AnAfAJAAAJAbAwA#A>AKBKBKBKBKBKBKBKBKBKBHB-A/A+A>A>A/A=A_A,A9AnAfARAtA!A*A AGBKBKBKBKBKBKBKBKBKBKBKBKBKBKBKBKBKBKBKBKBKBKBKB(AFB=AuAyAqA6AKBKBKBKBKBKBKBKBKBKBKBKBKBKBKBKBKBKBKBKBKBKBKBKBKBKBKBKBKBKBKBKBKBKBKBKBKBKBKBKBKBKBGBKBHBGB}AIBBBHBKBKBKBKBKBKBKBKB=A<A}A!A8A'A6ACB^AzApAeAhAnAuA)A0A=A<AKBKBKBKBKBKBKBKBKBKBKBKBKBKBKBKBKBKBKBKBKBKBKBKBKBKBKBKBKB'A(AqA",
"BB)A8AsAwAnA5A7A(AzA3AmAjAYAQANAZAQA1AzA;A/AKBKBKBKBKBKBKBKBKBKBKBKBKBKBKBKB/A)A0AQAJAAAJAgAwA(A,AKBKBKBKBKBKBKBKBKBKBKBKBIBKBKBKBKBHB}A:AHB|A!AuAVArAwA6A(A=AIBKBKBKBKBKBKBKBKBKBKBKBKBKBKBKBKBKBKBKBKBGB<AuA)A2AcAuA2A*AKBKBKBKBKBKBKBKBKBKBKBKBKBKBEBKBKBKBKBKBKBKBKBKBKBKBKBKBKBKBKBKBKBKBKBKBKBKBKBKBKBKBIBKBGBEB-AAB-A:A<AFB>AKBKBKBKBIByA9A1AvAuA(A7ABB|A6A5AvAkAiAsA&AxA+A)AJBKBKBKBKBKBKBKBKBKBKBKBKBKBKBKBKBKBKBKBKBKBKBKBKBKBKBKBIB-A8AiA",
";A5A0ArAtAtA^A*A/A&A'A!A!AyAdASARAWAxAoA*A%AGBKBKBKB/AKBKBKBKBKBKBKBKBKBKB+A(AwAfAJAAAJAfA2AyA|A{AKBKBKBKBKBKBKBKBKBKBKBKBKBKBKBKBKBKB|A|AJB:A^AsATAYATAgApAsA&AFBGBKBKBKBKBKBKBKBKBKBKBKBKBKBKBKBKBGB(A*A5AUAvAdANAfAwA3AKBKBKBBBKBKBKBKBKBKBKBKBKBKB:AKBKBKBKBKBKBKBKBKBKBKBKBKBKBKBKBKBKBKBKBKBKBKBKBKBKBKB<AKBDBDB^A.A^A,A.AKB'AKBKBKBKBKB5A(AzAzAmA_A$AGBAB%A%A@AtAkAqA@AlA1AuA*A=AKBKBKBKBKBKBKBKBKBKBKBKBKBKBKBKBKBKBKBKB AKBKBABIB;A+A2AsASA",
"EB{A%AwAtArA8A2A_A@A{A$A*A9A0AaARAMAcAPArArA(A>AKB A!AKBDBKBKBKBKBKBIBKB.A7AuAeAJAAAJAQAnA%A}AKBKBKBKBKBKBKBKBKBKBKBKBKBKBKBKBKBKBKBDB(A|AGBAB:A5AsAyAlA4A6AuA&AAB;AKBKBKBKBKBKBKBKBKBKBKBKBKBKBKBJBAB$A5AuAYAxAwAaA3A+A,AKBKBKB<AKBKBKBKBKBKBKBKBKBBB)AGBKBKBKBKBKBKBKBKBKBKBKBKBKBKBKBKBKBKBKBKBKBKBKBKBKBKBABJB;A-AtA7AmA2A4A=A3AABKBKB}A'AjAvAaAZAQAuAxA+A{A7A^A!ApAUAhA5AzA_A4A>AIBKBKBKBKBKBKBKBKBKBKBKBKBKBKBKBKBKBKBKBKBKBKBKBKBKB|A;A3AhANA",
"BB;A(A3ArAvA7A2A}A{AJB>AKB<A-AwAQARARANAbAfA6A*ACB<A%AKB AKBKBFBKBKB)A:A8AhASAJAAAJAfA0A{AKBKBKBKBKBKBKBKBKBKBKBKBKBKBKBKBKBKBKBKBKBKBKBKBKBKBKBDB^A@ArA7AuApArA!A1A,A AKBKBKBKBKBKBKBKBKBKBKBKBEB'A|A3ApARAPAbAnAlA^ACBGBKBKBKBKBKBKBKBKBKBKBKBKBKBKBKBKBKBKBKBKBKBKBKBKBKBKBKBKBKBKBKBKBKBKBKBKBKBKBKBKBKBKBKBKBKBKBBBKB#A?A=AAB5A/AKBJB(A?A2A+AxA&A1AGBKBKBKBKBKBKBDB=A;ADB=A<A#A AKBKBKBKBKBKBKBKBKBKBKBKBKBKBKBKBKBKBKBKBKBKBKBKBKBKB>ADB{A6AzA",
"KBDB?A|A%A_A<A(AHBKBKBKBKBKBCB(AiAnAlAPATAQAsAsA+A(AwACB@AKBGB(AIB;A0A@AtAQAJAAAJAeAwA)AHBKBKBKBKBKBKBKBKBKBKBKBKBKBKBKBKBKBKBKBKBKBKBKBKBKBKBKBKB,A-AwA&AyAoAsA2AlA*A@AABFBKBKBKBKBKBKBKBKBKBEB<A#A@AsAWAQANAlAxAzA;AKBKBKBKBKBKBKBKBKBKBKBKBKBKBKBKBKBKBKBKBKBKBKBKBKBKBKBKBKBKBKBKBKBKBKBKBKBKBKBKBKBKBKBKBKBKBKBKBKBKB9A A#A,AyA|AKBDB$A/A7A|AwA+A$AKBKBKBKBKBKBKBKBCBHBKB/AAB*A/AKBKBKBKBKBKBKBKBKBKBKBKBKBKBKBKBKBKBKBKBKBKBKBKBKBKB<AGB,A*A%A",
"KBKBKB<A7A4A2AnA%A{AKBKBKBKBKB:AnApAUASAOAXAwA2A+A=A&AKB<AKBKB=A?A(AqA3AfAJAAAJASAuA(A/AKBKBKBKBKBKBKBKBKBKBKBKBKBKBKBKBKBKBKBKBKBKBKBKBKBKBKBKBKBKBHB_AAB&A7AyA4AmA%A*A/AKBKBKBKBKBKBKBKBKBKBHB>A=A}A!AnATAiAwA#A)AKBKBKBKBKBKBKBKBKBKBKBKBKBKBKBKBKBKBKBKBKBKBKBKBKBKBKBKBKBKBKBKBKBKBKBKBKBKBKBKBKBKBKBKBKBKBKBKBKBKBKB.AKB{A A3A_A?A)AwA=A8A>A#ADBBBKBKBKBKBKBKBKBKBKBKBKBKBKBFBKBKBKBKBKBKBKBKBKBKBKBKBKBKBKBKBKBKBKBKBKBKBKBKBKBKBKBKBKBKBGBCB",
"KBKBKBKBCBDBHB{AKBKBKBKBKBKBKBKB7A@AxAcARAMAZARAxA3AkA-AqA)A*AoA!AsASAfAJAAAJAQAhA7A+AKBKBKBKBKBKBKBKBKBKBKBKBKBKBKBKBKBKBKBKBKBKBKBKBKBKBKBKBKBKBKBJB-AFB)AxAqAtAUAvAkA6A%A?AKBKBKBKBKBKBBB/A=A&AuAzAoAPAPAkA5A_A<AKBKBKBKBKBKBKBKBKBKBKBKBKBKBKBKBKBKBKBKBKBKBKBKBKBKBKBKBKBKBKBKBKBKBKBKBKBKBKBKBKBKBKBKBKBKBKBKBKBKBKB&AKB$A<AwA^A,A+A3A,A^ABB@AFB}AKBKBKBKBKBKBKBKBKBKBKBKBKB|AABKBKBKBKBKBKBKBKBKBKBKBKBKBKBKBKBKBKBKBKBKBKBKBKBKBKB:AJB?A:A<A",
"KBKBKBKBKBKBKB}AKBKBKBKBKBKBKBKBAB/A%AzASAQAMAWATAdAuA1A2AyA*AoAtAkASAJAAAJAfAtA8A.AKBKBKBKBKBKBKBKBKBKBKBKBKBKBKBKBKBKBKBKBKBKBKBKBKBKBKBKBKBKBKBKBKBKBKBKBKB/A;AtA8AyA8A(A<AKBKBKBKBKBFBEBCBABCB{AJBCB3A4A|AGBKBKBKBKBKBKBKBKBKBKBKBKBKBKBKBKBKBKBKBKBKBKBKBKBKBKBKBKBKBKBKBKBKBKBKBKBKBKBKBKBKBKBKBKBKBKBKBKBKBKBKBKBKB.AKB5A^AoAjApAkAZA8A%AAB-AKBKBKBKBKBKBKBKBKBKBKBKBKBKBKBKBKBKBKBKBKBKBKBKBKBKBKBKBKBKBKBKBKBKBKBKBKBKBKBKBKBKBKBKBKBKBKBKB",
"KBKBKBKBKBKBKBKBKBKBKBKBKBKBKBKBKBKBCB_ArAfAUAOAXAlAtAxAfANAeANASAVAJAAAJAfA3A@A:AKBKBKBKBKBKBKBKBKBKBKBKBKBKBKBKBKBKBKBKBKBKBKBKBKBKBKBKBKBKBKBKBKBKBKBKBKBKBKB AxA2ArAqArApA_A}A|AAB'A$A_A}A:A/A_AKBKB!A+AIBKBKBKBKBKBKBKBKBKBKBKBKBKBKBKBKBKBKBKBKBKBKBKBKBKBKBKBKBKBKBKBKBKBKBKBKBKBKBKBKBKBKBKBKBKBKBKBKBKBKBKBKBKBKB AKB$A<A1A!A=A*A5A AABKB>AKBKBKBKBKBKBKBKBKBKBKBKBKBKBKBKBKBKBKBKBKBKBKBKBKBKBKBKBKBKBKBKBKBKBKBKBKBKBKBKBKBKBKBKBKBKBKBKB",
"KBKBKBKBKBKBKBKBKBKBKBKBKBKBKBKBBBKBAB(AwAoApARAuA9A6A)AvAzA1ATAdAJAAAJASASAqA0A)AIBKBKBKBKBKBKBKBKBKBKBKBKBKBKBKBKBKBKBKBKBKBKBKBKBKBKBKBKBKBKBKBKBKBKBKBKBAB^A3ASATARAbArA9A>AJBKBKBFB^A9A3AwA0ArA=A{AoAuA+A?AKBKBKBKBKBKBKBKBKBKBKBKBKBKBKBKBKBKBKBKBKBKBKBKBKBKBKBKBKBKBKBKBKBKBKBKBKBKBKBKBKBKBKBKBKBKBKBKBKBKBKBKBKBKBKB/AKB-A?AKBDB+AKBKBKBHBKBKBKBKBKBKBKBKBKBKBKBKBKBKBKBKBKBKBKBKBKBKBKBKBKBKBKBKBKBKBKBKBKBKBKBKBKBKBKBKBKBKBKBKBKBKBKBKB",
"KBKBKBKBKBKBKBKBKBKBKBKBKBKBKBKBKBKBKBIB+A@A!AhA!A|A{A'A0AwAmATAJAAAJAVAkAsA(A;AKBKBKBKBKBKBKBKBKBKBKBKBKBKBKBKBKBKBKBKBKBKBKBKBKBKBKBKBKBKBKBKBKBKBKBKBKBKBKB A-AlAdARANAbApA%A}A?A>A)AsAtAsAuA5AxA.AFB3A_AKBKBKBKBKBKBKBKBKBKBKBKBKBKBKBKBKBKBKBKBKBKBKBKBKBKBKBKBKBKBKBKBKBKBKBKBKBKBKBKBKBKBKBKBKBKBKBKBKBKBKBKBKBKBKBKBKBKBKBFBKBKBKBDBKBKBKBKBKBKBKBKBKBKBKBKBKBKBKBKBKBKBKBKBKBKBKBKBKBKBKBKBKBKBKBKBKBKBKBKBKBKBKBKBKBKBKBKBKBKBKBKBKBKBKBKB",
"KBKBKBKBKBKBKBKBKBKBKBKBKBKBKBKBKBKBKBKB/A=A&AoA7A}A_A&AoAfAUAJAAAJAdASAtA!A?AIBKBKBKBKBKBKBKBKBKBKBKBKBKBKBKBKBKBKBKBKBKBKBKBKBKBKBKBKBKBKBKBKBKBKBKBKBKBKBKBKBJB9A3AiAOAOASAnAuAxAuAnAQAfApA4A}A9AKBKB*AHBKBKBKBKBKBKBKBKBKBKBKBKBKBKBKBKBKBKBKBKBKBKBKBKBKBKBKBKBKBKBKBKBKBKBKBKBKBKBKBKBKBKBKBKBKBKBKBKBKBKBKBKBKBKBKBKBKBKBKBKBKBKBKBHBKBKBKBKBKBKBKBKBKBKBKBKBKBKBKBKBKBKBKBKBKBKBKBKBKBKBKBKBKBKBKBKBKBKBKBKBKBKBKBKBKBKBKBKBKBKBKBKBKBKBKBKB",
"KBKBKBKBKBKBKBKBKBKBKBKBKBKBKBKBKBKBKBBB)AsAsAQAoA2AkApAOASAJAAAJATATANAoAoA=A(AFBKBKBKBKBKBKBKBKBKBKBKBKBKBKBKBKBKBKBKBKBKBKBKBKBKBKBKBKBKBKBKBKBKBKBKBKBKBKBCB'ApAuARAUAPAYAwA7A*A}A7AtAtAyA2A^AqA;A?AoA+AKBKBKBKBKBKBKBKBKBKBKBKBKBKBKBKBKBKBKBKBKBKBKBKBKBKBKBKBKBKBKBKBKBKBKBKBKBKBKBKBKBKBKBKBKBKBKBKBKBKBKBKBKBKBKB>AKB=AIB)A<AKBKBBBKBKBKBIBKBKBKBKBKBKBKBKBKBKBKBKBKBKBKBKBKBKBKBKBKBKBKBKBKBKBKBKBKBKBKBKBKBKBKBKBKBKBKBKBKBKBKBKBKBKBKBKB",
"KBKBKBKBKBKBKBKBKBKBKBKBKBKBKBKBKBKBKBKBKB(A#AmArA!ApAaAQAJAAAJAUAmA1AeA*A*AKBGBKBKBKBKBKBKBKBKBKBKBKBKBKBKBKBKBKBKBKBKBKBKBKBKBKBKBKBKBKBKBKBKBKBKBKBKBKBKBKBKBKB^A_AgAhAQANAgAmAuA9AwApAqA6A$A|AwA.AKB5AKBKBKBKBKBKBKBKBKBKBKBKBKBKBKBKBKBKBKBKBKBKBKBKBKBKBKBKBKBKBKBKBKBKBKBKBKBKBKBKBKBKBKBKBKBKBKBKBKBKBKBKBKBKBKBKB/AKB|AKBBB.AKBKBKBKBKBKBKBKBKBKBKBKBKBKBKBKBKBKBKBKBKBKBKBKBKBKBKBKBKBKBKBKBKBKBKBKBKBKBKBKBKBKBKBKBKBKBKBKBKBKBKBKBKBKBKB",
"KBKBKBKBKBKBKBKBKBKBKBKBKBKBKBKBKBKBKBKB.A^AwAbAXAsAlAPAJAAAJASAfAwAzANAyA)AKBKBKBKBKBKBKBKBKBKBKBKBKBKBKBKBKBKBKBKBKBKBKBKBKBKBKBKBKBKBKBKBKBKBKBKBKBKBKBKBKBKBKB<AAB8AyArAhA@A#A$A:A_A!A)A>AFBKB?AKBKB,AKBKBKBKBKBKBKBKBKBKBKBKBKBKBKBKBKBKBKBKBKBKBKBKBKBKBKBKBKBKBKBKBKBKBKBKBKBKBKBKBKBKBKBKBKBKBKBKBKBKBKBKBKBKBKBKBIBKB*ACB|A!A.A?A<AKBKBKBKBKBKBKBKBKBKBKBKBKBKBKBKBKBKBKBKBKBKBKBKBKBKBKBKBKBKBKBKBKBKBKBKBKBKBKBKBKBKBKBKBKBKBKBKBKBKBKBKB",
"KBKBKBKBKBKBKBKBKBKBKBKBKBKBKBKBKBKBKB|A-AmAkAOAZAhARAJAAAJAQAOAoA0AvAfA2AqA<A@A ADBKBKBKBKBKBKBKBKBKBKBKBKBKBKBKBKBKBKBKBKBKBKBKBKBKBKBKBKBKBKBKBKBKBKBKBKB ABB>A2A+AjA0ApAuA#A-A;AGB'A=A_A'A'A<AxA=A{AjA{ABBKBKBKBKBKBKBKBHBKBBBKBKBKBKBKBKBKBKBKBKBKBKBKBKBKBKBKBKBKBKBKBKBKBKBKBKBKBKBKBKBKBKBKBKBKBKBKBKBKBKBKBKBKB?AyA}AxA=A8A6A.AEB>AJBHBKB{AKB<AKBKBKBKBKBKBKBKBKBKBKBKBKBKBKBKBKBKBKBKBKBKBKBKBKBKBKBKBKBKBKBKBKBKBKBKBKBKBKBKBKB}AKBHBDBKB",
"KBKBKBKBKBKBKBKBKBKBKBKBKBKBKBKBKBKBKB A=A5AhARAPATAJAAAJAPAaApA&A'A)AxA1A-AKBCBKBKBKBKBKBKBKBKBKBKBKBKBKBKBKBKBKBKBKBKBKBKBKBKBKBKBKBKBKBKBKBKBKBKBKBKBKBKBKBKBKBEBKB_A'A%A#A;A'A<AKBIBGBIBKBKBKBHBKBKB<AKBKBKBKBKBKBKBKBKBKBKBKBKBKBKBKBKBKBKBKBKBKBKBKBKBKBKBKBKBKBKBKBKBKBKBKBKBKBKBKBKBKBKBKBKBKBKBKBKBKBKBKBKBKBKBKB)A>AmA9A1AqA(A'A=A.A?AGB<AKBKBKBKBKBKBKBKBKBKBKBKBKBKBKBKBKBKBKBKBKBKBKBKBKBKBKBKBKBKBKBKBKBKBKBKBKBKBKBKBKBKBKBKBKBKBKBKB",
"KBKBKBKBKBKBKBKBKBKBKBKBKBKBKBKBKBAB,ArAtASASAQAUAJAAAJARAlApAkA_A{A6AtAuAkA&AwA%A!A/AKBKBKBKBKBKBKBKBKBKBKBKBKBKBKBKBKBKBKBKBKBKBKBKBKBKBKBKBKBKBKBKBHBKBKB,ABBCB8A?A0A;A*A'AEBKBKBKBKBKBKBKBKBKB^A<A{AqA(A{AKBKBKBKBKBKBKBKBKBKBKBKBKBKBKBKBKBKBKBKBKBKBKBKBKBKBKBKBKBKBKBKBKBKBKBKBKBKBKBKBKBKBKBKBKBKBKBKBKBKBKBKBCB}AXAuARApAeAmA$A{A$A)A6A9AmA%A9A.AKBKBKBKBKBKBKBEBKBKBKBKBFBKBKBKBKBKBKBKBKBKBKBKBKBKBKBKBKBKBKBKBKBKBKBKBKBKBKBKB AKBEB|A<A",
"KBKBKBKBKBKBKBIBKBKBKBKBKBKBKBKBKBKB/A6AtAlAPAUAJAAAJATAhAsA!A2A}A|A9AlAdA3A=A(A<A AKBKBKBKBKBKBKBKBKBKBKBKBKBKBKBKBKBKBKBKBKBKBKBKBKBKBKBKBKBKBKBKBKBKBKBKBKBKBKB>AKB{ABB/AEBKBKBKBKBKBKBKBKBKBKBKBKBKB|AHBKBKBKBKBKBKBKBKBKBKBKBKBKBKBKBKBKBKBKBKBKBKBKBKBKBKBKBKBKBKBKBKBKBKBKBKBKBKBKBKBKBKBKBKBKBKBKBKBKBKBKBKBKBKBKB3A%AQAdAVAQApA0ApAxA0A!A1A.AEBKBKBKBKBKBKBKBKBKBKBKBKBKBKBKBKBKBKBKBKBKBKBKBKBKBKBKBKBKBKBKBKBKBKBKBKBKBKBKBKBKBKBKBKBKBKB",
"KBKBKBKBKBKBKBKBKBKBKBKBKBKBKBKBKBKBKB|A0ApAPAJAAAJAUAPAZAXArAoA7A!AuAXATAxA+A+ACBKBKBKBKBKBKBKBKBKBKBKBKBKBKBKBKBKBKBKBKBKBKBKBKBKBKBKBKBKBKBKBKBKBKBKBKBKBKBKBKB+ABB#A=A)A_AJBKBKBKBKBKBKBKBKBKBBBKBKB=AFBKBKBKBKBKBKBKBKBKBKBKBKBKBKBKBKBKBKBKBKBKBKBKBKBKBKBKBKBKBKBKBKBKBKBKBKBKBKBKBKBKBKBKBKBKBKBKBKBKBKBKBKBKBKBKB}ACBnA6AuAbArAwAvA(A|ADB:AKBKBKBKBKBKBKBKBKBKBKBKBKBKBKBKBKBKBKBKBKBKBKBKBKBKBKBKBKBKBKBKBKBKBKBKBKBKBKBKBKBKBKBKBKBKBKBKB",
"KBKBKBKBKBKBKBKBKBKBKBKBKBKBKBKBKBKB A$AqAVAJAAAJAUAQARAOAbAmAQAoAhARAOAWARA2AsA*A>AKBKBKBKBKBKBKBKBKBKBKBKBKBKBKBKBKBKBKBKBKBKBKBKBKBKBKBKBKBKBKBKBKBKBKBKB:A(A#AZAtAUArAtA8A'ABBKBKBGB;A-A(A#A%AoA%A%AWA0A_AHBKBKBKBKBKBKBKBKBKBKBKBKBKBKBKBKBKBKBKBKBKBKBKBKBKBKBKBKBKBKBKBKBKBKBKBKBKBKBKBKBKBKBKBKBKBKBKBKBKBKBKBKBKB@A AsA^AnAxA(A-A6A:A;AEB(AKBDBKBKBKBKBKBKBKBKBKBKBKBKBKBKBKBKBKBKBKBKBKBKBKBKBKBKBKBKBKBKBKBKBKBKBKBKBKBKBKBKBKBDBKBKBKBKB",
"KBKBKBKBKBKBKB,AKBKBKBKBKBKBKBKBJB<A%AqAVAJAAAJAPAPASAhAkAwA#AsA&A!ApAUAMAZAwAsA6A(AGBKBKBKBKBKBKBKBKBKBKBKBKBKBKBKBKBKBKBKBKBKBKBKBKBKBKBKBKBKBKBKBKBKBKBKBGBHBHB8A:A7A|A}AABKBKBKBKBKBKBKBKBKBKB'AKBBB5A^A:AKBKBKBKBKBKBKBKBKBKBKBKBKBKBKBKBKBKBKBKBKBKBKBKBKBKBKBKBKBKBKBKBKBKBKBKBKBKBKBKBKBKBKBKBKBKBKBKBKBKBKBKBKBKB2A}AfAwARAcAqApAdA1A1A(AvA<A>AKBKBKBKBKBKBKBKBKBKBKBKBKBKBKBKBKBKBKBKBKBKBKBKBKBKBKBKBKBKBKBKBKBKBKBKBKBKBKBKBKBKBKBKBKBKB",
"KBKBKBKBIBEBHB_AKBKBKBKBKBKBKBEB*A6AvAVAJAAAJAVApAlASA5AmA^A(AsA=A@AoAfAQAMAXAQAfArA%A/AKBKBKBKBKBKBKBKBKBKBKBKBKBKBKBKBKBKBKBKBKBKBKBKBKBKBKBKBKBKBKB{AKB?A9A*A_AqA)AwA{A=AEBKBKBKBKBKBKBKBKBCBAB9A)A6AgAqAxA{A?A,AKBKBKBKBKBKBKBKBKBKBKBKBKBKBKBKBKBKBKBKBKBKBKBKBKBKBKBKBKBKBKBKBKBKBKBKBKBKBKBKBKBKBKBKBKBKBKBKBKBHBEBrA(AmA5AWAxA-A(AwA%AxA^AjA*A@AFBKBKBKBKBKBKBKBCBKBKBKBKB,AKBKBKBKBKBKBKBKBKBKBKBKBKBKBKBKBKBKBKBKBKBKBKBKBKBKBKB/AKB A_A=A",
"KBKBKBKB<A-A)AsA=A,AKBKBKBKBKB>A!AsAZAJAAAJAVAqA0AtAtA=A-A.AKB)A/A+AwArASARAOATAbArA*A;AKBKBKBKBKBKBKBKBKBKBKBKBKBKBKBKBKBKBKBKBKBKBKBKBKBKBKBKBKBKBKB AKBGB,A,A/A7A>A+AEBKBKBKBKBKBKBKBKBKBKBKBKBDBJB<A5AwA5A|ABB'AKBKBKBKBKBKBKBKBKBKBKBKBKBKBKBKBKBKBKBKBKBKBKBKBKBKBKBKBKBKBKBKBKBKBKBKBKBKBKBKBKBKBKBKBKBKBKBKBKBKBKB5A|AqA3AYAtA!A1AcAzAjA7AlA*A}AKBKBKBKBKBKBKBKBIBKBKBKBKBKBKBKBKBKBKBKBKBKBKBKBKBKBKBKBKBKBKBKBKBKBKBKBKBKBKBKBKBKBKBKBDB/A",
"KBKBEB-A7AyA4AoA$A&ABB>AKB A.A6AkASAJAAAJAVAqA$A|A6ArA A|AKBKBBBKBIB(A_AzAcASAPANAPAoAzA{AKBKBKBKBKBKBKBKBKBKBKBKBKBKBKBKBKBKBKBKBKBKBKBKBKBKBKBIB}A:A9A.A}A9A+A.A@AFB AKBKBKBKBKBKBKBKBKBKBKBKBKBDBCB(A0ArApA@A*A4A?AKBKBKBKBKBKBKBKBKBKBKBKBKBKBKBKBKBKBKBKBKBKBKBKBKBKBKBKBKBKBKBKBKBKBKBKBKBKBKBKBKBKBKBKBKBKBKBKB:A<AlA7AmAxAXA3A{A(ArAzARAnAQAoAtA_AABKBKBKBKBKB>A!A{AEB<AIB{AKBKBKBKBKBKBKBKBKBKBKBKBKBKBKBKBKBKBKBKBKBKBKBKBKBKBKBDBKB,A7AzA",
"KBHB:A3AkASAXAQAlAnA@A8A,A-A(AvAaAJAAAJAZAvA%A AKB/A,AKBKBKBKBKBKBKBABCB%AxAUAlARAcAxA1A+ADBKBKBKBKBKBKBKBKBKBKBKBKBKBKBKBKBKBKBKBKBKBKBKBKBKBKBKB+A.A_A.A}A{A;AGB'AKBKBKBKBKBKBKBKBKBKBKBKBKBKBKBKBKBBB)AxAuA5A!A3A<AKBKBKBKBKBKBKBKBKBKBKBKBKBKBKBKBKBKBKBKBKBKBKBKBKBKBKBKBKBKBKBKBKBKBKBKBKBKBKBKBKBKBKBKBKBKBKBKBKBKB:AHB{A'AzA|ACB}A1A%AoA%A0A-A'AKBKBKBKBKBKBKBKB?AKBKBKBKBKBKBKBKBKBKBKBKBKBKBKBKBKBKBKBKBKBKBKBKBKBKBKBKBKBKBKBKBKBKBKBEB|A",
"BB{A#AoAgATAUAVAiARAgATAfAcAhATAJAAAJASAsA6A<AKBKBKBABKBKBKBKBKBKBKBKBKB/A@ApAnARAMAWAQAdAsA^A.AKBKBKBKBKBKBKBKBKBKBKBKBKBKBKBKBKBKBKBKBKBKBKB/A)ApA6A2A@A^A&A;AKB?AKBKBKBKBKBKBKBKBKBKBKBKBKBKBKBKBKB>A)A1AmA4AxAfA7A)A AKBKBKBKBKBKBKBKBKBKBKBKBKBKBKBKBKBKBKBKBKBKBKBKBKBKBKBKBKBKBKBKBKBKBKBKBKBKBKBKBKBKBKBKBKBKBHBKB;ACB.A A^AJBKBIB+A{AnA!A1A9A#ADB AKBKB/A.A&A@A!A_AIB+ACB,AKBKBKBKBKBKBKBKBKBKBKBKBKBKBKBKBKBKBKBKBKBKBKBKBKBKBKBKBKBDB{A3A",
"!AyAmANAMANAjAuA8AtA&AwA#ArAgAJAAAJAaAkA!A*AJBKBKBKBKBKBKBKBKBKBKBKBBBKBAB7AnAiAQARARAZAwA@A%AABEBKBKBKBKBKBKBKBKBKBKBKBKBKBKBKBKBKBKBKBKBKBKBDB)AmAsAmApAlAsAuA*A$ADBKBKBKBKBKBKBKBKBKBKBKBKBKBKBCB A&A7AcAOARARAQAnA7A_AKBKBKBKBKBKBKBKBKBKBKBKBKBKBKBKBKBKBKBKBKBKBKBKBKBKBKBKBKBKBKBKBKBKBKBKBKBKBKBKBKBKBKBKBKBKBKBKBEBKBKBKBABKBKBKBKBKB%A A_A'A*AKBKBKBKBKBHBAB;A_A}AJB(A:A-A>ACBKBKBKBKBKBKBKBKBKBKBKBKBKBKBKBKBKBKBKBKBKBKBKBKBKBKBKB A+A0A",
"@AxAiAQATANAoA4A!AkAxAYAoAVAJAAAJATAvA6A>AEBKBKBKBKBKBKBKBKBKBKBKBKBKBKBKBKB:A(AwAaASANAXAlAuA^A|AKBKBKBKBKBKBKBKBKBKBKBKBKBKBKBKBKBKBKBKBKBCB-A3AXAtAxAyA@A+AEBKBKBKBKBKBKBKBKBKBKBKBKBKBKBKBKBKBKBKBKBIB:AtA7AqAUAfAtA%AKBKBKBKBKBKBKBKBKBKBKBKBKBKBKBKBKBKBKBKBKBKBKBKBKBKBKBKBKBKBKBKBKBKBKBKBKBKBKBKBKBKBKBKBKBKBKBKBJBKBKBKBKBKBKBKBKBKB)AAB}A;A(AKBABKBKB<A{A$A#A$A(AEB$A<A:AKBKBKBKBKBKBKBKBKBKBKBKBKBKBKBKBKBKBKBKBKBKBKBKBKBKBKBKBKBAB|AzA",
"%AxAiAVAoAmA$A,A A9A!AgAaAJAAAJAgAhA(A.AKBKBKBKBKBKBKBKBKBKBKBKBKBKBKBKBKBKBKBCB-A0AdAQAPAQATApA2A_AKBKBKBKBKBKBKBKBKBKBFB=ACB.AJBKBKB?A<ADB&AvAiANAZAuAoA!A|AKBKBKBKBKBKBKBKBKBKBKBKBKBKBKBKBKBKBKBKBKBKBGB6A-AxAZAUAVArAKBKBKBKBKBKBKBKBKBKBKBKBKBKBKBKBKBKBKBKBKBKBKBKBKBKBKBKBKBKBKBKBKBKBKBKBKBKBKBKBKBKBGBKBKBKBGBKBKBKBKBKBKBKBKBKBKBKB AKBGB/A|AKB'AKB/A*A3AyA3A!A6A'AyA$A_ABB'AKBKBKBKBKBKBKBKBKBKBKBKBKBKBKBKBKBKBKBKB>AKBKBIBKBKBHB,A;AzA",
"|A(A0AbAyAhA8A}A}AxAnAOAJAAAJAVArAcA-A AKBKBKBKBKBKBKBKBKBKBKBKBKBKBKBKBKBKBKBKB<A9AyAYASAQAaAMAvAqA-AABKBKBKBKBKBKB|A:A#AtA,A)AFBJBKBKBKBHB+AxA7AmA7A}A_ADBKBKBKBKBKBKBKBKBKBKBKBKBKBKBKBKBKBKBKBKBKBKBKBKB;ADB_AxAvAoA(AKBKBKBKBKBKBKBKBKBKBKBKBKBKBKBKBKBKBKBKBKBKBKBKBKBKBKBKBKBKBKBKBKBKBKBKBKBKBKBKBKBKBKBKBKBKBKBKBKBKBKBKBKBKBKBKBKBKBABKBKBFBDBKBDBKB;A,A7AzA%A+A;AKB|AIBKBKBKBKBKBKBKBKBKBKBKBKBKBKBKBKBKBKBKBKBKBKBKBKBKBKBKBKBKBKBKBKB=A",
"KBEB{AzA$ArA@A}A%AqAXAJAAAJAaAoA#AfA,AKBKBKBKBKBKBKBKBKBKBKBKBKBKBKBKBKBKBKBKBKBKB*A!AjAUANAnAvA,A>AKBKBKBKBKBKBKBKBKBKBKB;AKBDBKBKBKBKBKBKB?A$A9AsA)ACBBBKBKBKBKBKBKBKBKBKBKBKBKBKBKBKBKBKBKBKBKBKBKBKBKBKBHBKBEB&A$A4A,AKBKBKBKBKBKBKBKBKBKBKBKBKBKBKBKBKBKBKBKBKBKBKBKBKBKBKBKBKBKBKBKBKBKBKBKBKBKBKBKBKBKBKBKBKBKBKBKBKBKBKBKBKBKBKBKBKBKB/AKBKBCBGBKB.AKB:A{A$AtA4A&A}AKB<AKBKBKBKBKBKBKBKBKBKBKBKBKBKBKBKBKBKBKBKBKBKBKBKBKBKBKBKBKBKBKBKBKB|A",
"?A.A@AbAmAUAlA0AnAQAJAAAJAOAgAYAwATA8A>AKBKBKBKBKBKBKBKBKBKBKBKBKBKBKBKBKBKBKBKB>A$A!AmAhAmA!A$AJBGBKBKBKBKBKBKBKBKBKBKBKBKBKBKBKBKBKBKBKBKBKBAB,A5A:AEBABKBKBKBKBKBKBKBKBKBKBKBKBKBKBKBKBKBKBKBKBKBKBKBKBKBBBGB;A!A$A^AGBKBKBKBKBKBKBKBKBKBKBKBKBKBKBKBKBKBKBKBKBKBKBKBKBKBKBKBKBKBKBKBKBKBKBKBKBKBKBKBKBKBKBKBKBKBKBKBKBKBKBKBKBKBKBKBKBKBKB+AFBIBBBIBKBIBKBKBEB A%A&A+AEBKBIBKBKBKBKBKBKBKBKBKBKBKBKBKBKBKBKBKBKBKBKBKBKBKBKBKBKBKBKBKBKBKBKBKB?A",
"KBKBKB#A!AmAlAsAXAJAAAJAXAnA!AxA&AgA@ABBKBKBKBKBKBKBKBKBKBKBKBKBKBKBKBKBKBKBKBKBJB{A'A3A2A4A.A?AKBKBKBKBKBKBKBKBKBKBKBKBKBKBKBKBKBKBKBKBKBKBKBKBKB,AKBKBKBKBKBKBKBKBKBKBKBKBKBKBKBKBKBKBKBKBKBKBKBKBKBKBKBKBKBKBKBABJBJBKBKBKBKBKBKBKBKBKBKBKBKBKBKBKBKBKBKBKBKBKBKBKBKBKBKBKBKBKBKBKBKBKBKBKBKBKBKBKBKBKBKBKBKBKBKBKBKBKBKBKBKBKBKBKBKBKBKBJB*AABIBEBKBKBKBKBKBKBKB:A<A?AKBKBKBKBKBKBKBKBKBKBKBKBKBKBKBKBKBKBKBKBKBKBKBKBKBKBKBKBKBKBKBKBKBKBKBKBKB",
"KBKB,AxAoARAOATAJAAAJAQAqAxA9AkAtARAnA&A,AKBKBKBKBKBKBKBKBKBKBKBKBKBKBKBKBKB{AKB{A@A&AzA8A(AHBKBKBKBKBKBKBKBKBKBKBKBKBKBKBKBKBKBKBKBKBKBKBKBKBKBKB}AKBKBKBKBKBKBKBKBKBKBKBKBKBKBKBKBKBKBKBKBKBKBKBKBKBKBKBKBCBJBAB_AABKBKBKBKBKBKBKBKBKBKBKBKBKBKBKBKBKBKBKBKBKBKBKBKBKBKBKBKBKBKBKBKBKBKBKBKBKBKBKBKBKBKBKBKBKBKBKBKBKBKBKBKBKBKBHBKBKBKBCB>A6A'A?AABKBKBKBKBKBKBKBDBABABKBKBKBKBKBKBKBKBKBKBKBKBKBKBKBKBKBKBKBKBKBKBKBKBKBKBKBKBKBKBKBKBKBKBKBKBJB",
"KBKBKB}A9AnARAJAAAJAXAnA%A}A A!A8AiAlA$A=AKBKBKBKBKBKBKBKBKBKBKBKBKBKBKBKBKB%AHB}A_A/A(A.AFBKBKBKBKBKBKBKBKBKBKBKBKBKBKBKBKBKBKBKBKBKBKBKBKBKBKBKBKBKBKBKBKBKBKBKBKBKBKBKBKBKBKBKBKBKBKBKBKBKBKBKBKBKBKBKBKBKBKBKBEBKBKBKBKBKBKBKBKBKBKBKBKBKBKBKBKBKBKBKBKBKBKBKBKBKBKBKBKBKBKBKBKBKBKBKBKBKBKBKBKBKBKBKBKBKBKBKBKBKBKBKBKBKBKBIB AKBKB>A|A-A4A=A?AFBKBKBKBKBKBKBKBKBKBKBKBKBKBKBKBKBKBKBKBKBKBKBKBKBKBKBKBKBKBKBKBKBKBKBKBKBKBKBKBKBKBKBKBKBKBKBKB",
"KBKBIB)AzAbAJAAAJATAsA0A}A}A,A4AuAVAQAoAsA_A,AKBKBIBKBKBKBKBKBKBKBKBKBKB}A{AnA(A2A2A*A7A'AGBKBKBKBKBKBKBKBKBKBKBKBKBKBKBKBKBKBKBKBKBKBKBKBKBKBKBKBABKBKBKBKBKBKBKBKBKBKBKBKBKBKBKBKBKBKBKBKBKBKBKBKBKBKBKB A,ACBAB;AKBKBKBKBKBKBKBKBKBKBKBKBKBKBKBKBKBKBKBKBKBKBKBKBKBKBKBKBKBKBKBKBKBKBKBKBKBKBKBKBKBKBKBKBKBKBKBKBKBKBKBKBKB?A|A8A{A;A9AwA0AkA8A%A;AHBKBKBKBKBKBKBKBKBHBKBKBKBKBKBKBKBKBKBKBKBKBKBKBKBKBKBKBKBKBKBKBKBKBKBKBKBKBKBKBKBKBKBKBKBKBHB",
"JBKB{AwAeAJAAAJARAOAlAlA@A8A$AoAjAUAXA4A)AHBKBKBKBKBKBKBKBKBKBKBKBKBKBKBKBHB2A<A7A8A^A5A-A.AKBKBKBKBKBKBKBKBKBKBKBKBKBKBKBKBKBKBKBKBKBKBKBKBKBKBKB'AJBIBKBKBKBKBKBKBKBKBKBKBKBKBKBKBKBKBKBKBKBKBKBKBKBKBKBDB'A,A}A&A AKBKBKBKBKBKBKBKBKBKBKBKBKBKBKBKBKBKBKBKBKBKBKBKBKBKBKBKBKBKBKBKBKBKBKBKBKBKBKBKBKBKBKBKBKBKBKBKBKBKBKBKBKBKBBBKBKBKB/A/A6A.A>ADBKBKBKBKBKBKBKBKBKBKBKBKBKBKBKBKBKBKBKBKBKBKBKBKBKBKBKBKBKBKBKBKBKBKBKBKBKBKBKBKBKBKBKBKBKBKBKB",
"}A=A1AbAJAAAJAbAnARAmAUArAhAmANANATASAyA-AEBKBKBKBKBKBKBKBKBKBKBKBKBKBKBKBDB4A_AvArAtAnAuA6A}ABBKBKBKBKBKBKBKBKBKBKBKBKBKBKBKBKBKBKBKBKBKBKBKBKBAB4A_A-A=A;AABJBKBKBKBKBKBKBKBKBKBKBKBKBKBKBKBKBKBKBKBKBKB;A6A6AzArA#A+AKBKBKBKBKBKBKBKBKBKBKBKBKBKBKBKBKBKBKBKBKBKBKBKBKBKBKBKBKBKBKBKBKBKBKBKBKBKBKBKBKBKBKBKBKBKBKBKBKBKBKBKBKBGBKBKBKBHBKB^ACB/ACBEBKBKBKBKBKBKBBBAB AKBKBIBKBKBKBKBKBKBKBKBKBKBKBKBKBKBKBKBKBKBKBKBKBKBKBKBKBKBKBKBKBKBKBKBKB'A",
"zA2AfAJAAAJAeAzA9AoA!AmA$AyAoATAMAgAkA7A<AIBKBKBKBKBKBKBKBKBKBKBKBKBKBKBKBCB7A%ArAtAtAwA#A{A;AIBKBKBKBKBKBKBKBKBKBKBKBKBKBKBKBKBKBKBKBKBKBKBKBKBAB5A@A7A2A1A*A=AKBKBKBKBKBKBKBKBKBKBKBKBKBKBKBKBKBKBKBIBDB!AsAfAaAeA0A^A AKBKBKBKBKBKBKBKBKBKBKBKBKBKBKBKBKBKBKBKBKBKBKBKBKBKBKBKBKBKBKBKBKBKBKBKBKBKBKBKBKBKBKBKBKBKBKBKBKBKBKBKBKBKBKBKBKBKB AKBKBKBKBKBKBKBKBKBKBKBKBKBKBKBGBKBHBKBKBKBKBKBKBKBKBKBKBKBKBKBKBKBKBKBKBKBKBKBKBKBKBKBKBKBKBKBKBKB'A",
"kAgAJAAAJAbAwA)A}AxA#AbAzAbAVAQANAoA3A-AKBKBKBKBKBKBKBKBKBKBKBKBKBKBKBKBKBKB<A|A3AwArAsAyA2A6A(A{ADBKBKBKBKBKBKBKBKBKBKBKBKBKBKBKBKBKBKBKBKBKB?A*AtAwA1AlA2A}ACBKBKBKBKBKBKBKBKBKBKBKBKBKBKBKBKBKBKBKBKBKB;AzAwAaAQAcAqA#AKBKBKBKBKBKBKBKBKBKBKBKBKBKBKBKBKBKBKBKBKBKBKBKBKBKBKBKBKBKBKBKBKBKBKBKBKBKBKBKBKBKBKBKBKBKBKBKBKBKBKBKBKBKBKBKBKBKBHBKBKBKBJBKBKBKBKBKBKBCBGBGBGBKB'A?A AKBFBKBKBKBKBKBKBKBKBKBKBKBKBKBKBKBKBKBKBKBHBBBKBKBKBKBKBKBKBKB+A",
"RAJAAAJAfA1A{AIBKB,AKB@A{A0AiAiAmA#A:AEBKBKBKBKBKBKBKBKBKBKBKBKBKBKBKBKBKBKBKB?A(A%A0A8A%A9A2A*A#ADBKBKBKBKBKBKBKBKBKBKBKBKBKBKBKBKBKBKBKBKBKB'A#AxAqAuAWApA^A.AKBKBKBKBKBKBKBKBKBKBKBKBKBKBKBKBKBKBKBKBKB'A1AuAPAQATAfA1AKBKBKBKBKBKBKBKBKBKBKBKBKBKBKBKBKBKBKBKBKBKBKBKBKBKBKBKBKBKBKBKBKBKBKBKBKBKBKBKBKBKBKBKBKBKBKBKBKBKBKBKBKBKBKBKBKBKBKBKBKBKBKBKBKBKBKBKBJBJBKBKBFBKB|A|A;A?A:AKBKBKBKBKBKBKBKBKBKBKBKBKBKBKBKBKBKBKB=A-AKBKBKBKBKBKBKBKB}A",
"JAAAJAgA2A=AKBKBKBKBKB.AEB(AxAxAyA{AHBKBKBKBKBKBKBKBKBKBKBKBKBKBKBKBKBKBKBKBKBDB;A{A5A)A:A+A!A=A4ABBEBKBKBKBKBKBKBKBKBKBKBKBKBKBKBKBKBKBKBKBKB<A%A5ApAsAMAZA7A}AKBKBKBKBKBKBKBKBKBKBKBKBKBKBKBKBKBKBKBFBKB,A5AzARAbAVAjApAKBKBKBKBKBKBKBKBKBKBKBKBKBKBKBKBKBKBKBKBKBKBKBKBKBKBKBKBKBKBKBKBKBKBKBKBKBFBKBKBKBKBKBKBKBKBKBKBKBKBKBKBKBKBKBKBKBKBKBKBKBKBKBKBKBKBKBKBKBKBKBKBIBKB{A&A)A(A3A&A6A-A AEBKBDBKBKBKBKBKBKBKBKBIB,A2A0AaAmA!A+A.A AFBKBKBKB;A",
"AAJARAkAzA}AJBKBKBKBKB?AKB|A%A@A!ABBKBKBKBKBKBKBKBKBKBKBKBKBKBKBKBKBKBKBKBKBKBKBBBEB;ABBKBDB<AAB}AKBKBKBKBKBKBKBKBKBKBKBKBKBKBKBKBKBKBKBKBKBKBKBBB:A^A^AjAjA-A>AKBKBKBKBKBKBKBKBKBKBKBKBKBKBKBKBKBKBKBKBKBDB-A2AMAuAtA4A^AKBKBKBKBKBKBKBKBKBKBKBKBKBKBKBKBKBKBKBKBKBKBKBKBKBKBKBKBKBKBKBKBKBKBKBKBKBKBKBKBKBKBKBKBKBKBKBKBKBKBKBKBKBKBKBKBKBKBKBKBKBKBKBKBKBKBKBKBKBKBKBKBKBKBKBGBFBFB>AJB?AKBKBKBKBKBKBKBKBKBKBKBKBKBKBKB'A<A5A)AGBKBKBKBKBKBKBKBKB"
